;Fusion 360 CAM 2.0.6516
;Posts processor: MPCNC_Mill_Laser.cps
;Gcode generated: Thursday, October 24, 2019 9:57:51 PM GMT
;Document: uni logo v2
;Setup: Setup2

G90
G21
M84 S0
G92 X0 Y0 Z0

;Probe tool - Not yet implemented

;Engrave2 - Milling - Tool: 1 - spot drill
;X Min: 1.001 - X Max: 100.999
;Y Min: -60.999 - Y Max: -1.001
;Z Min: -2.5 - Z Max: 15
M400
M117 Engrave2
G1 Z15 F300
G1 X1.001 Y-60.999 F2500
G1 Z4 F300
G1 Z-1.001 F466
G1 X1.935 Y-60.065 Z-1.935 F800
G1 Z5 F300
G1 X19.434 Y-42.999 F2500
G1 Z4 F300
G1 Z-1.001 F466
G1 X20.934 Y-41.5 Z-2.5 F800
G1 Y-2.5
G1 Y-41.5
G1 X41.5
G1 X42.999 Y-42.999 Z-1.001
G1 X41.5 Y-41.5 Z-2.5
G1 Y-22
G2 X43 Y-20.5 I1.5
G1 X59.206
G2 X60.706 Y-22 J-1.5
G1 Y-59.5
G1 Z5 F300
G1 X1.935 Y-1.935 F2500
G1 Z4 F300
G1 Z-1.935 F466
G1 X2.021 Y-1.854 Z-1.854 F800
G1 X2.106 Y-1.781 Z-1.781
G1 X2.191 Y-1.715 Z-1.715
G1 X2.276 Y-1.657 Z-1.657
G1 X2.361 Y-1.607 Z-1.607
G1 X2.446 Y-1.564 Z-1.564
G1 X2.531 Y-1.53 Z-1.53
G1 X2.616 Y-1.503 Z-1.503
G1 X2.701 Y-1.483 Z-1.483
G1 X2.786 Y-1.472 Z-1.472
G1 X2.871 Y-1.468 Z-1.468
G1 X19.434
G1 X19.519 Y-1.472 Z-1.472
G1 X19.604 Y-1.483 Z-1.483
G1 X19.689 Y-1.503 Z-1.503
G1 X19.774 Y-1.53 Z-1.53
G1 X19.859 Y-1.564 Z-1.564
G1 X19.944 Y-1.607 Z-1.607
G1 X20.029 Y-1.657 Z-1.657
G1 X20.114 Y-1.715 Z-1.715
G1 X20.199 Y-1.781 Z-1.781
G1 X20.284 Y-1.854 Z-1.854
G1 X20.369 Y-1.935 Z-1.935
G1 X20.934 Y-2.5 Z-2.5
G1 X80.891
G1 X82.391 Y-1.001 Z-1.001
G1 X80.891 Y-2.5 Z-2.5
G1 Y-19.504
G1 X81 Y-19.609 Z-2.391
G1 X81.696 Y-20.304 Z-1.696
G1 X81.765 Y-20.37 Z-1.63
G1 X81.835 Y-20.43 Z-1.57
G1 X81.904 Y-20.482 Z-1.518
G1 X81.974 Y-20.527 Z-1.473
G1 X82.044 Y-20.565 Z-1.435
G1 X82.113 Y-20.596 Z-1.404
G1 X82.183 Y-20.621 Z-1.379
G1 X82.252 Y-20.638 Z-1.362
G1 X82.322 Y-20.649 Z-1.351
G1 X82.391 Y-20.652 Z-1.348
G1 X82.461 Y-20.656 Z-1.351
G1 X82.531 Y-20.666 Z-1.362
G1 X82.6 Y-20.683 Z-1.379
G1 X82.67 Y-20.708 Z-1.404
G1 X82.739 Y-20.739 Z-1.435
G1 X82.809 Y-20.777 Z-1.473
G1 X82.878 Y-20.823 Z-1.518
G1 X82.948 Y-20.875 Z-1.57
G1 X83.018 Y-20.934 Z-1.63
G1 X83.087 Y-21 Z-1.696
G1 X83.891 Y-21.804 Z-2.5
G1 Y-43
G2 X82.391 Y-44.5 I-1.5
G1 X81
G2 X79.5 Y-43 J1.5
G1 Y-21
G2 X80.891 Y-19.504 I1.5
G1 Z5 F300
G1 X1.935 Y-1.935 F2500
G1 Z4 F300
G1 Z-1.935 F466
G1 Y-60.065 F800
G1 X2.021 Y-60.146 Z-1.854
G1 X2.106 Y-60.219 Z-1.781
G1 X2.191 Y-60.285 Z-1.715
G1 X2.276 Y-60.343 Z-1.657
G1 X2.361 Y-60.393 Z-1.607
G1 X2.446 Y-60.436 Z-1.564
G1 X2.531 Y-60.47 Z-1.53
G1 X2.616 Y-60.497 Z-1.503
G1 X2.701 Y-60.517 Z-1.483
G1 X2.786 Y-60.528 Z-1.472
G1 X2.871 Y-60.532 Z-1.468
G1 X59.206
G1 X59.291 Y-60.528 Z-1.472
G1 X59.376 Y-60.517 Z-1.483
G1 X59.461 Y-60.497 Z-1.503
G1 X59.546 Y-60.47 Z-1.53
G1 X59.631 Y-60.436 Z-1.564
G1 X59.716 Y-60.393 Z-1.607
G1 X59.801 Y-60.343 Z-1.657
G1 X59.886 Y-60.285 Z-1.715
G1 X59.972 Y-60.219 Z-1.781
G1 X60.057 Y-60.146 Z-1.854
G1 X60.142 Y-60.064 Z-1.936
G1 X60.706 Y-59.5 Z-2.5
G1 X99.5
G1 X100.999 Y-60.999 Z-1.001
G1 X99.5 Y-59.5 Z-2.5
G1 Y-21.804
G1 X100 Y-21.304 Z-2
G1 X99.5 Y-21.804 Z-2.5
G1 X83.891
G1 Z5 F300
G1 X82.392 Y-20.304 F2500
G1 Z4 F300
G1 Z-1.001 F466
G1 X83.891 Y-18.804 Z-2.5 F800
G1 Y-3.913
G1 X98.5
G1 X99.999 Y-2.413 Z-1.001
G1 X98.5 Y-3.913 Z-2.5
G1 Y-18.804
G1 X83.891
G1 Z5 F300
G1 X1.001 Y-1.001 F2500
G1 Z4 F300
G1 Z-1.001 F466
G1 X1.935 Y-1.935 Z-1.935 F800
G1 Z15 F300

M400
M117 Job end
G1 X0 Y0 F2500
G1 Z0 F300
