;Fusion 360 CAM 2.0.6258
;Posts processor: MPCNC_Mill_Laser.cps
;Gcode generated: Monday, September 02, 2019 6:09:36 PM GMT
;Document: Separador v3
;Setup: Setup1

G90
G21
M84 S0
G92 X0 Y0 Z0

;Probe tool - Not yet implemented

;2D Contour1 - Milling - Tool: 2 - flat end mill
;X Min: -10.5 - X Max: 80.5
;Y Min: -80.5 - Y Max: 10.5
;Z Min: -6 - Z Max: 15
M400
M117 2D Contour1
G1 Z15 F300
G1 X38.535 Y-32.172 F2500
G1 Z5 F300
G1 Z2.5 F30
G1 Z-1
G1 X38.538 Y-32.17 Z-1.06
G1 X38.545 Y-32.162 Z-1.12
G1 X38.558 Y-32.149 Z-1.177
G1 X38.575 Y-32.132 Z-1.232
G1 X38.598 Y-32.11 Z-1.284
G1 X38.624 Y-32.083 Z-1.332
G1 X38.654 Y-32.053 Z-1.374
G1 X38.688 Y-32.019 Z-1.411
G1 X38.724 Y-31.983 Z-1.443
G1 X38.763 Y-31.944 Z-1.468
G1 X38.804 Y-31.903 Z-1.485
G1 X38.846 Y-31.861 Z-1.496
G1 X38.889 Y-31.819 Z-1.5
G1 X39.242 Y-31.465 F213
G3 Y-30.758 I-0.354 J0.354
G2 X36.167 Y-23.333 I7.425 J7.425 F200
G2 X57.167 I10.5
G2 X46.667 Y-33.833 I-10.5
G2 X46.621 I-0.023 J10.5
G2 X39.242 Y-30.758 I0.045 J10.5
G3 X38.535 I-0.354 J-0.354 F213
G1 X38.181 Y-31.112
G1 X38.139 Y-31.154 Z-1.496
G1 X38.097 Y-31.196 Z-1.485
G1 X38.056 Y-31.237 Z-1.468
G1 X38.017 Y-31.276 Z-1.443
G1 X37.981 Y-31.312 Z-1.411
G1 X37.947 Y-31.346 Z-1.374
G1 X37.917 Y-31.376 Z-1.332
G1 X37.89 Y-31.402 Z-1.284
G1 X37.868 Y-31.425 Z-1.232
G1 X37.851 Y-31.442 Z-1.177
G1 X37.838 Y-31.455 Z-1.12
G1 X37.83 Y-31.462 Z-1.06
G1 X37.828 Y-31.465 Z-1
G1 Z5 F300
G1 X32.172 F2500
G1 Z2.5 F30
G1 Z-1
G1 X32.17 Y-31.462 Z-1.06
G1 X32.162 Y-31.455 Z-1.12
G1 X32.149 Y-31.442 Z-1.177
G1 X32.132 Y-31.425 Z-1.232
G1 X32.11 Y-31.402 Z-1.284
G1 X32.083 Y-31.376 Z-1.332
G1 X32.053 Y-31.346 Z-1.374
G1 X32.019 Y-31.312 Z-1.411
G1 X31.983 Y-31.276 Z-1.443
G1 X31.944 Y-31.237 Z-1.468
G1 X31.903 Y-31.196 Z-1.485
G1 X31.861 Y-31.154 Z-1.496
G1 X31.819 Y-31.111 Z-1.5
G1 X31.465 Y-30.758 F213
G3 X30.758 I-0.354 J-0.354
G2 X15.909 Y-15.909 I-7.425 J7.425 F200
G2 X23.333 Y-12.833 I7.425 J-7.425
G2 X23.379 I0.023 J-10.5
G2 X33.833 Y-23.333 I-0.045 J-10.5
G2 X30.758 Y-30.758 I-10.5
G3 Y-31.465 I0.354 J-0.354 F213
G1 X31.111 Y-31.819
G1 X31.154 Y-31.861 Z-1.496
G1 X31.196 Y-31.903 Z-1.485
G1 X31.237 Y-31.944 Z-1.468
G1 X31.276 Y-31.983 Z-1.443
G1 X31.312 Y-32.019 Z-1.411
G1 X31.346 Y-32.053 Z-1.374
G1 X31.376 Y-32.083 Z-1.332
G1 X31.402 Y-32.11 Z-1.284
G1 X31.425 Y-32.132 Z-1.232
G1 X31.442 Y-32.149 Z-1.177
G1 X31.455 Y-32.162 Z-1.12
G1 X31.462 Y-32.17 Z-1.06
G1 X31.465 Y-32.172 Z-1
G1 Z5 F300
G1 Y-37.828 F2500
G1 Z2.5 F30
G1 Z-1
G1 X31.462 Y-37.83 Z-1.06
G1 X31.455 Y-37.838 Z-1.12
G1 X31.442 Y-37.851 Z-1.177
G1 X31.425 Y-37.868 Z-1.232
G1 X31.402 Y-37.89 Z-1.284
G1 X31.376 Y-37.917 Z-1.332
G1 X31.346 Y-37.947 Z-1.374
G1 X31.312 Y-37.981 Z-1.411
G1 X31.276 Y-38.017 Z-1.443
G1 X31.237 Y-38.056 Z-1.468
G1 X31.196 Y-38.097 Z-1.485
G1 X31.154 Y-38.139 Z-1.496
G1 X31.111 Y-38.181 Z-1.5
G1 X30.758 Y-38.535 F213
G3 Y-39.242 I0.354 J-0.354
G2 X23.333 Y-57.167 I-7.425 J-7.425 F200
G2 X23.288 I-0.023 J10.5
G2 X12.833 Y-46.667 I0.045 J10.5
G2 X30.758 Y-39.242 I10.5
G3 X31.465 I0.354 J0.354 F213
G1 X31.819 Y-38.889
G1 X31.861 Y-38.846 Z-1.496
G1 X31.903 Y-38.804 Z-1.485
G1 X31.944 Y-38.763 Z-1.468
G1 X31.983 Y-38.724 Z-1.443
G1 X32.019 Y-38.688 Z-1.411
G1 X32.053 Y-38.654 Z-1.374
G1 X32.083 Y-38.624 Z-1.332
G1 X32.11 Y-38.598 Z-1.284
G1 X32.132 Y-38.575 Z-1.232
G1 X32.149 Y-38.558 Z-1.177
G1 X32.162 Y-38.545 Z-1.12
G1 X32.17 Y-38.538 Z-1.06
G1 X32.172 Y-38.535 Z-1
G1 Z5 F300
G1 X37.828 F2500
G1 Z2.5 F30
G1 Z-1
G1 X37.83 Y-38.538 Z-1.06
G1 X37.838 Y-38.545 Z-1.12
G1 X37.851 Y-38.558 Z-1.177
G1 X37.868 Y-38.575 Z-1.232
G1 X37.89 Y-38.598 Z-1.284
G1 X37.917 Y-38.624 Z-1.332
G1 X37.947 Y-38.654 Z-1.374
G1 X37.981 Y-38.688 Z-1.411
G1 X38.017 Y-38.724 Z-1.443
G1 X38.056 Y-38.763 Z-1.468
G1 X38.097 Y-38.804 Z-1.485
G1 X38.139 Y-38.846 Z-1.496
G1 X38.181 Y-38.889 Z-1.5
G1 X38.535 Y-39.242 F213
G3 X39.242 I0.354 J0.354
G2 X46.667 Y-36.167 I7.425 J-7.425 F200
G2 X46.712 I0.023 J-10.5
G2 X57.167 Y-46.667 I-0.045 J-10.5
G2 X36.167 I-10.5
G2 X39.242 Y-39.242 I10.5
G3 Y-38.535 I-0.354 J0.354 F213
G1 X38.889 Y-38.181
G1 X38.846 Y-38.139 Z-1.496
G1 X38.804 Y-38.097 Z-1.485
G1 X38.763 Y-38.056 Z-1.468
G1 X38.724 Y-38.017 Z-1.443
G1 X38.688 Y-37.981 Z-1.411
G1 X38.654 Y-37.947 Z-1.374
G1 X38.624 Y-37.917 Z-1.332
G1 X38.598 Y-37.89 Z-1.284
G1 X38.575 Y-37.868 Z-1.232
G1 X38.558 Y-37.851 Z-1.177
G1 X38.545 Y-37.838 Z-1.12
G1 X38.538 Y-37.83 Z-1.06
G1 X38.535 Y-37.828 Z-1
G1 Z5 F300
G1 X61.161 Y-38.535 F2500
G1 Z2.5 F30
G1 Z-1
G1 X61.164 Y-38.538 Z-1.06
G1 X61.171 Y-38.545 Z-1.12
G1 X61.184 Y-38.558 Z-1.177
G1 X61.202 Y-38.575 Z-1.232
G1 X61.224 Y-38.598 Z-1.284
G1 X61.25 Y-38.624 Z-1.332
G1 X61.28 Y-38.654 Z-1.374
G1 X61.314 Y-38.688 Z-1.411
G1 X61.35 Y-38.724 Z-1.443
G1 X61.389 Y-38.763 Z-1.468
G1 X61.43 Y-38.804 Z-1.485
G1 X61.472 Y-38.846 Z-1.496
G1 X61.515 Y-38.889 Z-1.5
G1 X61.868 Y-39.242 F213
G3 X62.575 I0.354 J0.354
G2 X77.425 Y-54.091 I7.425 J-7.425 F200
G2 X70 Y-57.167 I-7.425 J7.425
G2 X69.955 I-0.023 J10.5
G2 X59.5 Y-46.667 I0.045 J10.5
G2 X62.575 Y-39.242 I10.5
G3 Y-38.535 I-0.354 J0.354 F213
G1 X62.222 Y-38.181
G1 X62.179 Y-38.139 Z-1.496
G1 X62.137 Y-38.097 Z-1.485
G1 X62.096 Y-38.056 Z-1.468
G1 X62.058 Y-38.017 Z-1.443
G1 X62.021 Y-37.981 Z-1.411
G1 X61.987 Y-37.947 Z-1.374
G1 X61.957 Y-37.917 Z-1.332
G1 X61.931 Y-37.89 Z-1.284
G1 X61.909 Y-37.868 Z-1.232
G1 X61.891 Y-37.851 Z-1.177
G1 X61.879 Y-37.838 Z-1.12
G1 X61.871 Y-37.83 Z-1.06
G1 X61.868 Y-37.828 Z-1
G1 Z5 F300
G1 Y-32.172 F2500
G1 Z2.5 F30
G1 Z-1
G1 X61.871 Y-32.17 Z-1.06
G1 X61.879 Y-32.162 Z-1.12
G1 X61.891 Y-32.149 Z-1.177
G1 X61.909 Y-32.132 Z-1.232
G1 X61.931 Y-32.11 Z-1.284
G1 X61.957 Y-32.083 Z-1.332
G1 X61.987 Y-32.053 Z-1.374
G1 X62.021 Y-32.019 Z-1.411
G1 X62.058 Y-31.983 Z-1.443
G1 X62.096 Y-31.944 Z-1.468
G1 X62.137 Y-31.903 Z-1.485
G1 X62.179 Y-31.861 Z-1.496
G1 X62.222 Y-31.819 Z-1.5
G1 X62.575 Y-31.465 F213
G3 Y-30.758 I-0.354 J0.354
G2 X59.5 Y-23.333 I7.425 J7.425 F200
G2 X80.5 I10.5
G2 X70 Y-33.833 I-10.5
G2 X69.955 I-0.023 J10.5
G2 X62.575 Y-30.758 I0.045 J10.5
G3 X61.868 I-0.354 J-0.354 F213
G1 X61.515 Y-31.112
G1 X61.472 Y-31.154 Z-1.496
G1 X61.43 Y-31.196 Z-1.485
G1 X61.389 Y-31.237 Z-1.468
G1 X61.35 Y-31.276 Z-1.443
G1 X61.314 Y-31.312 Z-1.411
G1 X61.28 Y-31.346 Z-1.374
G1 X61.25 Y-31.376 Z-1.332
G1 X61.224 Y-31.403 Z-1.284
G1 X61.202 Y-31.425 Z-1.232
G1 X61.184 Y-31.442 Z-1.177
G1 X61.171 Y-31.455 Z-1.12
G1 X61.164 Y-31.463 Z-1.06
G1 X61.161 Y-31.465 Z-1
G1 Z5 F300
G1 X61.868 Y-8.839 F2500
G1 Z2.5 F30
G1 Z-1
G1 X61.871 Y-8.836 Z-1.06
G1 X61.879 Y-8.829 Z-1.12
G1 X61.891 Y-8.816 Z-1.177
G1 X61.909 Y-8.798 Z-1.232
G1 X61.931 Y-8.776 Z-1.284
G1 X61.957 Y-8.75 Z-1.332
G1 X61.987 Y-8.72 Z-1.374
G1 X62.021 Y-8.686 Z-1.411
G1 X62.058 Y-8.65 Z-1.443
G1 X62.096 Y-8.611 Z-1.468
G1 X62.137 Y-8.57 Z-1.485
G1 X62.179 Y-8.528 Z-1.496
G1 X62.222 Y-8.485 Z-1.5
G1 X62.575 Y-8.132 F213
G3 Y-7.425 I-0.354 J0.354
G2 X59.5 Y0 I7.425 J7.425 F200
G2 X80.5 I10.5
G2 X70 Y-10.5 I-10.5
G2 X69.955 I-0.023 J10.5
G2 X62.575 Y-7.425 I0.045 J10.5
G3 X61.868 I-0.354 J-0.354 F213
G1 X61.515 Y-7.778
G1 X61.472 Y-7.821 Z-1.496
G1 X61.43 Y-7.863 Z-1.485
G1 X61.389 Y-7.904 Z-1.468
G1 X61.35 Y-7.943 Z-1.443
G1 X61.314 Y-7.979 Z-1.411
G1 X61.28 Y-8.013 Z-1.374
G1 X61.25 Y-8.043 Z-1.332
G1 X61.224 Y-8.069 Z-1.284
G1 X61.202 Y-8.091 Z-1.232
G1 X61.184 Y-8.109 Z-1.177
G1 X61.171 Y-8.122 Z-1.12
G1 X61.164 Y-8.129 Z-1.06
G1 X61.161 Y-8.132 Z-1
G1 Z5 F300
G1 X55.506 F2500
G1 Z2.5 F30
G1 Z-1
G1 X55.503 Y-8.129 Z-1.06
G1 X55.495 Y-8.121 Z-1.12
G1 X55.483 Y-8.109 Z-1.177
G1 X55.465 Y-8.091 Z-1.232
G1 X55.443 Y-8.069 Z-1.284
G1 X55.417 Y-8.043 Z-1.332
G1 X55.386 Y-8.013 Z-1.374
G1 X55.353 Y-7.979 Z-1.411
G1 X55.316 Y-7.942 Z-1.443
G1 X55.277 Y-7.904 Z-1.468
G1 X55.237 Y-7.863 Z-1.485
G1 X55.195 Y-7.821 Z-1.496
G1 X55.152 Y-7.778 Z-1.5
G1 X54.798 Y-7.425 F213
G3 X54.091 I-0.354 J-0.354
G2 X39.242 Y7.425 I-7.425 J7.425 F200
G2 X46.667 Y10.5 I7.425 J-7.425
G2 X57.167 Y0.045 J-10.5
G2 Y0 I-10.5 J-0.023
G2 X54.091 Y-7.425 I-10.5
G3 Y-8.132 I0.354 J-0.354 F213
G1 X54.445 Y-8.485
G1 X54.487 Y-8.528 Z-1.496
G1 X54.529 Y-8.57 Z-1.485
G1 X54.57 Y-8.611 Z-1.468
G1 X54.609 Y-8.65 Z-1.443
G1 X54.646 Y-8.686 Z-1.411
G1 X54.679 Y-8.72 Z-1.374
G1 X54.71 Y-8.75 Z-1.332
G1 X54.736 Y-8.776 Z-1.284
G1 X54.758 Y-8.798 Z-1.232
G1 X54.775 Y-8.816 Z-1.177
G1 X54.788 Y-8.829 Z-1.12
G1 X54.796 Y-8.836 Z-1.06
G1 X54.798 Y-8.839 Z-1
G1 Z5 F300
G1 Y-14.494 F2500
G1 Z1 F30
G1 Z-2.5
G1 X54.796 Y-14.497 Z-2.56
G1 X54.788 Y-14.505 Z-2.62
G1 X54.775 Y-14.517 Z-2.677
G1 X54.758 Y-14.535 Z-2.732
G1 X54.736 Y-14.557 Z-2.784
G1 X54.71 Y-14.583 Z-2.832
G1 X54.679 Y-14.614 Z-2.874
G1 X54.646 Y-14.647 Z-2.911
G1 X54.609 Y-14.684 Z-2.943
G1 X54.57 Y-14.723 Z-2.968
G1 X54.529 Y-14.763 Z-2.985
G1 X54.487 Y-14.805 Z-2.996
G1 X54.445 Y-14.848 Z-3
G1 X54.091 Y-15.202 F213
G3 Y-15.909 I0.354 J-0.354
G2 X46.667 Y-33.833 I-7.425 J-7.425 F200
G2 X46.621 I-0.023 J10.5
G2 X36.167 Y-23.333 I0.045 J10.5
G2 X54.091 Y-15.909 I10.5
G3 X54.798 I0.354 J0.354 F213
G1 X55.152 Y-15.555
G1 X55.195 Y-15.513 Z-2.996
G1 X55.237 Y-15.471 Z-2.985
G1 X55.277 Y-15.43 Z-2.968
G1 X55.316 Y-15.391 Z-2.943
G1 X55.353 Y-15.354 Z-2.911
G1 X55.386 Y-15.321 Z-2.874
G1 X55.417 Y-15.29 Z-2.832
G1 X55.443 Y-15.264 Z-2.784
G1 X55.465 Y-15.242 Z-2.732
G1 X55.483 Y-15.225 Z-2.677
G1 X55.495 Y-15.212 Z-2.62
G1 X55.503 Y-15.204 Z-2.56
G1 X55.506 Y-15.202 Z-2.5
G1 Z5 F300
G1 X61.161 F2500
G1 Z1 F30
G1 Z-2.5
G1 X61.164 Y-15.204 Z-2.56
G1 X61.171 Y-15.212 Z-2.62
G1 X61.184 Y-15.225 Z-2.677
G1 X61.202 Y-15.242 Z-2.732
G1 X61.224 Y-15.264 Z-2.784
G1 X61.25 Y-15.29 Z-2.832
G1 X61.28 Y-15.321 Z-2.874
G1 X61.314 Y-15.354 Z-2.911
G1 X61.35 Y-15.391 Z-2.943
G1 X61.389 Y-15.43 Z-2.968
G1 X61.43 Y-15.471 Z-2.985
G1 X61.472 Y-15.513 Z-2.996
G1 X61.515 Y-15.555 Z-3
G1 X61.868 Y-15.909 F213
G3 X62.575 I0.354 J0.354
G2 X77.425 Y-30.758 I7.425 J-7.425 F200
G2 X70 Y-33.833 I-7.425 J7.425
G2 X69.955 I-0.023 J10.5
G2 X59.5 Y-23.333 I0.045 J10.5
G2 X62.575 Y-15.909 I10.5
G3 Y-15.202 I-0.354 J0.354 F213
G1 X62.222 Y-14.848
G1 X62.179 Y-14.805 Z-2.996
G1 X62.137 Y-14.763 Z-2.985
G1 X62.096 Y-14.723 Z-2.968
G1 X62.058 Y-14.684 Z-2.943
G1 X62.021 Y-14.647 Z-2.911
G1 X61.987 Y-14.614 Z-2.874
G1 X61.957 Y-14.583 Z-2.832
G1 X61.931 Y-14.557 Z-2.784
G1 X61.909 Y-14.535 Z-2.732
G1 X61.891 Y-14.517 Z-2.677
G1 X61.879 Y-14.505 Z-2.62
G1 X61.871 Y-14.497 Z-2.56
G1 X61.868 Y-14.494 Z-2.5
G1 Z5 F300
G1 Y-8.839 F2500
G1 Z1 F30
G1 Z-2.5
G1 X61.871 Y-8.836 Z-2.56
G1 X61.879 Y-8.829 Z-2.62
G1 X61.891 Y-8.816 Z-2.677
G1 X61.909 Y-8.798 Z-2.732
G1 X61.931 Y-8.776 Z-2.784
G1 X61.957 Y-8.75 Z-2.832
G1 X61.987 Y-8.72 Z-2.874
G1 X62.021 Y-8.686 Z-2.911
G1 X62.058 Y-8.65 Z-2.943
G1 X62.096 Y-8.611 Z-2.968
G1 X62.137 Y-8.57 Z-2.985
G1 X62.179 Y-8.528 Z-2.996
G1 X62.222 Y-8.485 Z-3
G1 X62.575 Y-8.132 F213
G3 Y-7.425 I-0.354 J0.354
G2 X59.5 Y0 I7.425 J7.425 F200
G2 X80.5 I10.5
G2 X70 Y-10.5 I-10.5
G2 X69.955 I-0.023 J10.5
G2 X62.575 Y-7.425 I0.045 J10.5
G3 X61.868 I-0.354 J-0.354 F213
G1 X61.515 Y-7.778
G1 X61.472 Y-7.821 Z-2.996
G1 X61.43 Y-7.863 Z-2.985
G1 X61.389 Y-7.904 Z-2.968
G1 X61.35 Y-7.943 Z-2.943
G1 X61.314 Y-7.979 Z-2.911
G1 X61.28 Y-8.013 Z-2.874
G1 X61.25 Y-8.043 Z-2.832
G1 X61.224 Y-8.069 Z-2.784
G1 X61.202 Y-8.091 Z-2.732
G1 X61.184 Y-8.109 Z-2.677
G1 X61.171 Y-8.122 Z-2.62
G1 X61.164 Y-8.129 Z-2.56
G1 X61.161 Y-8.132 Z-2.5
G1 Z5 F300
G1 X32.172 F2500
G1 Z2.5 F30
G1 Z-1
G1 X32.17 Y-8.129 Z-1.06
G1 X32.162 Y-8.121 Z-1.12
G1 X32.149 Y-8.109 Z-1.177
G1 X32.132 Y-8.091 Z-1.232
G1 X32.11 Y-8.069 Z-1.284
G1 X32.083 Y-8.043 Z-1.332
G1 X32.053 Y-8.013 Z-1.374
G1 X32.019 Y-7.979 Z-1.411
G1 X31.983 Y-7.942 Z-1.443
G1 X31.944 Y-7.904 Z-1.468
G1 X31.903 Y-7.863 Z-1.485
G1 X31.861 Y-7.821 Z-1.496
G1 X31.819 Y-7.778 Z-1.5
G1 X31.465 Y-7.425 F213
G3 X30.758 I-0.354 J-0.354
G2 X15.909 Y7.425 I-7.425 J7.425 F200
G2 X23.333 Y10.5 I7.425 J-7.425
G2 X33.833 Y0.045 J-10.5
G2 Y0 I-10.5 J-0.023
G2 X30.758 Y-7.425 I-10.5
G3 Y-8.132 I0.354 J-0.354 F213
G1 X31.111 Y-8.485
G1 X31.154 Y-8.528 Z-1.496
G1 X31.196 Y-8.57 Z-1.485
G1 X31.237 Y-8.611 Z-1.468
G1 X31.276 Y-8.65 Z-1.443
G1 X31.312 Y-8.686 Z-1.411
G1 X31.346 Y-8.72 Z-1.374
G1 X31.376 Y-8.75 Z-1.332
G1 X31.402 Y-8.776 Z-1.284
G1 X31.425 Y-8.798 Z-1.232
G1 X31.442 Y-8.816 Z-1.177
G1 X31.455 Y-8.829 Z-1.12
G1 X31.462 Y-8.836 Z-1.06
G1 X31.465 Y-8.839 Z-1
G1 Z5 F300
G1 X38.535 F2500
G1 Z1 F30
G1 Z-2.5
G1 X38.538 Y-8.836 Z-2.56
G1 X38.545 Y-8.829 Z-2.62
G1 X38.558 Y-8.816 Z-2.677
G1 X38.575 Y-8.798 Z-2.732
G1 X38.598 Y-8.776 Z-2.784
G1 X38.624 Y-8.75 Z-2.832
G1 X38.654 Y-8.72 Z-2.874
G1 X38.688 Y-8.686 Z-2.911
G1 X38.724 Y-8.65 Z-2.943
G1 X38.763 Y-8.611 Z-2.968
G1 X38.804 Y-8.57 Z-2.985
G1 X38.846 Y-8.528 Z-2.996
G1 X38.889 Y-8.485 Z-3
G1 X39.242 Y-8.132 F213
G3 Y-7.425 I-0.354 J0.354
G2 X46.667 Y10.5 I7.425 J7.425 F200
G2 X57.167 Y0.045 J-10.5
G2 Y0 I-10.5 J-0.023
G2 X39.242 Y-7.425 I-10.5
G3 X38.535 I-0.354 J-0.354 F213
G1 X38.181 Y-7.778
G1 X38.139 Y-7.821 Z-2.996
G1 X38.097 Y-7.863 Z-2.985
G1 X38.056 Y-7.904 Z-2.968
G1 X38.017 Y-7.942 Z-2.943
G1 X37.981 Y-7.979 Z-2.911
G1 X37.947 Y-8.013 Z-2.874
G1 X37.917 Y-8.043 Z-2.832
G1 X37.89 Y-8.069 Z-2.784
G1 X37.868 Y-8.091 Z-2.732
G1 X37.851 Y-8.109 Z-2.677
G1 X37.838 Y-8.121 Z-2.62
G1 X37.83 Y-8.129 Z-2.56
G1 X37.828 Y-8.132 Z-2.5
G1 Z5 F300
G1 X61.868 Y-8.839 F2500
G1 Z-0.5 F30
G1 Z-4
G1 X61.871 Y-8.836 Z-4.06
G1 X61.879 Y-8.829 Z-4.12
G1 X61.891 Y-8.816 Z-4.177
G1 X61.909 Y-8.798 Z-4.232
G1 X61.931 Y-8.776 Z-4.284
G1 X61.957 Y-8.75 Z-4.332
G1 X61.987 Y-8.72 Z-4.374
G1 X62.021 Y-8.686 Z-4.411
G1 X62.058 Y-8.65 Z-4.443
G1 X62.096 Y-8.611 Z-4.468
G1 X62.137 Y-8.57 Z-4.485
G1 X62.179 Y-8.528 Z-4.496
G1 X62.222 Y-8.485 Z-4.5
G1 X62.575 Y-8.132 F213
G3 Y-7.425 I-0.354 J0.354
G2 X59.5 Y0 I7.425 J7.425 F200
G2 X80.5 I10.5
G2 X70 Y-10.5 I-10.5
G2 X69.955 I-0.023 J10.5
G2 X62.575 Y-7.425 I0.045 J10.5
G3 X61.868 I-0.354 J-0.354 F213
G1 X61.515 Y-7.778
G1 X61.472 Y-7.821 Z-4.496
G1 X61.43 Y-7.863 Z-4.485
G1 X61.389 Y-7.904 Z-4.468
G1 X61.35 Y-7.943 Z-4.443
G1 X61.314 Y-7.979 Z-4.411
G1 X61.28 Y-8.013 Z-4.374
G1 X61.25 Y-8.043 Z-4.332
G1 X61.224 Y-8.069 Z-4.284
G1 X61.202 Y-8.091 Z-4.232
G1 X61.184 Y-8.109 Z-4.177
G1 X61.171 Y-8.122 Z-4.12
G1 X61.164 Y-8.129 Z-4.06
G1 X61.161 Y-8.132 Z-4
G1 Z5 F300
G1 X8.839 F2500
G1 Z2.5 F30
G1 Z-1
G1 X8.836 Y-8.129 Z-1.06
G1 X8.829 Y-8.121 Z-1.12
G1 X8.816 Y-8.109 Z-1.177
G1 X8.798 Y-8.091 Z-1.232
G1 X8.776 Y-8.069 Z-1.284
G1 X8.75 Y-8.043 Z-1.332
G1 X8.72 Y-8.013 Z-1.374
G1 X8.686 Y-7.979 Z-1.411
G1 X8.65 Y-7.942 Z-1.443
G1 X8.611 Y-7.904 Z-1.468
G1 X8.57 Y-7.863 Z-1.485
G1 X8.528 Y-7.821 Z-1.496
G1 X8.485 Y-7.778 Z-1.5
G1 X8.132 Y-7.425 F213
G3 X7.425 I-0.354 J-0.354
G2 X-7.425 Y7.425 I-7.425 J7.425 F200
G2 X0 Y10.5 I7.425 J-7.425
G2 X10.5 Y0.045 J-10.5
G2 Y0 I-10.5 J-0.023
G2 X7.425 Y-7.425 I-10.5
G3 Y-8.132 I0.354 J-0.354 F213
G1 X7.778 Y-8.485
G1 X7.821 Y-8.528 Z-1.496
G1 X7.863 Y-8.57 Z-1.485
G1 X7.904 Y-8.611 Z-1.468
G1 X7.942 Y-8.65 Z-1.443
G1 X7.979 Y-8.686 Z-1.411
G1 X8.013 Y-8.72 Z-1.374
G1 X8.043 Y-8.75 Z-1.332
G1 X8.069 Y-8.776 Z-1.284
G1 X8.091 Y-8.798 Z-1.232
G1 X8.109 Y-8.816 Z-1.177
G1 X8.121 Y-8.829 Z-1.12
G1 X8.129 Y-8.836 Z-1.06
G1 X8.132 Y-8.839 Z-1
G1 Z5 F300
G1 Y-14.494 F2500
G1 Z2.5 F30
G1 Z-1
G1 X8.129 Y-14.497 Z-1.06
G1 X8.121 Y-14.505 Z-1.12
G1 X8.109 Y-14.517 Z-1.177
G1 X8.091 Y-14.535 Z-1.232
G1 X8.069 Y-14.557 Z-1.284
G1 X8.043 Y-14.583 Z-1.332
G1 X8.013 Y-14.614 Z-1.374
G1 X7.979 Y-14.647 Z-1.411
G1 X7.942 Y-14.684 Z-1.443
G1 X7.904 Y-14.723 Z-1.468
G1 X7.863 Y-14.763 Z-1.485
G1 X7.821 Y-14.805 Z-1.496
G1 X7.778 Y-14.848 Z-1.5
G1 X7.425 Y-15.202 F213
G3 Y-15.909 I0.354 J-0.354
G2 X-7.425 Y-30.758 I-7.425 J-7.425 F200
G2 X-10.5 Y-23.333 I7.425 J7.425
G2 X-0.045 Y-12.833 I10.5
G2 X0 I0.023 J-10.5
G2 X7.425 Y-15.909 J-10.5
G3 X8.132 I0.354 J0.354 F213
G1 X8.485 Y-15.555
G1 X8.528 Y-15.513 Z-1.496
G1 X8.57 Y-15.471 Z-1.485
G1 X8.611 Y-15.43 Z-1.468
G1 X8.65 Y-15.391 Z-1.443
G1 X8.686 Y-15.354 Z-1.411
G1 X8.72 Y-15.321 Z-1.374
G1 X8.75 Y-15.29 Z-1.332
G1 X8.776 Y-15.264 Z-1.284
G1 X8.798 Y-15.242 Z-1.232
G1 X8.816 Y-15.225 Z-1.177
G1 X8.829 Y-15.212 Z-1.12
G1 X8.836 Y-15.204 Z-1.06
G1 X8.839 Y-15.202 Z-1
G1 Z5 F300
G1 X14.494 F2500
G1 Z1 F30
G1 Z-2.5
G1 X14.497 Y-15.204 Z-2.56
G1 X14.505 Y-15.212 Z-2.62
G1 X14.517 Y-15.225 Z-2.677
G1 X14.535 Y-15.242 Z-2.732
G1 X14.557 Y-15.264 Z-2.784
G1 X14.583 Y-15.29 Z-2.832
G1 X14.614 Y-15.321 Z-2.874
G1 X14.647 Y-15.354 Z-2.911
G1 X14.684 Y-15.391 Z-2.943
G1 X14.723 Y-15.43 Z-2.968
G1 X14.763 Y-15.471 Z-2.985
G1 X14.805 Y-15.513 Z-2.996
G1 X14.848 Y-15.555 Z-3
G1 X15.202 Y-15.909 F213
G3 X15.909 I0.354 J0.354
G2 X23.333 Y-12.833 I7.425 J-7.425 F200
G2 X23.379 I0.023 J-10.5
G2 X33.833 Y-23.333 I-0.045 J-10.5
G2 X12.833 I-10.5
G2 X15.909 Y-15.909 I10.5
G3 Y-15.202 I-0.354 J0.354 F213
G1 X15.555 Y-14.848
G1 X15.513 Y-14.805 Z-2.996
G1 X15.471 Y-14.763 Z-2.985
G1 X15.43 Y-14.723 Z-2.968
G1 X15.391 Y-14.684 Z-2.943
G1 X15.354 Y-14.647 Z-2.911
G1 X15.321 Y-14.614 Z-2.874
G1 X15.29 Y-14.583 Z-2.832
G1 X15.264 Y-14.557 Z-2.784
G1 X15.242 Y-14.535 Z-2.732
G1 X15.225 Y-14.517 Z-2.677
G1 X15.212 Y-14.505 Z-2.62
G1 X15.204 Y-14.497 Z-2.56
G1 X15.202 Y-14.494 Z-2.5
G1 Z5 F300
G1 Y-8.839 F2500
G1 Z1 F30
G1 Z-2.5
G1 X15.204 Y-8.836 Z-2.56
G1 X15.212 Y-8.829 Z-2.62
G1 X15.225 Y-8.816 Z-2.677
G1 X15.242 Y-8.798 Z-2.732
G1 X15.264 Y-8.776 Z-2.784
G1 X15.29 Y-8.75 Z-2.832
G1 X15.321 Y-8.72 Z-2.874
G1 X15.354 Y-8.686 Z-2.911
G1 X15.391 Y-8.65 Z-2.943
G1 X15.43 Y-8.611 Z-2.968
G1 X15.471 Y-8.57 Z-2.985
G1 X15.513 Y-8.528 Z-2.996
G1 X15.555 Y-8.485 Z-3
G1 X15.909 Y-8.132 F213
G3 Y-7.425 I-0.354 J0.354
G2 X23.333 Y10.5 I7.425 J7.425 F200
G2 X33.833 Y0.045 J-10.5
G2 Y0 I-10.5 J-0.023
G2 X15.909 Y-7.425 I-10.5
G3 X15.202 I-0.354 J-0.354 F213
G1 X14.848 Y-7.778
G1 X14.805 Y-7.821 Z-2.996
G1 X14.763 Y-7.863 Z-2.985
G1 X14.723 Y-7.904 Z-2.968
G1 X14.684 Y-7.942 Z-2.943
G1 X14.647 Y-7.979 Z-2.911
G1 X14.614 Y-8.013 Z-2.874
G1 X14.583 Y-8.043 Z-2.832
G1 X14.557 Y-8.069 Z-2.784
G1 X14.535 Y-8.091 Z-2.732
G1 X14.517 Y-8.109 Z-2.677
G1 X14.505 Y-8.121 Z-2.62
G1 X14.497 Y-8.129 Z-2.56
G1 X14.494 Y-8.132 Z-2.5
G1 Z5 F300
G1 X8.839 F2500
G1 Z1 F30
G1 Z-2.5
G1 X8.836 Y-8.129 Z-2.56
G1 X8.829 Y-8.121 Z-2.62
G1 X8.816 Y-8.109 Z-2.677
G1 X8.798 Y-8.091 Z-2.732
G1 X8.776 Y-8.069 Z-2.784
G1 X8.75 Y-8.043 Z-2.832
G1 X8.72 Y-8.013 Z-2.874
G1 X8.686 Y-7.979 Z-2.911
G1 X8.65 Y-7.942 Z-2.943
G1 X8.611 Y-7.904 Z-2.968
G1 X8.57 Y-7.863 Z-2.985
G1 X8.528 Y-7.821 Z-2.996
G1 X8.485 Y-7.778 Z-3
G1 X8.132 Y-7.425 F213
G3 X7.425 I-0.354 J-0.354
G2 X-7.425 Y7.425 I-7.425 J7.425 F200
G2 X0 Y10.5 I7.425 J-7.425
G2 X10.5 Y0.045 J-10.5
G2 Y0 I-10.5 J-0.023
G2 X7.425 Y-7.425 I-10.5
G3 Y-8.132 I0.354 J-0.354 F213
G1 X7.778 Y-8.485
G1 X7.821 Y-8.528 Z-2.996
G1 X7.863 Y-8.57 Z-2.985
G1 X7.904 Y-8.611 Z-2.968
G1 X7.942 Y-8.65 Z-2.943
G1 X7.979 Y-8.686 Z-2.911
G1 X8.013 Y-8.72 Z-2.874
G1 X8.043 Y-8.75 Z-2.832
G1 X8.069 Y-8.776 Z-2.784
G1 X8.091 Y-8.798 Z-2.732
G1 X8.109 Y-8.816 Z-2.677
G1 X8.121 Y-8.829 Z-2.62
G1 X8.129 Y-8.836 Z-2.56
G1 X8.132 Y-8.839 Z-2.5
G1 Z5 F300
G1 X15.202 F2500
G1 Z-0.5 F30
G1 Z-4
G1 X15.204 Y-8.836 Z-4.06
G1 X15.212 Y-8.829 Z-4.12
G1 X15.225 Y-8.816 Z-4.177
G1 X15.242 Y-8.798 Z-4.232
G1 X15.264 Y-8.776 Z-4.284
G1 X15.29 Y-8.75 Z-4.332
G1 X15.321 Y-8.72 Z-4.374
G1 X15.354 Y-8.686 Z-4.411
G1 X15.391 Y-8.65 Z-4.443
G1 X15.43 Y-8.611 Z-4.468
G1 X15.471 Y-8.57 Z-4.485
G1 X15.513 Y-8.528 Z-4.496
G1 X15.555 Y-8.485 Z-4.5
G1 X15.909 Y-8.132 F213
G3 Y-7.425 I-0.354 J0.354
G2 X23.333 Y10.5 I7.425 J7.425 F200
G2 X33.833 Y0.045 J-10.5
G2 Y0 I-10.5 J-0.023
G2 X15.909 Y-7.425 I-10.5
G3 X15.202 I-0.354 J-0.354 F213
G1 X14.848 Y-7.778
G1 X14.805 Y-7.821 Z-4.496
G1 X14.763 Y-7.863 Z-4.485
G1 X14.723 Y-7.904 Z-4.468
G1 X14.684 Y-7.942 Z-4.443
G1 X14.647 Y-7.979 Z-4.411
G1 X14.614 Y-8.013 Z-4.374
G1 X14.583 Y-8.043 Z-4.332
G1 X14.557 Y-8.069 Z-4.284
G1 X14.535 Y-8.091 Z-4.232
G1 X14.517 Y-8.109 Z-4.177
G1 X14.505 Y-8.121 Z-4.12
G1 X14.497 Y-8.129 Z-4.06
G1 X14.494 Y-8.132 Z-4
G1 Z5 F300
G1 X38.535 Y-8.839 F2500
G1 Z-0.5 F30
G1 Z-4
G1 X38.538 Y-8.836 Z-4.06
G1 X38.545 Y-8.829 Z-4.12
G1 X38.558 Y-8.816 Z-4.177
G1 X38.575 Y-8.798 Z-4.232
G1 X38.598 Y-8.776 Z-4.284
G1 X38.624 Y-8.75 Z-4.332
G1 X38.654 Y-8.72 Z-4.374
G1 X38.688 Y-8.686 Z-4.411
G1 X38.724 Y-8.65 Z-4.443
G1 X38.763 Y-8.611 Z-4.468
G1 X38.804 Y-8.57 Z-4.485
G1 X38.846 Y-8.528 Z-4.496
G1 X38.889 Y-8.485 Z-4.5
G1 X39.242 Y-8.132 F213
G3 Y-7.425 I-0.354 J0.354
G2 X46.667 Y10.5 I7.425 J7.425 F200
G2 X57.167 Y0.045 J-10.5
G2 Y0 I-10.5 J-0.023
G2 X39.242 Y-7.425 I-10.5
G3 X38.535 I-0.354 J-0.354 F213
G1 X38.181 Y-7.778
G1 X38.139 Y-7.821 Z-4.496
G1 X38.097 Y-7.863 Z-4.485
G1 X38.056 Y-7.904 Z-4.468
G1 X38.017 Y-7.942 Z-4.443
G1 X37.981 Y-7.979 Z-4.411
G1 X37.947 Y-8.013 Z-4.374
G1 X37.917 Y-8.043 Z-4.332
G1 X37.89 Y-8.069 Z-4.284
G1 X37.868 Y-8.091 Z-4.232
G1 X37.851 Y-8.109 Z-4.177
G1 X37.838 Y-8.121 Z-4.12
G1 X37.83 Y-8.129 Z-4.06
G1 X37.828 Y-8.132 Z-4
G1 Z5 F300
G1 X8.132 Y-37.828 F2500
G1 Z2.5 F30
G1 Z-1
G1 X8.129 Y-37.83 Z-1.06
G1 X8.121 Y-37.838 Z-1.12
G1 X8.109 Y-37.851 Z-1.177
G1 X8.091 Y-37.868 Z-1.232
G1 X8.069 Y-37.89 Z-1.284
G1 X8.043 Y-37.917 Z-1.332
G1 X8.013 Y-37.947 Z-1.374
G1 X7.979 Y-37.981 Z-1.411
G1 X7.942 Y-38.017 Z-1.443
G1 X7.904 Y-38.056 Z-1.468
G1 X7.863 Y-38.097 Z-1.485
G1 X7.821 Y-38.139 Z-1.496
G1 X7.778 Y-38.181 Z-1.5
G1 X7.425 Y-38.535 F213
G3 Y-39.242 I0.354 J-0.354
G2 X10.5 Y-46.667 I-7.425 J-7.425 F200
G2 X-10.5 I-10.5
G2 X0 Y-36.167 I10.5
G2 X0.045 I0.023 J-10.5
G2 X7.425 Y-39.242 I-0.045 J-10.5
G3 X8.132 I0.354 J0.354 F213
G1 X8.485 Y-38.888
G1 X8.528 Y-38.846 Z-1.496
G1 X8.57 Y-38.804 Z-1.485
G1 X8.611 Y-38.763 Z-1.468
G1 X8.65 Y-38.724 Z-1.443
G1 X8.686 Y-38.688 Z-1.411
G1 X8.72 Y-38.654 Z-1.374
G1 X8.75 Y-38.624 Z-1.332
G1 X8.776 Y-38.597 Z-1.284
G1 X8.798 Y-38.575 Z-1.232
G1 X8.816 Y-38.558 Z-1.177
G1 X8.829 Y-38.545 Z-1.12
G1 X8.836 Y-38.537 Z-1.06
G1 X8.839 Y-38.535 Z-1
G1 Z5 F300
G1 Y-31.465 F2500
G1 Z1 F30
G1 Z-2.5
G1 X8.836 Y-31.462 Z-2.56
G1 X8.829 Y-31.455 Z-2.62
G1 X8.816 Y-31.442 Z-2.677
G1 X8.798 Y-31.425 Z-2.732
G1 X8.776 Y-31.402 Z-2.784
G1 X8.75 Y-31.376 Z-2.832
G1 X8.72 Y-31.346 Z-2.874
G1 X8.686 Y-31.312 Z-2.911
G1 X8.65 Y-31.276 Z-2.943
G1 X8.611 Y-31.237 Z-2.968
G1 X8.57 Y-31.196 Z-2.985
G1 X8.528 Y-31.154 Z-2.996
G1 X8.485 Y-31.111 Z-3
G1 X8.132 Y-30.758 F213
G3 X7.425 I-0.354 J-0.354
G2 X-10.5 Y-23.333 I-7.425 J7.425 F200
G2 X-0.045 Y-12.833 I10.5
G2 X0 I0.023 J-10.5
G2 X7.425 Y-30.758 J-10.5
G3 Y-31.465 I0.354 J-0.354 F213
G1 X7.778 Y-31.819
G1 X7.821 Y-31.861 Z-2.996
G1 X7.863 Y-31.903 Z-2.985
G1 X7.904 Y-31.944 Z-2.968
G1 X7.942 Y-31.983 Z-2.943
G1 X7.979 Y-32.019 Z-2.911
G1 X8.013 Y-32.053 Z-2.874
G1 X8.043 Y-32.083 Z-2.832
G1 X8.069 Y-32.11 Z-2.784
G1 X8.091 Y-32.132 Z-2.732
G1 X8.109 Y-32.149 Z-2.677
G1 X8.121 Y-32.162 Z-2.62
G1 X8.129 Y-32.17 Z-2.56
G1 X8.132 Y-32.172 Z-2.5
G1 Z5 F300
G1 X8.839 Y-8.132 F2500
G1 Z-0.5 F30
G1 Z-4
G1 X8.836 Y-8.129 Z-4.06
G1 X8.829 Y-8.121 Z-4.12
G1 X8.816 Y-8.109 Z-4.177
G1 X8.798 Y-8.091 Z-4.232
G1 X8.776 Y-8.069 Z-4.284
G1 X8.75 Y-8.043 Z-4.332
G1 X8.72 Y-8.013 Z-4.374
G1 X8.686 Y-7.979 Z-4.411
G1 X8.65 Y-7.942 Z-4.443
G1 X8.611 Y-7.904 Z-4.468
G1 X8.57 Y-7.863 Z-4.485
G1 X8.528 Y-7.821 Z-4.496
G1 X8.485 Y-7.778 Z-4.5
G1 X8.132 Y-7.425 F213
G3 X7.425 I-0.354 J-0.354
G2 X-7.425 Y7.425 I-7.425 J7.425 F200
G2 X0 Y10.5 I7.425 J-7.425
G2 X10.5 Y0.045 J-10.5
G2 Y0 I-10.5 J-0.023
G2 X7.425 Y-7.425 I-10.5
G3 Y-8.132 I0.354 J-0.354 F213
G1 X7.778 Y-8.485
G1 X7.821 Y-8.528 Z-4.496
G1 X7.863 Y-8.57 Z-4.485
G1 X7.904 Y-8.611 Z-4.468
G1 X7.942 Y-8.65 Z-4.443
G1 X7.979 Y-8.686 Z-4.411
G1 X8.013 Y-8.72 Z-4.374
G1 X8.043 Y-8.75 Z-4.332
G1 X8.069 Y-8.776 Z-4.284
G1 X8.091 Y-8.798 Z-4.232
G1 X8.109 Y-8.816 Z-4.177
G1 X8.121 Y-8.829 Z-4.12
G1 X8.129 Y-8.836 Z-4.06
G1 X8.132 Y-8.839 Z-4
G1 Z5 F300
G1 Y-61.161 F2500
G1 Z2.5 F30
G1 Z-1
G1 X8.129 Y-61.164 Z-1.06
G1 X8.121 Y-61.171 Z-1.12
G1 X8.109 Y-61.184 Z-1.177
G1 X8.091 Y-61.202 Z-1.232
G1 X8.069 Y-61.224 Z-1.284
G1 X8.043 Y-61.25 Z-1.332
G1 X8.013 Y-61.28 Z-1.374
G1 X7.979 Y-61.314 Z-1.411
G1 X7.943 Y-61.35 Z-1.443
G1 X7.904 Y-61.389 Z-1.468
G1 X7.863 Y-61.43 Z-1.485
G1 X7.821 Y-61.472 Z-1.496
G1 X7.778 Y-61.515 Z-1.5
G1 X7.425 Y-61.868 F213
G3 Y-62.575 I0.354 J-0.354
G2 X10.5 Y-70 I-7.425 J-7.425 F200
G2 X-10.5 I-10.5
G2 X0 Y-59.5 I10.5
G2 X0.045 I0.023 J-10.5
G2 X7.425 Y-62.575 I-0.045 J-10.5
G3 X8.132 I0.354 J0.354 F213
G1 X8.485 Y-62.222
G1 X8.528 Y-62.179 Z-1.496
G1 X8.57 Y-62.137 Z-1.485
G1 X8.611 Y-62.096 Z-1.468
G1 X8.65 Y-62.057 Z-1.443
G1 X8.686 Y-62.021 Z-1.411
G1 X8.72 Y-61.987 Z-1.374
G1 X8.75 Y-61.957 Z-1.332
G1 X8.776 Y-61.931 Z-1.284
G1 X8.798 Y-61.909 Z-1.232
G1 X8.816 Y-61.891 Z-1.177
G1 X8.829 Y-61.878 Z-1.12
G1 X8.836 Y-61.871 Z-1.06
G1 X8.839 Y-61.868 Z-1
G1 Z5 F300
G1 X14.494 F2500
G1 Z2.5 F30
G1 Z-1
G1 X14.497 Y-61.871 Z-1.06
G1 X14.505 Y-61.879 Z-1.12
G1 X14.517 Y-61.891 Z-1.177
G1 X14.535 Y-61.909 Z-1.232
G1 X14.557 Y-61.931 Z-1.284
G1 X14.583 Y-61.957 Z-1.332
G1 X14.614 Y-61.987 Z-1.374
G1 X14.647 Y-62.021 Z-1.411
G1 X14.684 Y-62.058 Z-1.443
G1 X14.723 Y-62.096 Z-1.468
G1 X14.763 Y-62.137 Z-1.485
G1 X14.805 Y-62.179 Z-1.496
G1 X14.848 Y-62.222 Z-1.5
G1 X15.202 Y-62.575 F213
G3 X15.909 I0.354 J0.354
G2 X23.333 Y-59.5 I7.425 J-7.425 F200
G2 X23.379 I0.023 J-10.5
G2 X33.833 Y-70 I-0.045 J-10.5
G2 X12.833 I-10.5
G2 X15.909 Y-62.575 I10.5
G3 Y-61.868 I-0.354 J0.354 F213
G1 X15.555 Y-61.515
G1 X15.513 Y-61.472 Z-1.496
G1 X15.471 Y-61.43 Z-1.485
G1 X15.43 Y-61.389 Z-1.468
G1 X15.391 Y-61.35 Z-1.443
G1 X15.354 Y-61.314 Z-1.411
G1 X15.321 Y-61.28 Z-1.374
G1 X15.29 Y-61.25 Z-1.332
G1 X15.264 Y-61.224 Z-1.284
G1 X15.242 Y-61.202 Z-1.232
G1 X15.225 Y-61.184 Z-1.177
G1 X15.212 Y-61.171 Z-1.12
G1 X15.204 Y-61.164 Z-1.06
G1 X15.202 Y-61.161 Z-1
G1 Z5 F300
G1 Y-55.506 F2500
G1 Z1 F30
G1 Z-2.5
G1 X15.204 Y-55.503 Z-2.56
G1 X15.212 Y-55.495 Z-2.62
G1 X15.225 Y-55.483 Z-2.677
G1 X15.242 Y-55.465 Z-2.732
G1 X15.264 Y-55.443 Z-2.784
G1 X15.29 Y-55.417 Z-2.832
G1 X15.321 Y-55.386 Z-2.874
G1 X15.354 Y-55.353 Z-2.911
G1 X15.391 Y-55.316 Z-2.943
G1 X15.43 Y-55.277 Z-2.968
G1 X15.47 Y-55.237 Z-2.985
G1 X15.512 Y-55.195 Z-2.996
G1 X15.555 Y-55.152 Z-3
G1 X15.909 Y-54.798 F213
G3 Y-54.091 I-0.354 J0.354
G2 X12.833 Y-46.667 I7.425 J7.425 F200
G2 X33.833 I10.5
G2 X23.333 Y-57.167 I-10.5
G2 X23.288 I-0.023 J10.5
G2 X15.909 Y-54.091 I0.045 J10.5
G3 X15.202 I-0.354 J-0.354 F213
G1 X14.848 Y-54.445
G1 X14.805 Y-54.488 Z-2.996
G1 X14.763 Y-54.53 Z-2.985
G1 X14.723 Y-54.57 Z-2.968
G1 X14.684 Y-54.609 Z-2.943
G1 X14.647 Y-54.646 Z-2.911
G1 X14.614 Y-54.679 Z-2.874
G1 X14.583 Y-54.71 Z-2.832
G1 X14.557 Y-54.736 Z-2.784
G1 X14.535 Y-54.758 Z-2.732
G1 X14.517 Y-54.775 Z-2.677
G1 X14.505 Y-54.788 Z-2.62
G1 X14.497 Y-54.796 Z-2.56
G1 X14.494 Y-54.798 Z-2.5
G1 Z5 F300
G1 X8.839 F2500
G1 Z1 F30
G1 Z-2.5
G1 X8.836 Y-54.796 Z-2.56
G1 X8.829 Y-54.788 Z-2.62
G1 X8.816 Y-54.775 Z-2.677
G1 X8.798 Y-54.758 Z-2.732
G1 X8.776 Y-54.736 Z-2.784
G1 X8.75 Y-54.71 Z-2.832
G1 X8.72 Y-54.679 Z-2.874
G1 X8.686 Y-54.646 Z-2.911
G1 X8.65 Y-54.609 Z-2.943
G1 X8.611 Y-54.57 Z-2.968
G1 X8.57 Y-54.529 Z-2.985
G1 X8.528 Y-54.487 Z-2.996
G1 X8.485 Y-54.445 Z-3
G1 X8.132 Y-54.091 F213
G3 X7.425 I-0.354 J-0.354
G2 X-7.425 Y-39.242 I-7.425 J7.425 F200
G2 X0 Y-36.167 I7.425 J-7.425
G2 X0.045 I0.023 J-10.5
G2 X10.5 Y-46.667 I-0.045 J-10.5
G2 X7.425 Y-54.091 I-10.5
G3 Y-54.798 I0.354 J-0.354 F213
G1 X7.778 Y-55.152
G1 X7.821 Y-55.195 Z-2.996
G1 X7.863 Y-55.237 Z-2.985
G1 X7.904 Y-55.277 Z-2.968
G1 X7.942 Y-55.316 Z-2.943
G1 X7.979 Y-55.353 Z-2.911
G1 X8.013 Y-55.386 Z-2.874
G1 X8.043 Y-55.417 Z-2.832
G1 X8.069 Y-55.443 Z-2.784
G1 X8.091 Y-55.465 Z-2.732
G1 X8.109 Y-55.483 Z-2.677
G1 X8.121 Y-55.495 Z-2.62
G1 X8.129 Y-55.503 Z-2.56
G1 X8.132 Y-55.506 Z-2.5
G1 Z5 F300
G1 Y-61.161 F2500
G1 Z1 F30
G1 Z-2.5
G1 X8.129 Y-61.164 Z-2.56
G1 X8.121 Y-61.171 Z-2.62
G1 X8.109 Y-61.184 Z-2.677
G1 X8.091 Y-61.202 Z-2.732
G1 X8.069 Y-61.224 Z-2.784
G1 X8.043 Y-61.25 Z-2.832
G1 X8.013 Y-61.28 Z-2.874
G1 X7.979 Y-61.314 Z-2.911
G1 X7.943 Y-61.35 Z-2.943
G1 X7.904 Y-61.389 Z-2.968
G1 X7.863 Y-61.43 Z-2.985
G1 X7.821 Y-61.472 Z-2.996
G1 X7.778 Y-61.515 Z-3
G1 X7.425 Y-61.868 F213
G3 Y-62.575 I0.354 J-0.354
G2 X10.5 Y-70 I-7.425 J-7.425 F200
G2 X-10.5 I-10.5
G2 X0 Y-59.5 I10.5
G2 X0.045 I0.023 J-10.5
G2 X7.425 Y-62.575 I-0.045 J-10.5
G3 X8.132 I0.354 J0.354 F213
G1 X8.485 Y-62.222
G1 X8.528 Y-62.179 Z-2.996
G1 X8.57 Y-62.137 Z-2.985
G1 X8.611 Y-62.096 Z-2.968
G1 X8.65 Y-62.057 Z-2.943
G1 X8.686 Y-62.021 Z-2.911
G1 X8.72 Y-61.987 Z-2.874
G1 X8.75 Y-61.957 Z-2.832
G1 X8.776 Y-61.931 Z-2.784
G1 X8.798 Y-61.909 Z-2.732
G1 X8.816 Y-61.891 Z-2.677
G1 X8.829 Y-61.878 Z-2.62
G1 X8.836 Y-61.871 Z-2.56
G1 X8.839 Y-61.868 Z-2.5
G1 Z5 F300
G1 Y-54.798 F2500
G1 Z-0.5 F30
G1 Z-4
G1 X8.836 Y-54.796 Z-4.06
G1 X8.829 Y-54.788 Z-4.12
G1 X8.816 Y-54.775 Z-4.177
G1 X8.798 Y-54.758 Z-4.232
G1 X8.776 Y-54.736 Z-4.284
G1 X8.75 Y-54.71 Z-4.332
G1 X8.72 Y-54.679 Z-4.374
G1 X8.686 Y-54.646 Z-4.411
G1 X8.65 Y-54.609 Z-4.443
G1 X8.611 Y-54.57 Z-4.468
G1 X8.57 Y-54.529 Z-4.485
G1 X8.528 Y-54.487 Z-4.496
G1 X8.485 Y-54.445 Z-4.5
G1 X8.132 Y-54.091 F213
G3 X7.425 I-0.354 J-0.354
G2 X-7.425 Y-39.242 I-7.425 J7.425 F200
G2 X0 Y-36.167 I7.425 J-7.425
G2 X0.045 I0.023 J-10.5
G2 X10.5 Y-46.667 I-0.045 J-10.5
G2 X7.425 Y-54.091 I-10.5
G3 Y-54.798 I0.354 J-0.354 F213
G1 X7.778 Y-55.152
G1 X7.821 Y-55.195 Z-4.496
G1 X7.863 Y-55.237 Z-4.485
G1 X7.904 Y-55.277 Z-4.468
G1 X7.942 Y-55.316 Z-4.443
G1 X7.979 Y-55.353 Z-4.411
G1 X8.013 Y-55.386 Z-4.374
G1 X8.043 Y-55.417 Z-4.332
G1 X8.069 Y-55.443 Z-4.284
G1 X8.091 Y-55.465 Z-4.232
G1 X8.109 Y-55.483 Z-4.177
G1 X8.121 Y-55.495 Z-4.12
G1 X8.129 Y-55.503 Z-4.06
G1 X8.132 Y-55.506 Z-4
G1 Z5 F300
G1 X8.839 Y-31.465 F2500
G1 Z-0.5 F30
G1 Z-4
G1 X8.836 Y-31.462 Z-4.06
G1 X8.829 Y-31.455 Z-4.12
G1 X8.816 Y-31.442 Z-4.177
G1 X8.798 Y-31.425 Z-4.232
G1 X8.776 Y-31.402 Z-4.284
G1 X8.75 Y-31.376 Z-4.332
G1 X8.72 Y-31.346 Z-4.374
G1 X8.686 Y-31.312 Z-4.411
G1 X8.65 Y-31.276 Z-4.443
G1 X8.611 Y-31.237 Z-4.468
G1 X8.57 Y-31.196 Z-4.485
G1 X8.528 Y-31.154 Z-4.496
G1 X8.485 Y-31.111 Z-4.5
G1 X8.132 Y-30.758 F213
G3 X7.425 I-0.354 J-0.354
G2 X-10.5 Y-23.333 I-7.425 J7.425 F200
G2 X-0.045 Y-12.833 I10.5
G2 X0 I0.023 J-10.5
G2 X7.425 Y-30.758 J-10.5
G3 Y-31.465 I0.354 J-0.354 F213
G1 X7.778 Y-31.819
G1 X7.821 Y-31.861 Z-4.496
G1 X7.863 Y-31.903 Z-4.485
G1 X7.904 Y-31.944 Z-4.468
G1 X7.942 Y-31.983 Z-4.443
G1 X7.979 Y-32.019 Z-4.411
G1 X8.013 Y-32.053 Z-4.374
G1 X8.043 Y-32.083 Z-4.332
G1 X8.069 Y-32.11 Z-4.284
G1 X8.091 Y-32.132 Z-4.232
G1 X8.109 Y-32.149 Z-4.177
G1 X8.121 Y-32.162 Z-4.12
G1 X8.129 Y-32.17 Z-4.06
G1 X8.132 Y-32.172 Z-4
G1 Z5 F300
G1 X15.202 F2500
G1 Z-0.5 F30
G1 Z-4
G1 X15.204 Y-32.17 Z-4.06
G1 X15.212 Y-32.162 Z-4.12
G1 X15.225 Y-32.149 Z-4.177
G1 X15.242 Y-32.132 Z-4.232
G1 X15.264 Y-32.11 Z-4.284
G1 X15.291 Y-32.083 Z-4.332
G1 X15.321 Y-32.053 Z-4.374
G1 X15.354 Y-32.019 Z-4.411
G1 X15.391 Y-31.983 Z-4.443
G1 X15.43 Y-31.944 Z-4.468
G1 X15.471 Y-31.903 Z-4.485
G1 X15.513 Y-31.861 Z-4.496
G1 X15.555 Y-31.819 Z-4.5
G1 X15.909 Y-31.465 F213
G3 Y-30.758 I-0.354 J0.354
G2 X23.333 Y-12.833 I7.425 J7.425 F200
G2 X23.379 I0.023 J-10.5
G2 X33.833 Y-23.333 I-0.045 J-10.5
G2 X15.909 Y-30.758 I-10.5
G3 X15.202 I-0.354 J-0.354 F213
G1 X14.848 Y-31.111
G1 X14.805 Y-31.154 Z-4.496
G1 X14.763 Y-31.196 Z-4.485
G1 X14.723 Y-31.237 Z-4.468
G1 X14.684 Y-31.276 Z-4.443
G1 X14.647 Y-31.312 Z-4.411
G1 X14.614 Y-31.346 Z-4.374
G1 X14.583 Y-31.376 Z-4.332
G1 X14.557 Y-31.402 Z-4.284
G1 X14.535 Y-31.425 Z-4.232
G1 X14.517 Y-31.442 Z-4.177
G1 X14.505 Y-31.455 Z-4.12
G1 X14.497 Y-31.462 Z-4.06
G1 X14.494 Y-31.465 Z-4
G1 Z5 F300
G1 X8.839 F2500
G1 Z-2 F30
G1 Z-5.5
G1 X8.836 Y-31.462 Z-5.56
G1 X8.829 Y-31.455 Z-5.62
G1 X8.816 Y-31.442 Z-5.677
G1 X8.798 Y-31.425 Z-5.732
G1 X8.776 Y-31.402 Z-5.784
G1 X8.75 Y-31.376 Z-5.832
G1 X8.72 Y-31.346 Z-5.874
G1 X8.686 Y-31.312 Z-5.911
G1 X8.65 Y-31.276 Z-5.943
G1 X8.611 Y-31.237 Z-5.968
G1 X8.57 Y-31.196 Z-5.985
G1 X8.528 Y-31.154 Z-5.996
G1 X8.485 Y-31.111 Z-6
G1 X8.132 Y-30.758 F213
G3 X7.425 I-0.354 J-0.354
G2 X4 Y-33.042 I-7.425 J7.425 F200
G1 Z-4.75
G2 X-4 I-4 J9.708
G1 Z-6 F30
G2 X-10.5 Y-23.333 I4 J9.708 F200
G2 X-4 Y-13.625 I10.5
G1 Z-4.75
G2 X-0.045 Y-12.833 I4 J-9.708
G2 X0 I0.023 J-10.5
G2 X4 Y-13.625 J-10.5
G1 Z-6 F30
G2 X7.425 Y-30.758 I-4 J-9.708 F200
G3 Y-31.465 I0.354 J-0.354 F213
G1 X7.778 Y-31.819
G1 X7.821 Y-31.861 Z-5.996
G1 X7.863 Y-31.903 Z-5.985
G1 X7.904 Y-31.944 Z-5.968
G1 X7.942 Y-31.983 Z-5.943
G1 X7.979 Y-32.019 Z-5.911
G1 X8.013 Y-32.053 Z-5.874
G1 X8.043 Y-32.083 Z-5.832
G1 X8.069 Y-32.11 Z-5.784
G1 X8.091 Y-32.132 Z-5.732
G1 X8.109 Y-32.149 Z-5.677
G1 X8.121 Y-32.162 Z-5.62
G1 X8.129 Y-32.17 Z-5.56
G1 X8.132 Y-32.172 Z-5.5
G1 Z5 F300
G1 X8.839 Y-8.132 F2500
G1 Z-2 F30
G1 Z-5.5
G1 X8.836 Y-8.129 Z-5.56
G1 X8.829 Y-8.121 Z-5.62
G1 X8.816 Y-8.109 Z-5.677
G1 X8.798 Y-8.091 Z-5.732
G1 X8.776 Y-8.069 Z-5.784
G1 X8.75 Y-8.043 Z-5.832
G1 X8.72 Y-8.013 Z-5.874
G1 X8.686 Y-7.979 Z-5.911
G1 X8.65 Y-7.942 Z-5.943
G1 X8.611 Y-7.904 Z-5.968
G1 X8.57 Y-7.863 Z-5.985
G1 X8.528 Y-7.821 Z-5.996
G1 X8.485 Y-7.778 Z-6
G1 X8.132 Y-7.425 F213
G3 X7.425 I-0.354 J-0.354
G2 X4 Y-9.708 I-7.425 J7.425 F200
G1 Z-4.75
G2 X-4 I-4 J9.708
G1 Z-6 F30
G2 Y9.708 I4 J9.708 F200
G1 Z-4.75
G2 X0 Y10.5 I4 J-9.708
G2 X4 Y9.708 J-10.5
G1 Z-6 F30
G2 X10.5 Y0.045 I-4 J-9.708 F200
G2 Y0 I-10.5 J-0.023
G2 X7.425 Y-7.425 I-10.5
G3 Y-8.132 I0.354 J-0.354 F213
G1 X7.778 Y-8.485
G1 X7.821 Y-8.528 Z-5.996
G1 X7.863 Y-8.57 Z-5.985
G1 X7.904 Y-8.611 Z-5.968
G1 X7.942 Y-8.65 Z-5.943
G1 X7.979 Y-8.686 Z-5.911
G1 X8.013 Y-8.72 Z-5.874
G1 X8.043 Y-8.75 Z-5.832
G1 X8.069 Y-8.776 Z-5.784
G1 X8.091 Y-8.798 Z-5.732
G1 X8.109 Y-8.816 Z-5.677
G1 X8.121 Y-8.829 Z-5.62
G1 X8.129 Y-8.836 Z-5.56
G1 X8.132 Y-8.839 Z-5.5
G1 Z5 F300
G1 X15.202 F2500
G1 Z-2 F30
G1 Z-5.5
G1 X15.204 Y-8.836 Z-5.56
G1 X15.212 Y-8.829 Z-5.62
G1 X15.225 Y-8.816 Z-5.677
G1 X15.242 Y-8.798 Z-5.732
G1 X15.264 Y-8.776 Z-5.784
G1 X15.29 Y-8.75 Z-5.832
G1 X15.321 Y-8.72 Z-5.874
G1 X15.354 Y-8.686 Z-5.911
G1 X15.391 Y-8.65 Z-5.943
G1 X15.43 Y-8.611 Z-5.968
G1 X15.471 Y-8.57 Z-5.985
G1 X15.513 Y-8.528 Z-5.996
G1 X15.555 Y-8.485 Z-6
G1 X15.909 Y-8.132 F213
G3 Y-7.425 I-0.354 J0.354
G2 X19.333 Y9.708 I7.425 J7.425 F200
G1 Z-4.75
G2 X23.333 Y10.5 I4 J-9.708
G2 X27.333 Y9.708 J-10.5
G1 Z-6 F30
G2 X33.833 Y0.045 I-4 J-9.708 F200
G2 Y0 I-10.5 J-0.023
G2 X27.333 Y-9.708 I-10.5
G1 Z-4.75
G2 X19.333 I-4 J9.708
G1 Z-6 F30
G2 X15.909 Y-7.425 I4 J9.708 F200
G3 X15.202 I-0.354 J-0.354 F213
G1 X14.848 Y-7.778
G1 X14.805 Y-7.821 Z-5.996
G1 X14.763 Y-7.863 Z-5.985
G1 X14.723 Y-7.904 Z-5.968
G1 X14.684 Y-7.942 Z-5.943
G1 X14.647 Y-7.979 Z-5.911
G1 X14.614 Y-8.013 Z-5.874
G1 X14.583 Y-8.043 Z-5.832
G1 X14.557 Y-8.069 Z-5.784
G1 X14.535 Y-8.091 Z-5.732
G1 X14.517 Y-8.109 Z-5.677
G1 X14.505 Y-8.121 Z-5.62
G1 X14.497 Y-8.129 Z-5.56
G1 X14.494 Y-8.132 Z-5.5
G1 Z5 F300
G1 X37.828 Y-61.868 F2500
G1 Z2.5 F30
G1 Z-1
G1 X37.83 Y-61.871 Z-1.06
G1 X37.838 Y-61.879 Z-1.12
G1 X37.851 Y-61.891 Z-1.177
G1 X37.868 Y-61.909 Z-1.232
G1 X37.89 Y-61.931 Z-1.284
G1 X37.917 Y-61.957 Z-1.332
G1 X37.947 Y-61.987 Z-1.374
G1 X37.981 Y-62.021 Z-1.411
G1 X38.017 Y-62.058 Z-1.443
G1 X38.056 Y-62.096 Z-1.468
G1 X38.097 Y-62.137 Z-1.485
G1 X38.139 Y-62.179 Z-1.496
G1 X38.181 Y-62.222 Z-1.5
G1 X38.535 Y-62.575 F213
G3 X39.242 I0.354 J0.354
G2 X46.667 Y-59.5 I7.425 J-7.425 F200
G2 X46.712 I0.023 J-10.5
G2 X57.167 Y-70 I-0.045 J-10.5
G2 X36.167 I-10.5
G2 X39.242 Y-62.575 I10.5
G3 Y-61.868 I-0.354 J0.354 F213
G1 X38.889 Y-61.515
G1 X38.846 Y-61.472 Z-1.496
G1 X38.804 Y-61.43 Z-1.485
G1 X38.763 Y-61.389 Z-1.468
G1 X38.724 Y-61.35 Z-1.443
G1 X38.688 Y-61.314 Z-1.411
G1 X38.654 Y-61.28 Z-1.374
G1 X38.624 Y-61.25 Z-1.332
G1 X38.598 Y-61.224 Z-1.284
G1 X38.575 Y-61.202 Z-1.232
G1 X38.558 Y-61.184 Z-1.177
G1 X38.545 Y-61.171 Z-1.12
G1 X38.538 Y-61.164 Z-1.06
G1 X38.535 Y-61.161 Z-1
G1 Z5 F300
G1 Y-55.506 F2500
G1 Z1 F30
G1 Z-2.5
G1 X38.538 Y-55.503 Z-2.56
G1 X38.545 Y-55.495 Z-2.62
G1 X38.558 Y-55.483 Z-2.677
G1 X38.575 Y-55.465 Z-2.732
G1 X38.598 Y-55.443 Z-2.784
G1 X38.624 Y-55.417 Z-2.832
G1 X38.654 Y-55.386 Z-2.874
G1 X38.688 Y-55.353 Z-2.911
G1 X38.724 Y-55.316 Z-2.943
G1 X38.763 Y-55.277 Z-2.968
G1 X38.804 Y-55.237 Z-2.985
G1 X38.846 Y-55.195 Z-2.996
G1 X38.889 Y-55.152 Z-3
G1 X39.242 Y-54.798 F213
G3 Y-54.091 I-0.354 J0.354
G2 X46.667 Y-36.167 I7.425 J7.425 F200
G2 X46.712 I0.023 J-10.5
G2 X57.167 Y-46.667 I-0.045 J-10.5
G2 X39.242 Y-54.091 I-10.5
G3 X38.535 I-0.354 J-0.354 F213
G1 X38.181 Y-54.445
G1 X38.139 Y-54.487 Z-2.996
G1 X38.097 Y-54.529 Z-2.985
G1 X38.056 Y-54.57 Z-2.968
G1 X38.017 Y-54.609 Z-2.943
G1 X37.981 Y-54.646 Z-2.911
G1 X37.947 Y-54.679 Z-2.874
G1 X37.917 Y-54.709 Z-2.832
G1 X37.89 Y-54.736 Z-2.784
G1 X37.868 Y-54.758 Z-2.732
G1 X37.851 Y-54.775 Z-2.677
G1 X37.838 Y-54.788 Z-2.62
G1 X37.83 Y-54.796 Z-2.56
G1 X37.828 Y-54.798 Z-2.5
G1 Z5 F300
G1 X31.465 Y-61.161 F2500
G1 Z1 F30
G1 Z-2.5
G1 X31.462 Y-61.164 Z-2.56
G1 X31.455 Y-61.171 Z-2.62
G1 X31.442 Y-61.184 Z-2.677
G1 X31.425 Y-61.202 Z-2.732
G1 X31.402 Y-61.224 Z-2.784
G1 X31.376 Y-61.25 Z-2.832
G1 X31.346 Y-61.28 Z-2.874
G1 X31.312 Y-61.314 Z-2.911
G1 X31.276 Y-61.35 Z-2.943
G1 X31.237 Y-61.389 Z-2.968
G1 X31.196 Y-61.43 Z-2.985
G1 X31.154 Y-61.472 Z-2.996
G1 X31.112 Y-61.515 Z-3
G1 X30.758 Y-61.868 F213
G3 Y-62.575 I0.354 J-0.354
G2 X33.833 Y-70 I-7.425 J-7.425 F200
G2 X12.833 I-10.5
G2 X23.333 Y-59.5 I10.5
G2 X23.379 I0.023 J-10.5
G2 X30.758 Y-62.575 I-0.045 J-10.5
G3 X31.465 I0.354 J0.354 F213
G1 X31.819 Y-62.222
G1 X31.861 Y-62.179 Z-2.996
G1 X31.903 Y-62.137 Z-2.985
G1 X31.944 Y-62.096 Z-2.968
G1 X31.983 Y-62.057 Z-2.943
G1 X32.019 Y-62.021 Z-2.911
G1 X32.053 Y-61.987 Z-2.874
G1 X32.083 Y-61.957 Z-2.832
G1 X32.11 Y-61.931 Z-2.784
G1 X32.132 Y-61.909 Z-2.732
G1 X32.149 Y-61.891 Z-2.677
G1 X32.162 Y-61.879 Z-2.62
G1 X32.17 Y-61.871 Z-2.56
G1 X32.172 Y-61.868 Z-2.5
G1 Z5 F300
G1 Y-54.798 F2500
G1 Z-0.5 F30
G1 Z-4
G1 X32.17 Y-54.796 Z-4.06
G1 X32.162 Y-54.788 Z-4.12
G1 X32.149 Y-54.775 Z-4.177
G1 X32.132 Y-54.758 Z-4.232
G1 X32.11 Y-54.736 Z-4.284
G1 X32.083 Y-54.709 Z-4.332
G1 X32.053 Y-54.679 Z-4.374
G1 X32.019 Y-54.646 Z-4.411
G1 X31.983 Y-54.609 Z-4.443
G1 X31.944 Y-54.57 Z-4.468
G1 X31.903 Y-54.529 Z-4.485
G1 X31.861 Y-54.487 Z-4.496
G1 X31.819 Y-54.445 Z-4.5
G1 X31.465 Y-54.091 F213
G3 X30.758 I-0.354 J-0.354
G2 X23.333 Y-57.167 I-7.425 J7.425 F200
G2 X23.288 I-0.023 J10.5
G2 X12.833 Y-46.667 I0.045 J10.5
G2 X33.833 I10.5
G2 X30.758 Y-54.091 I-10.5
G3 Y-54.798 I0.354 J-0.354 F213
G1 X31.111 Y-55.152
G1 X31.154 Y-55.195 Z-4.496
G1 X31.196 Y-55.237 Z-4.485
G1 X31.237 Y-55.277 Z-4.468
G1 X31.276 Y-55.316 Z-4.443
G1 X31.312 Y-55.353 Z-4.411
G1 X31.346 Y-55.386 Z-4.374
G1 X31.376 Y-55.417 Z-4.332
G1 X31.402 Y-55.443 Z-4.284
G1 X31.425 Y-55.465 Z-4.232
G1 X31.442 Y-55.483 Z-4.177
G1 X31.455 Y-55.495 Z-4.12
G1 X31.462 Y-55.503 Z-4.06
G1 X31.465 Y-55.506 Z-4
G1 Z5 F300
G1 X8.132 Y-61.161 F2500
G1 Z-0.5 F30
G1 Z-4
G1 X8.129 Y-61.164 Z-4.06
G1 X8.121 Y-61.171 Z-4.12
G1 X8.109 Y-61.184 Z-4.177
G1 X8.091 Y-61.202 Z-4.232
G1 X8.069 Y-61.224 Z-4.284
G1 X8.043 Y-61.25 Z-4.332
G1 X8.013 Y-61.28 Z-4.374
G1 X7.979 Y-61.314 Z-4.411
G1 X7.943 Y-61.35 Z-4.443
G1 X7.904 Y-61.389 Z-4.468
G1 X7.863 Y-61.43 Z-4.485
G1 X7.821 Y-61.472 Z-4.496
G1 X7.778 Y-61.515 Z-4.5
G1 X7.425 Y-61.868 F213
G3 Y-62.575 I0.354 J-0.354
G2 X10.5 Y-70 I-7.425 J-7.425 F200
G2 X-10.5 I-10.5
G2 X0 Y-59.5 I10.5
G2 X0.045 I0.023 J-10.5
G2 X7.425 Y-62.575 I-0.045 J-10.5
G3 X8.132 I0.354 J0.354 F213
G1 X8.485 Y-62.222
G1 X8.528 Y-62.179 Z-4.496
G1 X8.57 Y-62.137 Z-4.485
G1 X8.611 Y-62.096 Z-4.468
G1 X8.65 Y-62.057 Z-4.443
G1 X8.686 Y-62.021 Z-4.411
G1 X8.72 Y-61.987 Z-4.374
G1 X8.75 Y-61.957 Z-4.332
G1 X8.776 Y-61.931 Z-4.284
G1 X8.798 Y-61.909 Z-4.232
G1 X8.816 Y-61.891 Z-4.177
G1 X8.829 Y-61.878 Z-4.12
G1 X8.836 Y-61.871 Z-4.06
G1 X8.839 Y-61.868 Z-4
G1 Z5 F300
G1 Y-54.798 F2500
G1 Z-2 F30
G1 Z-5.5
G1 X8.836 Y-54.796 Z-5.56
G1 X8.829 Y-54.788 Z-5.62
G1 X8.816 Y-54.775 Z-5.677
G1 X8.798 Y-54.758 Z-5.732
G1 X8.776 Y-54.736 Z-5.784
G1 X8.75 Y-54.71 Z-5.832
G1 X8.72 Y-54.679 Z-5.874
G1 X8.686 Y-54.646 Z-5.911
G1 X8.65 Y-54.609 Z-5.943
G1 X8.611 Y-54.57 Z-5.968
G1 X8.57 Y-54.529 Z-5.985
G1 X8.528 Y-54.487 Z-5.996
G1 X8.485 Y-54.445 Z-6
G1 X8.132 Y-54.091 F213
G3 X7.425 I-0.354 J-0.354
G2 X4 Y-56.375 I-7.425 J7.425 F200
G1 Z-4.75
G2 X-4 I-4 J9.708
G1 Z-6 F30
G2 Y-36.958 I4 J9.708 F200
G1 Z-4.75
G2 X0 Y-36.167 I4 J-9.708
G2 X0.045 I0.023 J-10.5
G2 X4 Y-36.958 I-0.045 J-10.5
G1 Z-6 F30
G2 X10.5 Y-46.667 I-4 J-9.708 F200
G2 X7.425 Y-54.091 I-10.5
G3 Y-54.798 I0.354 J-0.354 F213
G1 X7.778 Y-55.152
G1 X7.821 Y-55.195 Z-5.996
G1 X7.863 Y-55.237 Z-5.985
G1 X7.904 Y-55.277 Z-5.968
G1 X7.942 Y-55.316 Z-5.943
G1 X7.979 Y-55.353 Z-5.911
G1 X8.013 Y-55.386 Z-5.874
G1 X8.043 Y-55.417 Z-5.832
G1 X8.069 Y-55.443 Z-5.784
G1 X8.091 Y-55.465 Z-5.732
G1 X8.109 Y-55.483 Z-5.677
G1 X8.121 Y-55.495 Z-5.62
G1 X8.129 Y-55.503 Z-5.56
G1 X8.132 Y-55.506 Z-5.5
G1 Z5 F300
G1 X38.535 Y-32.172 F2500
G1 Z-0.5 F30
G1 Z-4
G1 X38.538 Y-32.17 Z-4.06
G1 X38.545 Y-32.162 Z-4.12
G1 X38.558 Y-32.149 Z-4.177
G1 X38.575 Y-32.132 Z-4.232
G1 X38.598 Y-32.11 Z-4.284
G1 X38.624 Y-32.083 Z-4.332
G1 X38.654 Y-32.053 Z-4.374
G1 X38.688 Y-32.019 Z-4.411
G1 X38.724 Y-31.983 Z-4.443
G1 X38.763 Y-31.944 Z-4.468
G1 X38.804 Y-31.903 Z-4.485
G1 X38.846 Y-31.861 Z-4.496
G1 X38.889 Y-31.819 Z-4.5
G1 X39.242 Y-31.465 F213
G3 Y-30.758 I-0.354 J0.354
G2 X36.167 Y-23.333 I7.425 J7.425 F200
G2 X57.167 I10.5
G2 X46.667 Y-33.833 I-10.5
G2 X46.621 I-0.023 J10.5
G2 X39.242 Y-30.758 I0.045 J10.5
G3 X38.535 I-0.354 J-0.354 F213
G1 X38.181 Y-31.112
G1 X38.139 Y-31.154 Z-4.496
G1 X38.097 Y-31.196 Z-4.485
G1 X38.056 Y-31.237 Z-4.468
G1 X38.017 Y-31.276 Z-4.443
G1 X37.981 Y-31.312 Z-4.411
G1 X37.947 Y-31.346 Z-4.374
G1 X37.917 Y-31.376 Z-4.332
G1 X37.89 Y-31.402 Z-4.284
G1 X37.868 Y-31.425 Z-4.232
G1 X37.851 Y-31.442 Z-4.177
G1 X37.838 Y-31.455 Z-4.12
G1 X37.83 Y-31.462 Z-4.06
G1 X37.828 Y-31.465 Z-4
G1 Z5 F300
G1 X32.172 F2500
G1 Z-2 F30
G1 Z-5.5
G1 X32.17 Y-31.462 Z-5.56
G1 X32.162 Y-31.455 Z-5.62
G1 X32.149 Y-31.442 Z-5.677
G1 X32.132 Y-31.425 Z-5.732
G1 X32.11 Y-31.402 Z-5.784
G1 X32.083 Y-31.376 Z-5.832
G1 X32.053 Y-31.346 Z-5.874
G1 X32.019 Y-31.312 Z-5.911
G1 X31.983 Y-31.276 Z-5.943
G1 X31.944 Y-31.237 Z-5.968
G1 X31.903 Y-31.196 Z-5.985
G1 X31.861 Y-31.154 Z-5.996
G1 X31.819 Y-31.111 Z-6
G1 X31.465 Y-30.758 F213
G3 X30.758 I-0.354 J-0.354
G2 X27.333 Y-33.042 I-7.425 J7.425 F200
G1 Z-4.75
G2 X19.333 I-4 J9.708
G1 Z-6 F30
G2 Y-13.625 I4 J9.708 F200
G1 Z-4.75
G2 X23.333 Y-12.833 I4 J-9.708
G2 X23.379 I0.023 J-10.5
G2 X27.333 Y-13.625 I-0.045 J-10.5
G1 Z-6 F30
G2 X33.833 Y-23.333 I-4 J-9.708 F200
G2 X30.758 Y-30.758 I-10.5
G3 Y-31.465 I0.354 J-0.354 F213
G1 X31.111 Y-31.819
G1 X31.154 Y-31.861 Z-5.996
G1 X31.196 Y-31.903 Z-5.985
G1 X31.237 Y-31.944 Z-5.968
G1 X31.276 Y-31.983 Z-5.943
G1 X31.312 Y-32.019 Z-5.911
G1 X31.346 Y-32.053 Z-5.874
G1 X31.376 Y-32.083 Z-5.832
G1 X31.402 Y-32.11 Z-5.784
G1 X31.425 Y-32.132 Z-5.732
G1 X31.442 Y-32.149 Z-5.677
G1 X31.455 Y-32.162 Z-5.62
G1 X31.462 Y-32.17 Z-5.56
G1 X31.465 Y-32.172 Z-5.5
G1 Z5 F300
G1 X38.535 Y-8.839 F2500
G1 Z-2 F30
G1 Z-5.5
G1 X38.538 Y-8.836 Z-5.56
G1 X38.545 Y-8.829 Z-5.62
G1 X38.558 Y-8.816 Z-5.677
G1 X38.575 Y-8.798 Z-5.732
G1 X38.598 Y-8.776 Z-5.784
G1 X38.624 Y-8.75 Z-5.832
G1 X38.654 Y-8.72 Z-5.874
G1 X38.688 Y-8.686 Z-5.911
G1 X38.724 Y-8.65 Z-5.943
G1 X38.763 Y-8.611 Z-5.968
G1 X38.804 Y-8.57 Z-5.985
G1 X38.846 Y-8.528 Z-5.996
G1 X38.889 Y-8.485 Z-6
G1 X39.242 Y-8.132 F213
G3 Y-7.425 I-0.354 J0.354
G2 X42.667 Y9.708 I7.425 J7.425 F200
G1 Z-4.75
G2 X46.667 Y10.5 I4 J-9.708
G2 X50.667 Y9.708 J-10.5
G1 Z-6 F30
G2 X57.167 Y0.045 I-4 J-9.708 F200
G2 Y0 I-10.5 J-0.023
G2 X50.667 Y-9.708 I-10.5
G1 Z-4.75
G2 X42.667 I-4 J9.708
G1 Z-6 F30
G2 X39.242 Y-7.425 I4 J9.708 F200
G3 X38.535 I-0.354 J-0.354 F213
G1 X38.181 Y-7.778
G1 X38.139 Y-7.821 Z-5.996
G1 X38.097 Y-7.863 Z-5.985
G1 X38.056 Y-7.904 Z-5.968
G1 X38.017 Y-7.942 Z-5.943
G1 X37.981 Y-7.979 Z-5.911
G1 X37.947 Y-8.013 Z-5.874
G1 X37.917 Y-8.043 Z-5.832
G1 X37.89 Y-8.069 Z-5.784
G1 X37.868 Y-8.091 Z-5.732
G1 X37.851 Y-8.109 Z-5.677
G1 X37.838 Y-8.121 Z-5.62
G1 X37.83 Y-8.129 Z-5.56
G1 X37.828 Y-8.132 Z-5.5
G1 Z5 F300
G1 X61.161 Y-61.868 F2500
G1 Z2.5 F30
G1 Z-1
G1 X61.164 Y-61.871 Z-1.06
G1 X61.171 Y-61.879 Z-1.12
G1 X61.184 Y-61.891 Z-1.177
G1 X61.202 Y-61.909 Z-1.232
G1 X61.224 Y-61.931 Z-1.284
G1 X61.25 Y-61.957 Z-1.332
G1 X61.28 Y-61.987 Z-1.374
G1 X61.314 Y-62.021 Z-1.411
G1 X61.35 Y-62.057 Z-1.443
G1 X61.389 Y-62.096 Z-1.468
G1 X61.43 Y-62.137 Z-1.485
G1 X61.472 Y-62.179 Z-1.496
G1 X61.515 Y-62.222 Z-1.5
G1 X61.868 Y-62.575 F213
G3 X62.575 I0.354 J0.354
G2 X70 Y-59.5 I7.425 J-7.425 F200
G2 Y-80.5 J-10.5
G2 X59.5 Y-70 J10.5
G2 Y-69.955 I10.5 J0.023
G2 X62.575 Y-62.575 I10.5 J-0.045
G3 Y-61.868 I-0.354 J0.354 F213
G1 X62.222 Y-61.515
G1 X62.179 Y-61.472 Z-1.496
G1 X62.137 Y-61.43 Z-1.485
G1 X62.096 Y-61.389 Z-1.468
G1 X62.057 Y-61.35 Z-1.443
G1 X62.021 Y-61.314 Z-1.411
G1 X61.987 Y-61.28 Z-1.374
G1 X61.957 Y-61.25 Z-1.332
G1 X61.931 Y-61.224 Z-1.284
G1 X61.909 Y-61.202 Z-1.232
G1 X61.891 Y-61.184 Z-1.177
G1 X61.878 Y-61.171 Z-1.12
G1 X61.871 Y-61.164 Z-1.06
G1 X61.868 Y-61.161 Z-1
G1 Z5 F300
G1 X61.161 Y-61.868 F2500
G1 Z1 F30
G1 Z-2.5
G1 X61.164 Y-61.871 Z-2.56
G1 X61.171 Y-61.879 Z-2.62
G1 X61.184 Y-61.891 Z-2.677
G1 X61.202 Y-61.909 Z-2.732
G1 X61.224 Y-61.931 Z-2.784
G1 X61.25 Y-61.957 Z-2.832
G1 X61.28 Y-61.987 Z-2.874
G1 X61.314 Y-62.021 Z-2.911
G1 X61.35 Y-62.057 Z-2.943
G1 X61.389 Y-62.096 Z-2.968
G1 X61.43 Y-62.137 Z-2.985
G1 X61.472 Y-62.179 Z-2.996
G1 X61.515 Y-62.222 Z-3
G1 X61.868 Y-62.575 F213
G3 X62.575 I0.354 J0.354
G2 X70 Y-59.5 I7.425 J-7.425 F200
G2 Y-80.5 J-10.5
G2 X59.5 Y-70 J10.5
G2 Y-69.955 I10.5 J0.023
G2 X62.575 Y-62.575 I10.5 J-0.045
G3 Y-61.868 I-0.354 J0.354 F213
G1 X62.222 Y-61.515
G1 X62.179 Y-61.472 Z-2.996
G1 X62.137 Y-61.43 Z-2.985
G1 X62.096 Y-61.389 Z-2.968
G1 X62.057 Y-61.35 Z-2.943
G1 X62.021 Y-61.314 Z-2.911
G1 X61.987 Y-61.28 Z-2.874
G1 X61.957 Y-61.25 Z-2.832
G1 X61.931 Y-61.224 Z-2.784
G1 X61.909 Y-61.202 Z-2.732
G1 X61.891 Y-61.184 Z-2.677
G1 X61.878 Y-61.171 Z-2.62
G1 X61.871 Y-61.164 Z-2.56
G1 X61.868 Y-61.161 Z-2.5
G1 Z5 F300
G1 Y-55.506 F2500
G1 Z1 F30
G1 Z-2.5
G1 X61.871 Y-55.503 Z-2.56
G1 X61.879 Y-55.495 Z-2.62
G1 X61.891 Y-55.483 Z-2.677
G1 X61.909 Y-55.465 Z-2.732
G1 X61.931 Y-55.443 Z-2.784
G1 X61.957 Y-55.417 Z-2.832
G1 X61.987 Y-55.386 Z-2.874
G1 X62.021 Y-55.353 Z-2.911
G1 X62.058 Y-55.316 Z-2.943
G1 X62.096 Y-55.277 Z-2.968
G1 X62.137 Y-55.237 Z-2.985
G1 X62.179 Y-55.195 Z-2.996
G1 X62.222 Y-55.152 Z-3
G1 X62.575 Y-54.798 F213
G3 Y-54.091 I-0.354 J0.354
G2 X59.5 Y-46.667 I7.425 J7.425 F200
G2 X80.5 I10.5
G2 X70 Y-57.167 I-10.5
G2 X69.955 I-0.023 J10.5
G2 X62.575 Y-54.091 I0.045 J10.5
G3 X61.868 I-0.354 J-0.354 F213
G1 X61.515 Y-54.445
G1 X61.472 Y-54.488 Z-2.996
G1 X61.43 Y-54.53 Z-2.985
G1 X61.389 Y-54.57 Z-2.968
G1 X61.35 Y-54.609 Z-2.943
G1 X61.314 Y-54.646 Z-2.911
G1 X61.28 Y-54.679 Z-2.874
G1 X61.25 Y-54.71 Z-2.832
G1 X61.224 Y-54.736 Z-2.784
G1 X61.202 Y-54.758 Z-2.732
G1 X61.184 Y-54.775 Z-2.677
G1 X61.171 Y-54.788 Z-2.62
G1 X61.164 Y-54.796 Z-2.56
G1 X61.161 Y-54.798 Z-2.5
G1 Z5 F300
G1 X61.868 Y-55.506 F2500
G1 Z-0.5 F30
G1 Z-4
G1 X61.871 Y-55.503 Z-4.06
G1 X61.879 Y-55.495 Z-4.12
G1 X61.891 Y-55.483 Z-4.177
G1 X61.909 Y-55.465 Z-4.232
G1 X61.931 Y-55.443 Z-4.284
G1 X61.957 Y-55.417 Z-4.332
G1 X61.987 Y-55.386 Z-4.374
G1 X62.021 Y-55.353 Z-4.411
G1 X62.058 Y-55.316 Z-4.443
G1 X62.096 Y-55.277 Z-4.468
G1 X62.137 Y-55.237 Z-4.485
G1 X62.179 Y-55.195 Z-4.496
G1 X62.222 Y-55.152 Z-4.5
G1 X62.575 Y-54.798 F213
G3 Y-54.091 I-0.354 J0.354
G2 X59.5 Y-46.667 I7.425 J7.425 F200
G2 X80.5 I10.5
G2 X70 Y-57.167 I-10.5
G2 X69.955 I-0.023 J10.5
G2 X62.575 Y-54.091 I0.045 J10.5
G3 X61.868 I-0.354 J-0.354 F213
G1 X61.515 Y-54.445
G1 X61.472 Y-54.488 Z-4.496
G1 X61.43 Y-54.53 Z-4.485
G1 X61.389 Y-54.57 Z-4.468
G1 X61.35 Y-54.609 Z-4.443
G1 X61.314 Y-54.646 Z-4.411
G1 X61.28 Y-54.679 Z-4.374
G1 X61.25 Y-54.71 Z-4.332
G1 X61.224 Y-54.736 Z-4.284
G1 X61.202 Y-54.758 Z-4.232
G1 X61.184 Y-54.775 Z-4.177
G1 X61.171 Y-54.788 Z-4.12
G1 X61.164 Y-54.796 Z-4.06
G1 X61.161 Y-54.798 Z-4
G1 Z5 F300
G1 X54.798 Y-61.161 F2500
G1 Z1 F30
G1 Z-2.5
G1 X54.796 Y-61.164 Z-2.56
G1 X54.788 Y-61.171 Z-2.62
G1 X54.775 Y-61.184 Z-2.677
G1 X54.758 Y-61.202 Z-2.732
G1 X54.736 Y-61.224 Z-2.784
G1 X54.71 Y-61.25 Z-2.832
G1 X54.679 Y-61.28 Z-2.874
G1 X54.646 Y-61.314 Z-2.911
G1 X54.609 Y-61.35 Z-2.943
G1 X54.57 Y-61.389 Z-2.968
G1 X54.53 Y-61.43 Z-2.985
G1 X54.488 Y-61.472 Z-2.996
G1 X54.445 Y-61.515 Z-3
G1 X54.091 Y-61.868 F213
G3 Y-62.575 I0.354 J-0.354
G2 X57.167 Y-70 I-7.425 J-7.425 F200
G2 X36.167 I-10.5
G2 X46.667 Y-59.5 I10.5
G2 X46.712 I0.023 J-10.5
G2 X54.091 Y-62.575 I-0.045 J-10.5
G3 X54.798 I0.354 J0.354 F213
G1 X55.152 Y-62.222
G1 X55.195 Y-62.179 Z-2.996
G1 X55.237 Y-62.137 Z-2.985
G1 X55.277 Y-62.096 Z-2.968
G1 X55.316 Y-62.057 Z-2.943
G1 X55.353 Y-62.021 Z-2.911
G1 X55.386 Y-61.987 Z-2.874
G1 X55.417 Y-61.957 Z-2.832
G1 X55.443 Y-61.931 Z-2.784
G1 X55.465 Y-61.909 Z-2.732
G1 X55.483 Y-61.891 Z-2.677
G1 X55.495 Y-61.878 Z-2.62
G1 X55.503 Y-61.871 Z-2.56
G1 X55.506 Y-61.868 Z-2.5
G1 Z5 F300
G1 X54.798 Y-61.161 F2500
G1 Z-0.5 F30
G1 Z-4
G1 X54.796 Y-61.164 Z-4.06
G1 X54.788 Y-61.171 Z-4.12
G1 X54.775 Y-61.184 Z-4.177
G1 X54.758 Y-61.202 Z-4.232
G1 X54.736 Y-61.224 Z-4.284
G1 X54.71 Y-61.25 Z-4.332
G1 X54.679 Y-61.28 Z-4.374
G1 X54.646 Y-61.314 Z-4.411
G1 X54.609 Y-61.35 Z-4.443
G1 X54.57 Y-61.389 Z-4.468
G1 X54.53 Y-61.43 Z-4.485
G1 X54.488 Y-61.472 Z-4.496
G1 X54.445 Y-61.515 Z-4.5
G1 X54.091 Y-61.868 F213
G3 Y-62.575 I0.354 J-0.354
G2 X57.167 Y-70 I-7.425 J-7.425 F200
G2 X36.167 I-10.5
G2 X46.667 Y-59.5 I10.5
G2 X46.712 I0.023 J-10.5
G2 X54.091 Y-62.575 I-0.045 J-10.5
G3 X54.798 I0.354 J0.354 F213
G1 X55.152 Y-62.222
G1 X55.195 Y-62.179 Z-4.496
G1 X55.237 Y-62.137 Z-4.485
G1 X55.277 Y-62.096 Z-4.468
G1 X55.316 Y-62.057 Z-4.443
G1 X55.353 Y-62.021 Z-4.411
G1 X55.386 Y-61.987 Z-4.374
G1 X55.417 Y-61.957 Z-4.332
G1 X55.443 Y-61.931 Z-4.284
G1 X55.465 Y-61.909 Z-4.232
G1 X55.483 Y-61.891 Z-4.177
G1 X55.495 Y-61.878 Z-4.12
G1 X55.503 Y-61.871 Z-4.06
G1 X55.506 Y-61.868 Z-4
G1 Z5 F300
G1 X61.161 F2500
G1 Z-0.5 F30
G1 Z-4
G1 X61.164 Y-61.871 Z-4.06
G1 X61.171 Y-61.879 Z-4.12
G1 X61.184 Y-61.891 Z-4.177
G1 X61.202 Y-61.909 Z-4.232
G1 X61.224 Y-61.931 Z-4.284
G1 X61.25 Y-61.957 Z-4.332
G1 X61.28 Y-61.987 Z-4.374
G1 X61.314 Y-62.021 Z-4.411
G1 X61.35 Y-62.057 Z-4.443
G1 X61.389 Y-62.096 Z-4.468
G1 X61.43 Y-62.137 Z-4.485
G1 X61.472 Y-62.179 Z-4.496
G1 X61.515 Y-62.222 Z-4.5
G1 X61.868 Y-62.575 F213
G3 X62.575 I0.354 J0.354
G2 X70 Y-59.5 I7.425 J-7.425 F200
G2 Y-80.5 J-10.5
G2 X59.5 Y-70 J10.5
G2 Y-69.955 I10.5 J0.023
G2 X62.575 Y-62.575 I10.5 J-0.045
G3 Y-61.868 I-0.354 J0.354 F213
G1 X62.222 Y-61.515
G1 X62.179 Y-61.472 Z-4.496
G1 X62.137 Y-61.43 Z-4.485
G1 X62.096 Y-61.389 Z-4.468
G1 X62.057 Y-61.35 Z-4.443
G1 X62.021 Y-61.314 Z-4.411
G1 X61.987 Y-61.28 Z-4.374
G1 X61.957 Y-61.25 Z-4.332
G1 X61.931 Y-61.224 Z-4.284
G1 X61.909 Y-61.202 Z-4.232
G1 X61.891 Y-61.184 Z-4.177
G1 X61.878 Y-61.171 Z-4.12
G1 X61.871 Y-61.164 Z-4.06
G1 X61.868 Y-61.161 Z-4
G1 Z5 F300
G1 X61.161 Y-61.868 F2500
G1 Z-2 F30
G1 Z-5.5
G1 X61.164 Y-61.871 Z-5.56
G1 X61.171 Y-61.879 Z-5.62
G1 X61.184 Y-61.891 Z-5.677
G1 X61.202 Y-61.909 Z-5.732
G1 X61.224 Y-61.931 Z-5.784
G1 X61.25 Y-61.957 Z-5.832
G1 X61.28 Y-61.987 Z-5.874
G1 X61.314 Y-62.021 Z-5.911
G1 X61.35 Y-62.057 Z-5.943
G1 X61.389 Y-62.096 Z-5.968
G1 X61.43 Y-62.137 Z-5.985
G1 X61.472 Y-62.179 Z-5.996
G1 X61.515 Y-62.222 Z-6
G1 X61.868 Y-62.575 F213
G3 X62.575 I0.354 J0.354
G2 X66 Y-60.292 I7.425 J-7.425 F200
G1 Z-4.75
G2 X70 Y-59.5 I4 J-9.708
G2 X74 Y-60.292 J-10.5
G1 Z-6 F30
G2 Y-79.708 I-4 J-9.708 F200
G1 Z-4.75
G2 X66 I-4 J9.708
G1 Z-6 F30
G2 X59.5 Y-70 I4 J9.708 F200
G2 Y-69.955 I10.5 J0.023
G2 X62.575 Y-62.575 I10.5 J-0.045
G3 Y-61.868 I-0.354 J0.354 F213
G1 X62.222 Y-61.515
G1 X62.179 Y-61.472 Z-5.996
G1 X62.137 Y-61.43 Z-5.985
G1 X62.096 Y-61.389 Z-5.968
G1 X62.057 Y-61.35 Z-5.943
G1 X62.021 Y-61.314 Z-5.911
G1 X61.987 Y-61.28 Z-5.874
G1 X61.957 Y-61.25 Z-5.832
G1 X61.931 Y-61.224 Z-5.784
G1 X61.909 Y-61.202 Z-5.732
G1 X61.891 Y-61.184 Z-5.677
G1 X61.878 Y-61.171 Z-5.62
G1 X61.871 Y-61.164 Z-5.56
G1 X61.868 Y-61.161 Z-5.5
G1 Z5 F300
G1 X55.506 Y-54.798 F2500
G1 Z-0.5 F30
G1 Z-4
G1 X55.503 Y-54.796 Z-4.06
G1 X55.495 Y-54.788 Z-4.12
G1 X55.483 Y-54.775 Z-4.177
G1 X55.465 Y-54.758 Z-4.232
G1 X55.443 Y-54.736 Z-4.284
G1 X55.417 Y-54.71 Z-4.332
G1 X55.386 Y-54.679 Z-4.374
G1 X55.353 Y-54.646 Z-4.411
G1 X55.316 Y-54.609 Z-4.443
G1 X55.277 Y-54.57 Z-4.468
G1 X55.237 Y-54.529 Z-4.485
G1 X55.195 Y-54.487 Z-4.496
G1 X55.152 Y-54.445 Z-4.5
G1 X54.798 Y-54.091 F213
G3 X54.091 I-0.354 J-0.354
G2 X39.242 Y-39.242 I-7.425 J7.425 F200
G2 X46.667 Y-36.167 I7.425 J-7.425
G2 X46.712 I0.023 J-10.5
G2 X57.167 Y-46.667 I-0.045 J-10.5
G2 X54.091 Y-54.091 I-10.5
G3 Y-54.798 I0.354 J-0.354 F213
G1 X54.445 Y-55.152
G1 X54.487 Y-55.195 Z-4.496
G1 X54.529 Y-55.237 Z-4.485
G1 X54.57 Y-55.277 Z-4.468
G1 X54.609 Y-55.316 Z-4.443
G1 X54.646 Y-55.353 Z-4.411
G1 X54.679 Y-55.386 Z-4.374
G1 X54.71 Y-55.417 Z-4.332
G1 X54.736 Y-55.443 Z-4.284
G1 X54.758 Y-55.465 Z-4.232
G1 X54.775 Y-55.483 Z-4.177
G1 X54.788 Y-55.495 Z-4.12
G1 X54.796 Y-55.503 Z-4.06
G1 X54.798 Y-55.506 Z-4
G1 Z5 F300
G1 X55.506 Y-54.798 F2500
G1 Z-2 F30
G1 Z-5.5
G1 X55.503 Y-54.796 Z-5.56
G1 X55.495 Y-54.788 Z-5.62
G1 X55.483 Y-54.775 Z-5.677
G1 X55.465 Y-54.758 Z-5.732
G1 X55.443 Y-54.736 Z-5.784
G1 X55.417 Y-54.71 Z-5.832
G1 X55.386 Y-54.679 Z-5.874
G1 X55.353 Y-54.646 Z-5.911
G1 X55.316 Y-54.609 Z-5.943
G1 X55.277 Y-54.57 Z-5.968
G1 X55.237 Y-54.529 Z-5.985
G1 X55.195 Y-54.487 Z-5.996
G1 X55.152 Y-54.445 Z-6
G1 X54.798 Y-54.091 F213
G3 X54.091 I-0.354 J-0.354
G2 X50.667 Y-56.375 I-7.425 J7.425 F200
G1 Z-4.75
G2 X42.667 I-4 J9.708
G1 Z-6 F30
G2 Y-36.958 I4 J9.708 F200
G1 Z-4.75
G2 X46.667 Y-36.167 I4 J-9.708
G2 X46.712 I0.023 J-10.5
G2 X50.667 Y-36.958 I-0.045 J-10.5
G1 Z-6 F30
G2 X57.167 Y-46.667 I-4 J-9.708 F200
G2 X54.091 Y-54.091 I-10.5
G3 Y-54.798 I0.354 J-0.354 F213
G1 X54.445 Y-55.152
G1 X54.487 Y-55.195 Z-5.996
G1 X54.529 Y-55.237 Z-5.985
G1 X54.57 Y-55.277 Z-5.968
G1 X54.609 Y-55.316 Z-5.943
G1 X54.646 Y-55.353 Z-5.911
G1 X54.679 Y-55.386 Z-5.874
G1 X54.71 Y-55.417 Z-5.832
G1 X54.736 Y-55.443 Z-5.784
G1 X54.758 Y-55.465 Z-5.732
G1 X54.775 Y-55.483 Z-5.677
G1 X54.788 Y-55.495 Z-5.62
G1 X54.796 Y-55.503 Z-5.56
G1 X54.798 Y-55.506 Z-5.5
G1 Z5 F300
G1 X31.465 Y-61.161 F2500
G1 Z-0.5 F30
G1 Z-4
G1 X31.462 Y-61.164 Z-4.06
G1 X31.455 Y-61.171 Z-4.12
G1 X31.442 Y-61.184 Z-4.177
G1 X31.425 Y-61.202 Z-4.232
G1 X31.402 Y-61.224 Z-4.284
G1 X31.376 Y-61.25 Z-4.332
G1 X31.346 Y-61.28 Z-4.374
G1 X31.312 Y-61.314 Z-4.411
G1 X31.276 Y-61.35 Z-4.443
G1 X31.237 Y-61.389 Z-4.468
G1 X31.196 Y-61.43 Z-4.485
G1 X31.154 Y-61.472 Z-4.496
G1 X31.112 Y-61.515 Z-4.5
G1 X30.758 Y-61.868 F213
G3 Y-62.575 I0.354 J-0.354
G2 X33.833 Y-70 I-7.425 J-7.425 F200
G2 X12.833 I-10.5
G2 X23.333 Y-59.5 I10.5
G2 X23.379 I0.023 J-10.5
G2 X30.758 Y-62.575 I-0.045 J-10.5
G3 X31.465 I0.354 J0.354 F213
G1 X31.819 Y-62.222
G1 X31.861 Y-62.179 Z-4.496
G1 X31.903 Y-62.137 Z-4.485
G1 X31.944 Y-62.096 Z-4.468
G1 X31.983 Y-62.057 Z-4.443
G1 X32.019 Y-62.021 Z-4.411
G1 X32.053 Y-61.987 Z-4.374
G1 X32.083 Y-61.957 Z-4.332
G1 X32.11 Y-61.931 Z-4.284
G1 X32.132 Y-61.909 Z-4.232
G1 X32.149 Y-61.891 Z-4.177
G1 X32.162 Y-61.879 Z-4.12
G1 X32.17 Y-61.871 Z-4.06
G1 X32.172 Y-61.868 Z-4
G1 Z5 F300
G1 X31.465 Y-61.161 F2500
G1 Z-2 F30
G1 Z-5.5
G1 X31.462 Y-61.164 Z-5.56
G1 X31.455 Y-61.171 Z-5.62
G1 X31.442 Y-61.184 Z-5.677
G1 X31.425 Y-61.202 Z-5.732
G1 X31.402 Y-61.224 Z-5.784
G1 X31.376 Y-61.25 Z-5.832
G1 X31.346 Y-61.28 Z-5.874
G1 X31.312 Y-61.314 Z-5.911
G1 X31.276 Y-61.35 Z-5.943
G1 X31.237 Y-61.389 Z-5.968
G1 X31.196 Y-61.43 Z-5.985
G1 X31.154 Y-61.472 Z-5.996
G1 X31.112 Y-61.515 Z-6
G1 X30.758 Y-61.868 F213
G3 Y-62.575 I0.354 J-0.354
G2 X33.833 Y-70 I-7.425 J-7.425 F200
G2 X27.333 Y-79.708 I-10.5
G1 Z-4.75
G2 X19.333 I-4 J9.708
G1 Z-6 F30
G2 Y-60.292 I4 J9.708 F200
G1 Z-4.75
G2 X23.333 Y-59.5 I4 J-9.708
G2 X23.379 I0.023 J-10.5
G2 X27.333 Y-60.292 I-0.045 J-10.5
G1 Z-6 F30
G2 X30.758 Y-62.575 I-4 J-9.708 F200
G3 X31.465 I0.354 J0.354 F213
G1 X31.819 Y-62.222
G1 X31.861 Y-62.179 Z-5.996
G1 X31.903 Y-62.137 Z-5.985
G1 X31.944 Y-62.096 Z-5.968
G1 X31.983 Y-62.057 Z-5.943
G1 X32.019 Y-62.021 Z-5.911
G1 X32.053 Y-61.987 Z-5.874
G1 X32.083 Y-61.957 Z-5.832
G1 X32.11 Y-61.931 Z-5.784
G1 X32.132 Y-61.909 Z-5.732
G1 X32.149 Y-61.891 Z-5.677
G1 X32.162 Y-61.879 Z-5.62
G1 X32.17 Y-61.871 Z-5.56
G1 X32.172 Y-61.868 Z-5.5
G1 Z5 F300
G1 X37.828 F2500
G1 Z-2 F30
G1 Z-5.5
G1 X37.83 Y-61.871 Z-5.56
G1 X37.838 Y-61.879 Z-5.62
G1 X37.851 Y-61.891 Z-5.677
G1 X37.868 Y-61.909 Z-5.732
G1 X37.89 Y-61.931 Z-5.784
G1 X37.917 Y-61.957 Z-5.832
G1 X37.947 Y-61.987 Z-5.874
G1 X37.981 Y-62.021 Z-5.911
G1 X38.017 Y-62.058 Z-5.943
G1 X38.056 Y-62.096 Z-5.968
G1 X38.097 Y-62.137 Z-5.985
G1 X38.139 Y-62.179 Z-5.996
G1 X38.181 Y-62.222 Z-6
G1 X38.535 Y-62.575 F213
G3 X39.242 I0.354 J0.354
G2 X42.667 Y-60.292 I7.425 J-7.425 F200
G1 Z-4.75
G2 X46.667 Y-59.5 I4 J-9.708
G2 X46.712 I0.023 J-10.5
G2 X50.667 Y-60.292 I-0.045 J-10.5
G1 Z-6 F30
G2 X57.167 Y-70 I-4 J-9.708 F200
G2 X50.667 Y-79.708 I-10.5
G1 Z-4.75
G2 X42.667 I-4 J9.708
G1 Z-6 F30
G2 X39.242 Y-62.575 I4 J9.708 F200
G3 Y-61.868 I-0.354 J0.354 F213
G1 X38.889 Y-61.515
G1 X38.846 Y-61.472 Z-5.996
G1 X38.804 Y-61.43 Z-5.985
G1 X38.763 Y-61.389 Z-5.968
G1 X38.724 Y-61.35 Z-5.943
G1 X38.688 Y-61.314 Z-5.911
G1 X38.654 Y-61.28 Z-5.874
G1 X38.624 Y-61.25 Z-5.832
G1 X38.598 Y-61.224 Z-5.784
G1 X38.575 Y-61.202 Z-5.732
G1 X38.558 Y-61.184 Z-5.677
G1 X38.545 Y-61.171 Z-5.62
G1 X38.538 Y-61.164 Z-5.56
G1 X38.535 Y-61.161 Z-5.5
G1 Z5 F300
G1 X32.172 Y-54.798 F2500
G1 Z-2 F30
G1 Z-5.5
G1 X32.17 Y-54.796 Z-5.56
G1 X32.162 Y-54.788 Z-5.62
G1 X32.149 Y-54.775 Z-5.677
G1 X32.132 Y-54.758 Z-5.732
G1 X32.11 Y-54.736 Z-5.784
G1 X32.083 Y-54.709 Z-5.832
G1 X32.053 Y-54.679 Z-5.874
G1 X32.019 Y-54.646 Z-5.911
G1 X31.983 Y-54.609 Z-5.943
G1 X31.944 Y-54.57 Z-5.968
G1 X31.903 Y-54.529 Z-5.985
G1 X31.861 Y-54.487 Z-5.996
G1 X31.819 Y-54.445 Z-6
G1 X31.465 Y-54.091 F213
G3 X30.758 I-0.354 J-0.354
G2 X27.333 Y-56.375 I-7.425 J7.425 F200
G1 Z-4.75
G2 X23.333 Y-57.167 I-4 J9.708
G2 X23.288 I-0.023 J10.5
G2 X19.333 Y-56.375 I0.045 J10.5
G1 Z-6 F30
G2 X12.833 Y-46.667 I4 J9.708 F200
G2 X19.333 Y-36.958 I10.5
G1 Z-4.75
G2 X27.333 I4 J-9.708
G1 Z-6 F30
G2 X30.758 Y-54.091 I-4 J-9.708 F200
G3 Y-54.798 I0.354 J-0.354 F213
G1 X31.111 Y-55.152
G1 X31.154 Y-55.195 Z-5.996
G1 X31.196 Y-55.237 Z-5.985
G1 X31.237 Y-55.277 Z-5.968
G1 X31.276 Y-55.316 Z-5.943
G1 X31.312 Y-55.353 Z-5.911
G1 X31.346 Y-55.386 Z-5.874
G1 X31.376 Y-55.417 Z-5.832
G1 X31.402 Y-55.443 Z-5.784
G1 X31.425 Y-55.465 Z-5.732
G1 X31.442 Y-55.483 Z-5.677
G1 X31.455 Y-55.495 Z-5.62
G1 X31.462 Y-55.503 Z-5.56
G1 X31.465 Y-55.506 Z-5.5
G1 Z5 F300
G1 X8.132 Y-61.161 F2500
G1 Z-2 F30
G1 Z-5.5
G1 X8.129 Y-61.164 Z-5.56
G1 X8.121 Y-61.171 Z-5.62
G1 X8.109 Y-61.184 Z-5.677
G1 X8.091 Y-61.202 Z-5.732
G1 X8.069 Y-61.224 Z-5.784
G1 X8.043 Y-61.25 Z-5.832
G1 X8.013 Y-61.28 Z-5.874
G1 X7.979 Y-61.314 Z-5.911
G1 X7.943 Y-61.35 Z-5.943
G1 X7.904 Y-61.389 Z-5.968
G1 X7.863 Y-61.43 Z-5.985
G1 X7.821 Y-61.472 Z-5.996
G1 X7.778 Y-61.515 Z-6
G1 X7.425 Y-61.868 F213
G3 Y-62.575 I0.354 J-0.354
G2 X10.5 Y-70 I-7.425 J-7.425 F200
G2 X4 Y-79.708 I-10.5
G1 Z-4.75
G2 X-4 I-4 J9.708
G1 Z-6 F30
G2 Y-60.292 I4 J9.708 F200
G1 Z-4.75
G2 X0 Y-59.5 I4 J-9.708
G2 X0.045 I0.023 J-10.5
G2 X4 Y-60.292 I-0.045 J-10.5
G1 Z-6 F30
G2 X7.425 Y-62.575 I-4 J-9.708 F200
G3 X8.132 I0.354 J0.354 F213
G1 X8.485 Y-62.222
G1 X8.528 Y-62.179 Z-5.996
G1 X8.57 Y-62.137 Z-5.985
G1 X8.611 Y-62.096 Z-5.968
G1 X8.65 Y-62.057 Z-5.943
G1 X8.686 Y-62.021 Z-5.911
G1 X8.72 Y-61.987 Z-5.874
G1 X8.75 Y-61.957 Z-5.832
G1 X8.776 Y-61.931 Z-5.784
G1 X8.798 Y-61.909 Z-5.732
G1 X8.816 Y-61.891 Z-5.677
G1 X8.829 Y-61.878 Z-5.62
G1 X8.836 Y-61.871 Z-5.56
G1 X8.839 Y-61.868 Z-5.5
G1 Z5 F300
G1 X61.868 Y-32.172 F2500
G1 Z-0.5 F30
G1 Z-4
G1 X61.871 Y-32.17 Z-4.06
G1 X61.879 Y-32.162 Z-4.12
G1 X61.891 Y-32.149 Z-4.177
G1 X61.909 Y-32.132 Z-4.232
G1 X61.931 Y-32.11 Z-4.284
G1 X61.957 Y-32.083 Z-4.332
G1 X61.987 Y-32.053 Z-4.374
G1 X62.021 Y-32.019 Z-4.411
G1 X62.058 Y-31.983 Z-4.443
G1 X62.096 Y-31.944 Z-4.468
G1 X62.137 Y-31.903 Z-4.485
G1 X62.179 Y-31.861 Z-4.496
G1 X62.222 Y-31.819 Z-4.5
G1 X62.575 Y-31.465 F213
G3 Y-30.758 I-0.354 J0.354
G2 X59.5 Y-23.333 I7.425 J7.425 F200
G2 X80.5 I10.5
G2 X70 Y-33.833 I-10.5
G2 X69.955 I-0.023 J10.5
G2 X62.575 Y-30.758 I0.045 J10.5
G3 X61.868 I-0.354 J-0.354 F213
G1 X61.515 Y-31.112
G1 X61.472 Y-31.154 Z-4.496
G1 X61.43 Y-31.196 Z-4.485
G1 X61.389 Y-31.237 Z-4.468
G1 X61.35 Y-31.276 Z-4.443
G1 X61.314 Y-31.312 Z-4.411
G1 X61.28 Y-31.346 Z-4.374
G1 X61.25 Y-31.376 Z-4.332
G1 X61.224 Y-31.403 Z-4.284
G1 X61.202 Y-31.425 Z-4.232
G1 X61.184 Y-31.442 Z-4.177
G1 X61.171 Y-31.455 Z-4.12
G1 X61.164 Y-31.463 Z-4.06
G1 X61.161 Y-31.465 Z-4
G1 Z5 F300
G1 X61.868 Y-32.172 F2500
G1 Z-2 F30
G1 Z-5.5
G1 X61.871 Y-32.17 Z-5.56
G1 X61.879 Y-32.162 Z-5.62
G1 X61.891 Y-32.149 Z-5.677
G1 X61.909 Y-32.132 Z-5.732
G1 X61.931 Y-32.11 Z-5.784
G1 X61.957 Y-32.083 Z-5.832
G1 X61.987 Y-32.053 Z-5.874
G1 X62.021 Y-32.019 Z-5.911
G1 X62.058 Y-31.983 Z-5.943
G1 X62.096 Y-31.944 Z-5.968
G1 X62.137 Y-31.903 Z-5.985
G1 X62.179 Y-31.861 Z-5.996
G1 X62.222 Y-31.819 Z-6
G1 X62.575 Y-31.465 F213
G3 Y-30.758 I-0.354 J0.354
G2 X59.5 Y-23.333 I7.425 J7.425 F200
G2 X66 Y-13.625 I10.5
G1 Z-4.75
G2 X74 I4 J-9.708
G1 Z-6 F30
G2 Y-33.042 I-4 J-9.708 F200
G1 Z-4.75
G2 X70 Y-33.833 I-4 J9.708
G2 X69.955 I-0.023 J10.5
G2 X66 Y-33.042 I0.045 J10.5
G1 Z-6 F30
G2 X62.575 Y-30.758 I4 J9.708 F200
G3 X61.868 I-0.354 J-0.354 F213
G1 X61.515 Y-31.112
G1 X61.472 Y-31.154 Z-5.996
G1 X61.43 Y-31.196 Z-5.985
G1 X61.389 Y-31.237 Z-5.968
G1 X61.35 Y-31.276 Z-5.943
G1 X61.314 Y-31.312 Z-5.911
G1 X61.28 Y-31.346 Z-5.874
G1 X61.25 Y-31.376 Z-5.832
G1 X61.224 Y-31.403 Z-5.784
G1 X61.202 Y-31.425 Z-5.732
G1 X61.184 Y-31.442 Z-5.677
G1 X61.171 Y-31.455 Z-5.62
G1 X61.164 Y-31.463 Z-5.56
G1 X61.161 Y-31.465 Z-5.5
G1 Z5 F300
G1 X55.506 F2500
G1 Z-2 F30
G1 Z-5.5
G1 X55.503 Y-31.462 Z-5.56
G1 X55.495 Y-31.455 Z-5.62
G1 X55.483 Y-31.442 Z-5.677
G1 X55.465 Y-31.425 Z-5.732
G1 X55.443 Y-31.402 Z-5.784
G1 X55.417 Y-31.376 Z-5.832
G1 X55.386 Y-31.346 Z-5.874
G1 X55.353 Y-31.312 Z-5.911
G1 X55.316 Y-31.276 Z-5.943
G1 X55.277 Y-31.237 Z-5.968
G1 X55.237 Y-31.196 Z-5.985
G1 X55.195 Y-31.154 Z-5.996
G1 X55.152 Y-31.111 Z-6
G1 X54.798 Y-30.758 F213
G3 X54.091 I-0.354 J-0.354
G2 X50.667 Y-33.042 I-7.425 J7.425 F200
G1 Z-4.75
G2 X46.667 Y-33.833 I-4 J9.708
G2 X46.621 I-0.023 J10.5
G2 X42.667 Y-33.042 I0.045 J10.5
G1 Z-6 F30
G2 X36.167 Y-23.333 I4 J9.708 F200
G2 X42.667 Y-13.625 I10.5
G1 Z-4.75
G2 X50.667 I4 J-9.708
G1 Z-6 F30
G2 X54.091 Y-30.758 I-4 J-9.708 F200
G3 Y-31.465 I0.354 J-0.354 F213
G1 X54.445 Y-31.819
G1 X54.487 Y-31.861 Z-5.996
G1 X54.529 Y-31.903 Z-5.985
G1 X54.57 Y-31.944 Z-5.968
G1 X54.609 Y-31.983 Z-5.943
G1 X54.646 Y-32.019 Z-5.911
G1 X54.679 Y-32.053 Z-5.874
G1 X54.709 Y-32.083 Z-5.832
G1 X54.736 Y-32.11 Z-5.784
G1 X54.758 Y-32.132 Z-5.732
G1 X54.775 Y-32.149 Z-5.677
G1 X54.788 Y-32.162 Z-5.62
G1 X54.796 Y-32.17 Z-5.56
G1 X54.798 Y-32.172 Z-5.5
G1 Z5 F300
G1 X61.161 Y-38.535 F2500
G1 Z-2 F30
G1 Z-5.5
G1 X61.164 Y-38.538 Z-5.56
G1 X61.171 Y-38.545 Z-5.62
G1 X61.184 Y-38.558 Z-5.677
G1 X61.202 Y-38.575 Z-5.732
G1 X61.224 Y-38.598 Z-5.784
G1 X61.25 Y-38.624 Z-5.832
G1 X61.28 Y-38.654 Z-5.874
G1 X61.314 Y-38.688 Z-5.911
G1 X61.35 Y-38.724 Z-5.943
G1 X61.389 Y-38.763 Z-5.968
G1 X61.43 Y-38.804 Z-5.985
G1 X61.472 Y-38.846 Z-5.996
G1 X61.515 Y-38.889 Z-6
G1 X61.868 Y-39.242 F213
G3 X62.575 I0.354 J0.354
G2 X66 Y-36.958 I7.425 J-7.425 F200
G1 Z-4.75
G2 X74 I4 J-9.708
G1 Z-6 F30
G2 Y-56.375 I-4 J-9.708 F200
G1 Z-4.75
G2 X70 Y-57.167 I-4 J9.708
G2 X69.955 I-0.023 J10.5
G2 X66 Y-56.375 I0.045 J10.5
G1 Z-6 F30
G2 X59.5 Y-46.667 I4 J9.708 F200
G2 X62.575 Y-39.242 I10.5
G3 Y-38.535 I-0.354 J0.354 F213
G1 X62.222 Y-38.181
G1 X62.179 Y-38.139 Z-5.996
G1 X62.137 Y-38.097 Z-5.985
G1 X62.096 Y-38.056 Z-5.968
G1 X62.058 Y-38.017 Z-5.943
G1 X62.021 Y-37.981 Z-5.911
G1 X61.987 Y-37.947 Z-5.874
G1 X61.957 Y-37.917 Z-5.832
G1 X61.931 Y-37.89 Z-5.784
G1 X61.909 Y-37.868 Z-5.732
G1 X61.891 Y-37.851 Z-5.677
G1 X61.879 Y-37.838 Z-5.62
G1 X61.871 Y-37.83 Z-5.56
G1 X61.868 Y-37.828 Z-5.5
G1 Z5 F300
G1 Y-8.839 F2500
G1 Z-2 F30
G1 Z-5.5
G1 X61.871 Y-8.836 Z-5.56
G1 X61.879 Y-8.829 Z-5.62
G1 X61.891 Y-8.816 Z-5.677
G1 X61.909 Y-8.798 Z-5.732
G1 X61.931 Y-8.776 Z-5.784
G1 X61.957 Y-8.75 Z-5.832
G1 X61.987 Y-8.72 Z-5.874
G1 X62.021 Y-8.686 Z-5.911
G1 X62.058 Y-8.65 Z-5.943
G1 X62.096 Y-8.611 Z-5.968
G1 X62.137 Y-8.57 Z-5.985
G1 X62.179 Y-8.528 Z-5.996
G1 X62.222 Y-8.485 Z-6
G1 X62.575 Y-8.132 F213
G3 Y-7.425 I-0.354 J0.354
G2 X59.5 Y0 I7.425 J7.425 F200
G2 X66 Y9.708 I10.5
G1 Z-4.75
G2 X74 I4 J-9.708
G1 Z-6 F30
G2 Y-9.708 I-4 J-9.708 F200
G1 Z-4.75
G2 X70 Y-10.5 I-4 J9.708
G2 X69.955 I-0.023 J10.5
G2 X66 Y-9.708 I0.045 J10.5
G1 Z-6 F30
G2 X62.575 Y-7.425 I4 J9.708 F200
G3 X61.868 I-0.354 J-0.354 F213
G1 X61.515 Y-7.778
G1 X61.472 Y-7.821 Z-5.996
G1 X61.43 Y-7.863 Z-5.985
G1 X61.389 Y-7.904 Z-5.968
G1 X61.35 Y-7.943 Z-5.943
G1 X61.314 Y-7.979 Z-5.911
G1 X61.28 Y-8.013 Z-5.874
G1 X61.25 Y-8.043 Z-5.832
G1 X61.224 Y-8.069 Z-5.784
G1 X61.202 Y-8.091 Z-5.732
G1 X61.184 Y-8.109 Z-5.677
G1 X61.171 Y-8.122 Z-5.62
G1 X61.164 Y-8.129 Z-5.56
G1 X61.161 Y-8.132 Z-5.5
G1 Z15 F300

M400
M117 Job end
G1 X0 Y0 F2500
G1 Z0 F300
