;Fusion 360 CAM 2.0.6263
;Posts processor: MPCNC_Mill_Laser.cps
;Gcode generated: Thursday, September 12, 2019 7:53:07 PM GMT
;Document: Separador unidad v1
;Setup: Setup1

G90
G21
M84 S0
G92 X0 Y0 Z0

;Probe tool - Not yet implemented

;Bore1 - Milling - Tool: 1 - flat end mill
;X Min: -1.25 - X Max: 1.25
;Y Min: -1.25 - Y Max: 1.25
;Z Min: -6 - Z Max: 15
M400
M117 Bore1
G1 Z15 F300
G1 X0.125 Y-0.125 F2500
G1 Z1.5 F300
G1 Z0 F213
G1 Y0.125
G3 X0 Y0.25 I-0.125
G1 X-0.044 Y0.246 Z-0.028
G1 X-0.087 Y0.234 Z-0.057
G1 X-0.128 Y0.215 Z-0.085
G1 X-0.164 Y0.189 Z-0.114
G1 X-0.195 Y0.157 Z-0.142
G1 X-0.22 Y0.12 Z-0.171
G1 X-0.237 Y0.079 Z-0.199
G1 X-0.248 Y0.035 Z-0.227
G1 X-0.25 Y-0.009 Z-0.256
G1 X-0.244 Y-0.054 Z-0.284
G1 X-0.231 Y-0.096 Z-0.313
G1 X-0.21 Y-0.136 Z-0.341
G1 X-0.183 Y-0.171 Z-0.37
G1 X-0.149 Y-0.2 Z-0.398
G1 X-0.111 Y-0.224 Z-0.427
G1 X-0.07 Y-0.24 Z-0.455
G1 X-0.026 Y-0.249 Z-0.483
G1 X0.019 Z-0.512
G1 X0.063 Y-0.242 Z-0.54
G1 X0.105 Y-0.227 Z-0.569
G1 X0.143 Y-0.205 Z-0.597
G1 X0.177 Y-0.176 Z-0.626
G1 X0.206 Y-0.142 Z-0.654
G1 X0.228 Y-0.103 Z-0.682
G1 X0.242 Y-0.061 Z-0.711
G1 X0.249 Y-0.017 Z-0.739
G1 X0.248 Y0.028 Z-0.768
G1 X0.24 Y0.072 Z-0.796
G1 X0.223 Y0.113 Z-0.825
G1 X0.199 Y0.151 Z-0.853
G1 X0.169 Y0.184 Z-0.882
G1 X0.134 Y0.211 Z-0.91
G1 X0.094 Y0.232 Z-0.938
G1 X0.052 Y0.245 Z-0.967
G1 X0.007 Y0.25 Z-0.995
G1 X-0.037 Y0.247 Z-1.024
G1 X-0.08 Y0.237 Z-1.052
G1 X-0.121 Y0.219 Z-1.081
G1 X-0.158 Y0.194 Z-1.109
G1 X-0.19 Y0.162 Z-1.137
G1 X-0.216 Y0.126 Z-1.166
G1 X-0.235 Y0.086 Z-1.194
G1 X-0.246 Y0.043 Z-1.223
G1 X-0.25 Y-0.002 Z-1.251
G1 X-0.246 Y-0.046 Z-1.28
G1 X-0.234 Y-0.089 Z-1.308
G1 X-0.214 Y-0.129 Z-1.336
G1 X-0.188 Y-0.165 Z-1.365
G1 X-0.155 Y-0.196 Z-1.393
G1 X-0.118 Y-0.22 Z-1.422
G1 X-0.077 Y-0.238 Z-1.45
G1 X-0.033 Y-0.248 Z-1.479
G1 X0.011 Y-0.25 Z-1.507
G1 X0.055 Y-0.244 Z-1.536
G1 X0.098 Y-0.23 Z-1.564
G1 X0.137 Y-0.209 Z-1.592
G1 X0.172 Y-0.181 Z-1.621
G1 X0.202 Y-0.148 Z-1.649
G1 X0.225 Y-0.11 Z-1.678
G1 X0.241 Y-0.068 Z-1.706
G1 X0.249 Y-0.024 Z-1.735
G1 Y0.02 Z-1.763
G1 X0.242 Y0.064 Z-1.791
G1 X0.226 Y0.106 Z-1.82
G1 X0.204 Y0.145 Z-1.848
G1 X0.175 Y0.179 Z-1.877
G1 X0.14 Y0.207 Z-1.905
G1 X0.101 Y0.229 Z-1.934
G1 X0.059 Y0.243 Z-1.962
G1 X0.015 Y0.25 Z-1.991
G1 X-0.03 Y0.248 Z-2.019
G1 X-0.073 Y0.239 Z-2.047
G1 X-0.115 Y0.222 Z-2.076
G1 X-0.152 Y0.198 Z-2.104
G1 X-0.185 Y0.168 Z-2.133
G1 X-0.212 Y0.132 Z-2.161
G1 X-0.232 Y0.093 Z-2.19
G1 X-0.245 Y0.05 Z-2.218
G1 X-0.25 Y0.006 Z-2.246
G1 X-0.247 Y-0.039 Z-2.275
G1 X-0.236 Y-0.082 Z-2.303
G1 X-0.218 Y-0.123 Z-2.332
G1 X-0.192 Y-0.16 Z-2.36
G1 X-0.161 Y-0.191 Z-2.389
G1 X-0.124 Y-0.217 Z-2.417
G1 X-0.084 Y-0.235 Z-2.445
G1 X-0.041 Y-0.247 Z-2.474
G1 X0.004 Y-0.25 Z-2.502
G1 X0.048 Y-0.245 Z-2.531
G1 X0.091 Y-0.233 Z-2.559
G1 X0.131 Y-0.213 Z-2.588
G1 X0.167 Y-0.186 Z-2.616
G1 X0.197 Y-0.154 Z-2.645
G1 X0.221 Y-0.116 Z-2.673
G1 X0.238 Y-0.075 Z-2.701
G1 X0.248 Y-0.032 Z-2.73
G1 X0.25 Y0.013 Z-2.758
G1 X0.243 Y0.057 Z-2.787
G1 X0.229 Y0.1 Z-2.815
G1 X0.208 Y0.139 Z-2.844
G1 X0.18 Y0.173 Z-2.872
G1 X0.146 Y0.203 Z-2.9
G1 X0.108 Y0.225 Z-2.929
G1 X0.066 Y0.241 Z-2.957
G1 X0.022 Y0.249 Z-2.986
G1 X-0.022 Z-3.014
G1 X-0.066 Y0.241 Z-3.043
G1 X-0.108 Y0.225 Z-3.071
G1 X-0.146 Y0.203 Z-3.1
G1 X-0.18 Y0.173 Z-3.128
G1 X-0.208 Y0.139 Z-3.156
G1 X-0.229 Y0.1 Z-3.185
G1 X-0.243 Y0.057 Z-3.213
G1 X-0.25 Y0.013 Z-3.242
G1 X-0.248 Y-0.032 Z-3.27
G1 X-0.238 Y-0.075 Z-3.299
G1 X-0.221 Y-0.116 Z-3.327
G1 X-0.197 Y-0.154 Z-3.355
G1 X-0.167 Y-0.186 Z-3.384
G1 X-0.131 Y-0.213 Z-3.412
G1 X-0.091 Y-0.233 Z-3.441
G1 X-0.048 Y-0.245 Z-3.469
G1 X-0.004 Y-0.25 Z-3.498
G1 X0.041 Y-0.247 Z-3.526
G1 X0.084 Y-0.235 Z-3.555
G1 X0.124 Y-0.217 Z-3.583
G1 X0.161 Y-0.191 Z-3.611
G1 X0.192 Y-0.16 Z-3.64
G1 X0.218 Y-0.123 Z-3.668
G1 X0.236 Y-0.082 Z-3.697
G1 X0.247 Y-0.039 Z-3.725
G1 X0.25 Y0.006 Z-3.754
G1 X0.245 Y0.05 Z-3.782
G1 X0.232 Y0.093 Z-3.81
G1 X0.212 Y0.132 Z-3.839
G1 X0.185 Y0.168 Z-3.867
G1 X0.152 Y0.198 Z-3.896
G1 X0.115 Y0.222 Z-3.924
G1 X0.073 Y0.239 Z-3.953
G1 X0.03 Y0.248 Z-3.981
G1 X-0.015 Y0.25 Z-4.009
G1 X-0.059 Y0.243 Z-4.038
G1 X-0.101 Y0.229 Z-4.066
G1 X-0.14 Y0.207 Z-4.095
G1 X-0.175 Y0.179 Z-4.123
G1 X-0.204 Y0.145 Z-4.152
G1 X-0.226 Y0.106 Z-4.18
G1 X-0.242 Y0.064 Z-4.209
G1 X-0.249 Y0.02 Z-4.237
G1 Y-0.024 Z-4.265
G1 X-0.241 Y-0.068 Z-4.294
G1 X-0.225 Y-0.11 Z-4.322
G1 X-0.202 Y-0.148 Z-4.351
G1 X-0.172 Y-0.181 Z-4.379
G1 X-0.137 Y-0.209 Z-4.408
G1 X-0.098 Y-0.23 Z-4.436
G1 X-0.055 Y-0.244 Z-4.464
G1 X-0.011 Y-0.25 Z-4.493
G1 X0.033 Y-0.248 Z-4.521
G1 X0.077 Y-0.238 Z-4.55
G1 X0.118 Y-0.22 Z-4.578
G1 X0.155 Y-0.196 Z-4.607
G1 X0.188 Y-0.165 Z-4.635
G1 X0.214 Y-0.129 Z-4.664
G1 X0.234 Y-0.089 Z-4.692
G1 X0.246 Y-0.046 Z-4.72
G1 X0.25 Y-0.002 Z-4.749
G1 X0.246 Y0.043 Z-4.777
G1 X0.235 Y0.086 Z-4.806
G1 X0.216 Y0.126 Z-4.834
G1 X0.19 Y0.162 Z-4.863
G1 X0.158 Y0.194 Z-4.891
G1 X0.121 Y0.219 Z-4.919
G1 X0.08 Y0.237 Z-4.948
G1 X0.037 Y0.247 Z-4.976
G1 X-0.007 Y0.25 Z-5.005
G1 X-0.052 Y0.245 Z-5.033
G1 X-0.094 Y0.232 Z-5.062
G1 X-0.134 Y0.211 Z-5.09
G1 X-0.169 Y0.184 Z-5.118
G1 X-0.199 Y0.151 Z-5.147
G1 X-0.223 Y0.113 Z-5.175
G1 X-0.24 Y0.072 Z-5.204
G1 X-0.248 Y0.028 Z-5.232
G1 X-0.249 Y-0.017 Z-5.261
G1 X-0.242 Y-0.061 Z-5.289
G1 X-0.228 Y-0.103 Z-5.318
G1 X-0.206 Y-0.142 Z-5.346
G1 X-0.177 Y-0.176 Z-5.374
G1 X-0.143 Y-0.205 Z-5.403
G1 X-0.105 Y-0.227 Z-5.431
G1 X-0.063 Y-0.242 Z-5.46
G1 X-0.019 Y-0.249 Z-5.488
G1 X0.026 Z-5.517
G1 X0.07 Y-0.24 Z-5.545
G1 X0.111 Y-0.224 Z-5.573
G1 X0.149 Y-0.2 Z-5.602
G1 X0.183 Y-0.171 Z-5.63
G1 X0.21 Y-0.136 Z-5.659
G1 X0.231 Y-0.096 Z-5.687
G1 X0.244 Y-0.054 Z-5.716
G1 X0.25 Y-0.009 Z-5.744
G1 X0.248 Y0.035 Z-5.773
G1 X0.237 Y0.079 Z-5.801
G1 X0.22 Y0.12 Z-5.829
G1 X0.195 Y0.157 Z-5.858
G1 X0.164 Y0.189 Z-5.886
G1 X0.128 Y0.215 Z-5.915
G1 X0.087 Y0.234 Z-5.943
G1 X0.044 Y0.246 Z-5.972
G1 X0 Y0.25 Z-6
G3 Y-0.25 J-0.25
G3 Y0.25 J0.25
G3 X-0.125 Y0.125 J-0.125
G1 Y-0.125
G1 Z5 F300
G1 X0.5 Y0 F2500
G1 Z2 F300
G1 Z0.5 F213
G1 Y0.004 Z0.44
G1 Y0.015 Z0.38
G1 Y0.032 Z0.323
G1 Y0.057 Z0.268
G1 Y0.089 Z0.216
G1 Y0.126 Z0.168
G1 Y0.168 Z0.126
G1 Y0.216 Z0.089
G1 Y0.268 Z0.057
G1 Y0.323 Z0.032
G1 Y0.38 Z0.015
G1 Y0.44 Z0.004
G1 Y0.5 Z0
G1 Y0.75
G3 X0 Y1.25 I-0.5
G1 X-0.1 Y1.246 Z-0.013
G1 X-0.199 Y1.234 Z-0.025
G1 X-0.297 Y1.214 Z-0.038
G1 X-0.393 Y1.187 Z-0.051
G1 X-0.486 Y1.152 Z-0.064
G1 X-0.576 Y1.109 Z-0.076
G1 X-0.663 Y1.06 Z-0.089
G1 X-0.745 Y1.003 Z-0.102
G1 X-0.823 Y0.941 Z-0.114
G1 X-0.896 Y0.872 Z-0.127
G1 X-0.962 Y0.798 Z-0.14
G1 X-1.023 Y0.718 Z-0.153
G1 X-1.077 Y0.635 Z-0.165
G1 X-1.124 Y0.547 Z-0.178
G1 X-1.164 Y0.455 Z-0.191
G1 X-1.197 Y0.361 Z-0.203
G1 X-1.222 Y0.264 Z-0.216
G1 X-1.239 Y0.166 Z-0.229
G1 X-1.248 Y0.067 Z-0.242
G1 X-1.25 Y-0.033 Z-0.254
G1 X-1.243 Y-0.133 Z-0.267
G1 X-1.228 Y-0.232 Z-0.28
G1 X-1.206 Y-0.329 Z-0.292
G1 X-1.176 Y-0.424 Z-0.305
G1 X-1.138 Y-0.517 Z-0.318
G1 X-1.093 Y-0.606 Z-0.331
G1 X-1.042 Y-0.691 Z-0.343
G1 X-0.983 Y-0.772 Z-0.356
G1 X-0.918 Y-0.848 Z-0.369
G1 X-0.848 Y-0.918 Z-0.381
G1 X-0.772 Y-0.983 Z-0.394
G1 X-0.691 Y-1.042 Z-0.407
G1 X-0.606 Y-1.093 Z-0.419
G1 X-0.517 Y-1.138 Z-0.432
G1 X-0.424 Y-1.176 Z-0.445
G1 X-0.329 Y-1.206 Z-0.458
G1 X-0.232 Y-1.228 Z-0.47
G1 X-0.133 Y-1.243 Z-0.483
G1 X-0.033 Y-1.25 Z-0.496
G1 X0.067 Y-1.248 Z-0.508
G1 X0.166 Y-1.239 Z-0.521
G1 X0.264 Y-1.222 Z-0.534
G1 X0.361 Y-1.197 Z-0.547
G1 X0.455 Y-1.164 Z-0.559
G1 X0.547 Y-1.124 Z-0.572
G1 X0.635 Y-1.077 Z-0.585
G1 X0.718 Y-1.023 Z-0.597
G1 X0.798 Y-0.962 Z-0.61
G1 X0.872 Y-0.896 Z-0.623
G1 X0.941 Y-0.823 Z-0.636
G1 X1.003 Y-0.745 Z-0.648
G1 X1.06 Y-0.663 Z-0.661
G1 X1.109 Y-0.576 Z-0.674
G1 X1.152 Y-0.486 Z-0.686
G1 X1.187 Y-0.393 Z-0.699
G1 X1.214 Y-0.297 Z-0.712
G1 X1.234 Y-0.199 Z-0.725
G1 X1.246 Y-0.1 Z-0.737
G1 X1.25 Y0 Z-0.75
G1 X1.246 Y0.1 Z-0.763
G1 X1.234 Y0.199 Z-0.775
G1 X1.214 Y0.297 Z-0.788
G1 X1.187 Y0.393 Z-0.801
G1 X1.152 Y0.486 Z-0.814
G1 X1.109 Y0.576 Z-0.826
G1 X1.06 Y0.663 Z-0.839
G1 X1.003 Y0.745 Z-0.852
G1 X0.941 Y0.823 Z-0.864
G1 X0.872 Y0.896 Z-0.877
G1 X0.798 Y0.962 Z-0.89
G1 X0.718 Y1.023 Z-0.903
G1 X0.635 Y1.077 Z-0.915
G1 X0.547 Y1.124 Z-0.928
G1 X0.455 Y1.164 Z-0.941
G1 X0.361 Y1.197 Z-0.953
G1 X0.264 Y1.222 Z-0.966
G1 X0.166 Y1.239 Z-0.979
G1 X0.067 Y1.248 Z-0.992
G1 X-0.033 Y1.25 Z-1.004
G1 X-0.133 Y1.243 Z-1.017
G1 X-0.232 Y1.228 Z-1.03
G1 X-0.329 Y1.206 Z-1.042
G1 X-0.424 Y1.176 Z-1.055
G1 X-0.517 Y1.138 Z-1.068
G1 X-0.606 Y1.093 Z-1.081
G1 X-0.691 Y1.042 Z-1.093
G1 X-0.772 Y0.983 Z-1.106
G1 X-0.848 Y0.918 Z-1.119
G1 X-0.918 Y0.848 Z-1.131
G1 X-0.983 Y0.772 Z-1.144
G1 X-1.042 Y0.691 Z-1.157
G1 X-1.093 Y0.606 Z-1.169
G1 X-1.138 Y0.517 Z-1.182
G1 X-1.176 Y0.424 Z-1.195
G1 X-1.206 Y0.329 Z-1.208
G1 X-1.228 Y0.232 Z-1.22
G1 X-1.243 Y0.133 Z-1.233
G1 X-1.25 Y0.033 Z-1.246
G1 X-1.248 Y-0.067 Z-1.258
G1 X-1.239 Y-0.166 Z-1.271
G1 X-1.222 Y-0.264 Z-1.284
G1 X-1.197 Y-0.361 Z-1.297
G1 X-1.164 Y-0.455 Z-1.309
G1 X-1.124 Y-0.547 Z-1.322
G1 X-1.077 Y-0.635 Z-1.335
G1 X-1.023 Y-0.718 Z-1.347
G1 X-0.962 Y-0.798 Z-1.36
G1 X-0.896 Y-0.872 Z-1.373
G1 X-0.823 Y-0.941 Z-1.386
G1 X-0.745 Y-1.003 Z-1.398
G1 X-0.663 Y-1.06 Z-1.411
G1 X-0.576 Y-1.109 Z-1.424
G1 X-0.486 Y-1.152 Z-1.436
G1 X-0.393 Y-1.187 Z-1.449
G1 X-0.297 Y-1.214 Z-1.462
G1 X-0.199 Y-1.234 Z-1.475
G1 X-0.1 Y-1.246 Z-1.487
G1 X0 Y-1.25 Z-1.5
G1 X0.1 Y-1.246 Z-1.513
G1 X0.199 Y-1.234 Z-1.525
G1 X0.297 Y-1.214 Z-1.538
G1 X0.393 Y-1.187 Z-1.551
G1 X0.486 Y-1.152 Z-1.564
G1 X0.576 Y-1.109 Z-1.576
G1 X0.663 Y-1.06 Z-1.589
G1 X0.745 Y-1.003 Z-1.602
G1 X0.823 Y-0.941 Z-1.614
G1 X0.896 Y-0.872 Z-1.627
G1 X0.962 Y-0.798 Z-1.64
G1 X1.023 Y-0.718 Z-1.653
G1 X1.077 Y-0.635 Z-1.665
G1 X1.124 Y-0.547 Z-1.678
G1 X1.164 Y-0.455 Z-1.691
G1 X1.197 Y-0.361 Z-1.703
G1 X1.222 Y-0.264 Z-1.716
G1 X1.239 Y-0.166 Z-1.729
G1 X1.248 Y-0.067 Z-1.742
G1 X1.25 Y0.033 Z-1.754
G1 X1.243 Y0.133 Z-1.767
G1 X1.228 Y0.232 Z-1.78
G1 X1.206 Y0.329 Z-1.792
G1 X1.176 Y0.424 Z-1.805
G1 X1.138 Y0.517 Z-1.818
G1 X1.093 Y0.606 Z-1.831
G1 X1.042 Y0.691 Z-1.843
G1 X0.983 Y0.772 Z-1.856
G1 X0.918 Y0.848 Z-1.869
G1 X0.848 Y0.918 Z-1.881
G1 X0.772 Y0.983 Z-1.894
G1 X0.691 Y1.042 Z-1.907
G1 X0.606 Y1.093 Z-1.919
G1 X0.517 Y1.138 Z-1.932
G1 X0.424 Y1.176 Z-1.945
G1 X0.329 Y1.206 Z-1.958
G1 X0.232 Y1.228 Z-1.97
G1 X0.133 Y1.243 Z-1.983
G1 X0.033 Y1.25 Z-1.996
G1 X-0.067 Y1.248 Z-2.008
G1 X-0.166 Y1.239 Z-2.021
G1 X-0.264 Y1.222 Z-2.034
G1 X-0.361 Y1.197 Z-2.047
G1 X-0.455 Y1.164 Z-2.059
G1 X-0.547 Y1.124 Z-2.072
G1 X-0.635 Y1.077 Z-2.085
G1 X-0.718 Y1.023 Z-2.097
G1 X-0.798 Y0.962 Z-2.11
G1 X-0.872 Y0.896 Z-2.123
G1 X-0.941 Y0.823 Z-2.136
G1 X-1.003 Y0.745 Z-2.148
G1 X-1.06 Y0.663 Z-2.161
G1 X-1.109 Y0.576 Z-2.174
G1 X-1.152 Y0.486 Z-2.186
G1 X-1.187 Y0.393 Z-2.199
G1 X-1.214 Y0.297 Z-2.212
G1 X-1.234 Y0.199 Z-2.225
G1 X-1.246 Y0.1 Z-2.237
G1 X-1.25 Y0 Z-2.25
G1 X-1.246 Y-0.1 Z-2.263
G1 X-1.234 Y-0.199 Z-2.275
G1 X-1.214 Y-0.297 Z-2.288
G1 X-1.187 Y-0.393 Z-2.301
G1 X-1.152 Y-0.486 Z-2.314
G1 X-1.109 Y-0.576 Z-2.326
G1 X-1.06 Y-0.663 Z-2.339
G1 X-1.003 Y-0.745 Z-2.352
G1 X-0.941 Y-0.823 Z-2.364
G1 X-0.872 Y-0.896 Z-2.377
G1 X-0.798 Y-0.962 Z-2.39
G1 X-0.718 Y-1.023 Z-2.403
G1 X-0.635 Y-1.077 Z-2.415
G1 X-0.547 Y-1.124 Z-2.428
G1 X-0.455 Y-1.164 Z-2.441
G1 X-0.361 Y-1.197 Z-2.453
G1 X-0.264 Y-1.222 Z-2.466
G1 X-0.166 Y-1.239 Z-2.479
G1 X-0.067 Y-1.248 Z-2.492
G1 X0.033 Y-1.25 Z-2.504
G1 X0.133 Y-1.243 Z-2.517
G1 X0.232 Y-1.228 Z-2.53
G1 X0.329 Y-1.206 Z-2.542
G1 X0.424 Y-1.176 Z-2.555
G1 X0.517 Y-1.138 Z-2.568
G1 X0.606 Y-1.093 Z-2.581
G1 X0.691 Y-1.042 Z-2.593
G1 X0.772 Y-0.983 Z-2.606
G1 X0.848 Y-0.918 Z-2.619
G1 X0.918 Y-0.848 Z-2.631
G1 X0.983 Y-0.772 Z-2.644
G1 X1.042 Y-0.691 Z-2.657
G1 X1.093 Y-0.606 Z-2.669
G1 X1.138 Y-0.517 Z-2.682
G1 X1.176 Y-0.424 Z-2.695
G1 X1.206 Y-0.329 Z-2.708
G1 X1.228 Y-0.232 Z-2.72
G1 X1.243 Y-0.133 Z-2.733
G1 X1.25 Y-0.033 Z-2.746
G1 X1.248 Y0.067 Z-2.758
G1 X1.239 Y0.166 Z-2.771
G1 X1.222 Y0.264 Z-2.784
G1 X1.197 Y0.361 Z-2.797
G1 X1.164 Y0.455 Z-2.809
G1 X1.124 Y0.547 Z-2.822
G1 X1.077 Y0.635 Z-2.835
G1 X1.023 Y0.718 Z-2.847
G1 X0.962 Y0.798 Z-2.86
G1 X0.896 Y0.872 Z-2.873
G1 X0.823 Y0.941 Z-2.886
G1 X0.745 Y1.003 Z-2.898
G1 X0.663 Y1.06 Z-2.911
G1 X0.576 Y1.109 Z-2.924
G1 X0.486 Y1.152 Z-2.936
G1 X0.393 Y1.187 Z-2.949
G1 X0.297 Y1.214 Z-2.962
G1 X0.199 Y1.234 Z-2.975
G1 X0.1 Y1.246 Z-2.987
G1 X0 Y1.25 Z-3
G1 X-0.1 Y1.246 Z-3.013
G1 X-0.199 Y1.234 Z-3.025
G1 X-0.297 Y1.214 Z-3.038
G1 X-0.393 Y1.187 Z-3.051
G1 X-0.486 Y1.152 Z-3.064
G1 X-0.576 Y1.109 Z-3.076
G1 X-0.663 Y1.06 Z-3.089
G1 X-0.745 Y1.003 Z-3.102
G1 X-0.823 Y0.941 Z-3.114
G1 X-0.896 Y0.872 Z-3.127
G1 X-0.962 Y0.798 Z-3.14
G1 X-1.023 Y0.718 Z-3.153
G1 X-1.077 Y0.635 Z-3.165
G1 X-1.124 Y0.547 Z-3.178
G1 X-1.164 Y0.455 Z-3.191
G1 X-1.197 Y0.361 Z-3.203
G1 X-1.222 Y0.264 Z-3.216
G1 X-1.239 Y0.166 Z-3.229
G1 X-1.248 Y0.067 Z-3.242
G1 X-1.25 Y-0.033 Z-3.254
G1 X-1.243 Y-0.133 Z-3.267
G1 X-1.228 Y-0.232 Z-3.28
G1 X-1.206 Y-0.329 Z-3.292
G1 X-1.176 Y-0.424 Z-3.305
G1 X-1.138 Y-0.517 Z-3.318
G1 X-1.093 Y-0.606 Z-3.331
G1 X-1.042 Y-0.691 Z-3.343
G1 X-0.983 Y-0.772 Z-3.356
G1 X-0.918 Y-0.848 Z-3.369
G1 X-0.848 Y-0.918 Z-3.381
G1 X-0.772 Y-0.983 Z-3.394
G1 X-0.691 Y-1.042 Z-3.407
G1 X-0.606 Y-1.093 Z-3.419
G1 X-0.517 Y-1.138 Z-3.432
G1 X-0.424 Y-1.176 Z-3.445
G1 X-0.329 Y-1.206 Z-3.458
G1 X-0.232 Y-1.228 Z-3.47
G1 X-0.133 Y-1.243 Z-3.483
G1 X-0.033 Y-1.25 Z-3.496
G1 X0.067 Y-1.248 Z-3.508
G1 X0.166 Y-1.239 Z-3.521
G1 X0.264 Y-1.222 Z-3.534
G1 X0.361 Y-1.197 Z-3.547
G1 X0.455 Y-1.164 Z-3.559
G1 X0.547 Y-1.124 Z-3.572
G1 X0.635 Y-1.077 Z-3.585
G1 X0.718 Y-1.023 Z-3.597
G1 X0.798 Y-0.962 Z-3.61
G1 X0.872 Y-0.896 Z-3.623
G1 X0.941 Y-0.823 Z-3.636
G1 X1.003 Y-0.745 Z-3.648
G1 X1.06 Y-0.663 Z-3.661
G1 X1.109 Y-0.576 Z-3.674
G1 X1.152 Y-0.486 Z-3.686
G1 X1.187 Y-0.393 Z-3.699
G1 X1.214 Y-0.297 Z-3.712
G1 X1.234 Y-0.199 Z-3.725
G1 X1.246 Y-0.1 Z-3.737
G1 X1.25 Y0 Z-3.75
G1 X1.246 Y0.1 Z-3.763
G1 X1.234 Y0.199 Z-3.775
G1 X1.214 Y0.297 Z-3.788
G1 X1.187 Y0.393 Z-3.801
G1 X1.152 Y0.486 Z-3.814
G1 X1.109 Y0.576 Z-3.826
G1 X1.06 Y0.663 Z-3.839
G1 X1.003 Y0.745 Z-3.852
G1 X0.941 Y0.823 Z-3.864
G1 X0.872 Y0.896 Z-3.877
G1 X0.798 Y0.962 Z-3.89
G1 X0.718 Y1.023 Z-3.903
G1 X0.635 Y1.077 Z-3.915
G1 X0.547 Y1.124 Z-3.928
G1 X0.455 Y1.164 Z-3.941
G1 X0.361 Y1.197 Z-3.953
G1 X0.264 Y1.222 Z-3.966
G1 X0.166 Y1.239 Z-3.979
G1 X0.067 Y1.248 Z-3.992
G1 X-0.033 Y1.25 Z-4.004
G1 X-0.133 Y1.243 Z-4.017
G1 X-0.232 Y1.228 Z-4.03
G1 X-0.329 Y1.206 Z-4.042
G1 X-0.424 Y1.176 Z-4.055
G1 X-0.517 Y1.138 Z-4.068
G1 X-0.606 Y1.093 Z-4.081
G1 X-0.691 Y1.042 Z-4.093
G1 X-0.772 Y0.983 Z-4.106
G1 X-0.848 Y0.918 Z-4.119
G1 X-0.918 Y0.848 Z-4.131
G1 X-0.983 Y0.772 Z-4.144
G1 X-1.042 Y0.691 Z-4.157
G1 X-1.093 Y0.606 Z-4.169
G1 X-1.138 Y0.517 Z-4.182
G1 X-1.176 Y0.424 Z-4.195
G1 X-1.206 Y0.329 Z-4.208
G1 X-1.228 Y0.232 Z-4.22
G1 X-1.243 Y0.133 Z-4.233
G1 X-1.25 Y0.033 Z-4.246
G1 X-1.248 Y-0.067 Z-4.258
G1 X-1.239 Y-0.166 Z-4.271
G1 X-1.222 Y-0.264 Z-4.284
G1 X-1.197 Y-0.361 Z-4.297
G1 X-1.164 Y-0.455 Z-4.309
G1 X-1.124 Y-0.547 Z-4.322
G1 X-1.077 Y-0.635 Z-4.335
G1 X-1.023 Y-0.718 Z-4.347
G1 X-0.962 Y-0.798 Z-4.36
G1 X-0.896 Y-0.872 Z-4.373
G1 X-0.823 Y-0.941 Z-4.386
G1 X-0.745 Y-1.003 Z-4.398
G1 X-0.663 Y-1.06 Z-4.411
G1 X-0.576 Y-1.109 Z-4.424
G1 X-0.486 Y-1.152 Z-4.436
G1 X-0.393 Y-1.187 Z-4.449
G1 X-0.297 Y-1.214 Z-4.462
G1 X-0.199 Y-1.234 Z-4.475
G1 X-0.1 Y-1.246 Z-4.487
G1 X0 Y-1.25 Z-4.5
G1 X0.1 Y-1.246 Z-4.513
G1 X0.199 Y-1.234 Z-4.525
G1 X0.297 Y-1.214 Z-4.538
G1 X0.393 Y-1.187 Z-4.551
G1 X0.486 Y-1.152 Z-4.564
G1 X0.576 Y-1.109 Z-4.576
G1 X0.663 Y-1.06 Z-4.589
G1 X0.745 Y-1.003 Z-4.602
G1 X0.823 Y-0.941 Z-4.614
G1 X0.896 Y-0.872 Z-4.627
G1 X0.962 Y-0.798 Z-4.64
G1 X1.023 Y-0.718 Z-4.653
G1 X1.077 Y-0.635 Z-4.665
G1 X1.124 Y-0.547 Z-4.678
G1 X1.164 Y-0.455 Z-4.691
G1 X1.197 Y-0.361 Z-4.703
G1 X1.222 Y-0.264 Z-4.716
G1 X1.239 Y-0.166 Z-4.729
G1 X1.248 Y-0.067 Z-4.742
G1 X1.25 Y0.033 Z-4.754
G1 X1.243 Y0.133 Z-4.767
G1 X1.228 Y0.232 Z-4.78
G1 X1.206 Y0.329 Z-4.792
G1 X1.176 Y0.424 Z-4.805
G1 X1.138 Y0.517 Z-4.818
G1 X1.093 Y0.606 Z-4.831
G1 X1.042 Y0.691 Z-4.843
G1 X0.983 Y0.772 Z-4.856
G1 X0.918 Y0.848 Z-4.869
G1 X0.848 Y0.918 Z-4.881
G1 X0.772 Y0.983 Z-4.894
G1 X0.691 Y1.042 Z-4.907
G1 X0.606 Y1.093 Z-4.919
G1 X0.517 Y1.138 Z-4.932
G1 X0.424 Y1.176 Z-4.945
G1 X0.329 Y1.206 Z-4.958
G1 X0.232 Y1.228 Z-4.97
G1 X0.133 Y1.243 Z-4.983
G1 X0.033 Y1.25 Z-4.996
G1 X-0.067 Y1.248 Z-5.008
G1 X-0.166 Y1.239 Z-5.021
G1 X-0.264 Y1.222 Z-5.034
G1 X-0.361 Y1.197 Z-5.047
G1 X-0.455 Y1.164 Z-5.059
G1 X-0.547 Y1.124 Z-5.072
G1 X-0.635 Y1.077 Z-5.085
G1 X-0.718 Y1.023 Z-5.097
G1 X-0.798 Y0.962 Z-5.11
G1 X-0.872 Y0.896 Z-5.123
G1 X-0.941 Y0.823 Z-5.136
G1 X-1.003 Y0.745 Z-5.148
G1 X-1.06 Y0.663 Z-5.161
G1 X-1.109 Y0.576 Z-5.174
G1 X-1.152 Y0.486 Z-5.186
G1 X-1.187 Y0.393 Z-5.199
G1 X-1.214 Y0.297 Z-5.212
G1 X-1.234 Y0.199 Z-5.225
G1 X-1.246 Y0.1 Z-5.237
G1 X-1.25 Y0 Z-5.25
G1 X-1.246 Y-0.1 Z-5.263
G1 X-1.234 Y-0.199 Z-5.275
G1 X-1.214 Y-0.297 Z-5.288
G1 X-1.187 Y-0.393 Z-5.301
G1 X-1.152 Y-0.486 Z-5.314
G1 X-1.109 Y-0.576 Z-5.326
G1 X-1.06 Y-0.663 Z-5.339
G1 X-1.003 Y-0.745 Z-5.352
G1 X-0.941 Y-0.823 Z-5.364
G1 X-0.872 Y-0.896 Z-5.377
G1 X-0.798 Y-0.962 Z-5.39
G1 X-0.718 Y-1.023 Z-5.403
G1 X-0.635 Y-1.077 Z-5.415
G1 X-0.547 Y-1.124 Z-5.428
G1 X-0.455 Y-1.164 Z-5.441
G1 X-0.361 Y-1.197 Z-5.453
G1 X-0.264 Y-1.222 Z-5.466
G1 X-0.166 Y-1.239 Z-5.479
G1 X-0.067 Y-1.248 Z-5.492
G1 X0.033 Y-1.25 Z-5.504
G1 X0.133 Y-1.243 Z-5.517
G1 X0.232 Y-1.228 Z-5.53
G1 X0.329 Y-1.206 Z-5.542
G1 X0.424 Y-1.176 Z-5.555
G1 X0.517 Y-1.138 Z-5.568
G1 X0.606 Y-1.093 Z-5.581
G1 X0.691 Y-1.042 Z-5.593
G1 X0.772 Y-0.983 Z-5.606
G1 X0.848 Y-0.918 Z-5.619
G1 X0.918 Y-0.848 Z-5.631
G1 X0.983 Y-0.772 Z-5.644
G1 X1.042 Y-0.691 Z-5.657
G1 X1.093 Y-0.606 Z-5.669
G1 X1.138 Y-0.517 Z-5.682
G1 X1.176 Y-0.424 Z-5.695
G1 X1.206 Y-0.329 Z-5.708
G1 X1.228 Y-0.232 Z-5.72
G1 X1.243 Y-0.133 Z-5.733
G1 X1.25 Y-0.033 Z-5.746
G1 X1.248 Y0.067 Z-5.758
G1 X1.239 Y0.166 Z-5.771
G1 X1.222 Y0.264 Z-5.784
G1 X1.197 Y0.361 Z-5.797
G1 X1.164 Y0.455 Z-5.809
G1 X1.124 Y0.547 Z-5.822
G1 X1.077 Y0.635 Z-5.835
G1 X1.023 Y0.718 Z-5.847
G1 X0.962 Y0.798 Z-5.86
G1 X0.896 Y0.872 Z-5.873
G1 X0.823 Y0.941 Z-5.886
G1 X0.745 Y1.003 Z-5.898
G1 X0.663 Y1.06 Z-5.911
G1 X0.576 Y1.109 Z-5.924
G1 X0.486 Y1.152 Z-5.936
G1 X0.393 Y1.187 Z-5.949
G1 X0.297 Y1.214 Z-5.962
G1 X0.199 Y1.234 Z-5.975
G1 X0.1 Y1.246 Z-5.987
G1 X0 Y1.25 Z-6
G3 Y-1.25 J-1.25
G3 Y1.25 J1.25
G3 X-0.5 Y0.75 J-0.5
G1 Y0.5
G1 Y0.44 Z-5.996
G1 Y0.38 Z-5.985
G1 Y0.323 Z-5.968
G1 Y0.268 Z-5.943
G1 Y0.216 Z-5.911
G1 Y0.168 Z-5.874
G1 Y0.126 Z-5.832
G1 Y0.089 Z-5.784
G1 Y0.057 Z-5.732
G1 Y0.032 Z-5.677
G1 Y0.015 Z-5.62
G1 Y0.004 Z-5.56
G1 Y0 Z-5.5
G1 Z15 F300

;2D Contour1 - Milling - Tool: 1 - flat end mill
;X Min: -12 - X Max: 10.5
;Y Min: -10.5 - Y Max: 12
;Z Min: -6 - Z Max: 15
M400
M117 2D Contour1
G1 Z15 F300
G1 X-12 Y-0.5 F2500
G1 Z5 F300
G1 Z2 F30
G1 Z-0.5
G1 X-11.996 Z-0.56
G1 X-11.985 Z-0.62
G1 X-11.968 Z-0.677
G1 X-11.943 Z-0.732
G1 X-11.911 Z-0.784
G1 X-11.874 Z-0.832
G1 X-11.832 Z-0.874
G1 X-11.784 Z-0.911
G1 X-11.732 Z-0.943
G1 X-11.677 Z-0.968
G1 X-11.62 Z-0.985
G1 X-11.56 Z-0.996
G1 X-11.5 Z-1
G1 X-11 F213
G3 X-10.5 Y0 J0.5
G2 X10.5 I10.5 F300
G2 X-10.5 I-10.5
G3 X-11 Y0.5 I-0.5 F213
G1 X-11.5
G1 X-11.56 Z-0.996
G1 X-11.62 Z-0.985
G1 X-11.677 Z-0.968
G1 X-11.732 Z-0.943
G1 X-11.784 Z-0.911
G1 X-11.832 Z-0.874
G1 X-11.874 Z-0.832
G1 X-11.911 Z-0.784
G1 X-11.943 Z-0.732
G1 X-11.968 Z-0.677
G1 X-11.985 Z-0.62
G1 X-11.996 Z-0.56
G1 X-12 Z-0.5
G1 Z5 F300
G1 X-0.5 Y12 F2500
G1 Z1 F30
G1 Z-1.5
G1 Y11.996 Z-1.56
G1 Y11.985 Z-1.62
G1 Y11.968 Z-1.677
G1 Y11.943 Z-1.732
G1 Y11.911 Z-1.784
G1 Y11.874 Z-1.832
G1 Y11.832 Z-1.874
G1 Y11.784 Z-1.911
G1 Y11.732 Z-1.943
G1 Y11.677 Z-1.968
G1 Y11.62 Z-1.985
G1 Y11.56 Z-1.996
G1 Y11.5 Z-2
G1 Y11 F213
G3 X0 Y10.5 I0.5
G2 Y-10.5 J-10.5 F300
G2 Y10.5 J10.5
G3 X0.5 Y11 J0.5 F213
G1 Y11.5
G1 Y11.56 Z-1.996
G1 Y11.62 Z-1.985
G1 Y11.677 Z-1.968
G1 Y11.732 Z-1.943
G1 Y11.784 Z-1.911
G1 Y11.832 Z-1.874
G1 Y11.874 Z-1.832
G1 Y11.911 Z-1.784
G1 Y11.943 Z-1.732
G1 Y11.968 Z-1.677
G1 Y11.985 Z-1.62
G1 Y11.996 Z-1.56
G1 Y12 Z-1.5
G1 Z5 F300
G1 X-0.5 F2500
G1 Z0 F30
G1 Z-2.5
G1 Y11.996 Z-2.56
G1 Y11.985 Z-2.62
G1 Y11.968 Z-2.677
G1 Y11.943 Z-2.732
G1 Y11.911 Z-2.784
G1 Y11.874 Z-2.832
G1 Y11.832 Z-2.874
G1 Y11.784 Z-2.911
G1 Y11.732 Z-2.943
G1 Y11.677 Z-2.968
G1 Y11.62 Z-2.985
G1 Y11.56 Z-2.996
G1 Y11.5 Z-3
G1 Y11 F213
G3 X0 Y10.5 I0.5
G2 Y-10.5 J-10.5 F300
G2 Y10.5 J10.5
G3 X0.5 Y11 J0.5 F213
G1 Y11.5
G1 Y11.56 Z-2.996
G1 Y11.62 Z-2.985
G1 Y11.677 Z-2.968
G1 Y11.732 Z-2.943
G1 Y11.784 Z-2.911
G1 Y11.832 Z-2.874
G1 Y11.874 Z-2.832
G1 Y11.911 Z-2.784
G1 Y11.943 Z-2.732
G1 Y11.968 Z-2.677
G1 Y11.985 Z-2.62
G1 Y11.996 Z-2.56
G1 Y12 Z-2.5
G1 Z5 F300
G1 X-0.5 F2500
G1 Z-1 F30
G1 Z-3.5
G1 Y11.996 Z-3.56
G1 Y11.985 Z-3.62
G1 Y11.968 Z-3.677
G1 Y11.943 Z-3.732
G1 Y11.911 Z-3.784
G1 Y11.874 Z-3.832
G1 Y11.832 Z-3.874
G1 Y11.784 Z-3.911
G1 Y11.732 Z-3.943
G1 Y11.677 Z-3.968
G1 Y11.62 Z-3.985
G1 Y11.56 Z-3.996
G1 Y11.5 Z-4
G1 Y11 F213
G3 X0 Y10.5 I0.5
G2 Y-10.5 J-10.5 F300
G2 Y10.5 J10.5
G3 X0.5 Y11 J0.5 F213
G1 Y11.5
G1 Y11.56 Z-3.996
G1 Y11.62 Z-3.985
G1 Y11.677 Z-3.968
G1 Y11.732 Z-3.943
G1 Y11.784 Z-3.911
G1 Y11.832 Z-3.874
G1 Y11.874 Z-3.832
G1 Y11.911 Z-3.784
G1 Y11.943 Z-3.732
G1 Y11.968 Z-3.677
G1 Y11.985 Z-3.62
G1 Y11.996 Z-3.56
G1 Y12 Z-3.5
G1 Z5 F300
G1 X-0.5 F2500
G1 Z-2 F30
G1 Z-4.5
G1 Y11.997 Z-4.552
G1 Y11.989 Z-4.604
G1 Y11.976 Z-4.655
G1 Y11.957 Z-4.703
G1 Y11.933 Z-4.75
G1 Y11.5
G1 Y11 F213
G3 X0 Y10.5 I0.5
G2 X5 Y9.233 J-10.5 F300
G1 Z-5 F30
G2 X10.496 Y-0.286 I-5 J-9.233 F300
G1 Z-4.75
G2 X5.496 Y-8.947 I-10.496 J0.286
G1 Z-5 F30
G2 X-5.496 I-5.496 J8.947 F300
G1 Z-4.75
G2 X-10.496 Y-0.286 I5.496 J8.947
G1 Z-5 F30
G2 X-5 Y9.233 I10.496 J0.286 F300
G1 Z-4.75
G2 X0 Y10.5 I5 J-9.233
G3 X0.5 Y11 J0.5 F213
G1 Y11.5
G1 Y11.933 F30
G1 Y11.957 Z-4.703 F213
G1 Y11.976 Z-4.655
G1 Y11.989 Z-4.604
G1 Y11.997 Z-4.552
G1 Y12 Z-4.5
G1 Z5 F300
G1 X-0.5 F2500
G1 Z-3 F30
G1 Z-4.75
G1 Y11.5
G1 Y11 F213
G3 X0 Y10.5 I0.5
G2 X5 Y9.233 J-10.5 F300
G1 Z-6 F30
G2 X10.496 Y-0.286 I-5 J-9.233 F300
G1 Z-4.75
G2 X5.496 Y-8.947 I-10.496 J0.286
G1 Z-6 F30
G2 X-5.496 I-5.496 J8.947 F300
G1 Z-4.75
G2 X-10.496 Y-0.286 I5.496 J8.947
G1 Z-6 F30
G2 X-5 Y9.233 I10.496 J0.286 F300
G1 Z-4.75
G2 X0 Y10.5 I5 J-9.233
G3 X0.5 Y11 J0.5 F213
G1 Y12
G1 Z15 F300

M400
M117 Job end
G1 X0 Y0 F2500
G1 Z0 F300
