;Fusion 360 CAM 2.0.6263
;Posts processor: MPCNC_Mill_Laser.cps
;Gcode generated: Thursday, September 12, 2019 5:10:21 PM GMT
;Document: Buje ciguenal v1
;Setup: Setup1

G90
G21
M84 S0
G92 X0 Y0 Z0

;Probe tool - Not yet implemented

;Bore1 - Milling - Tool: 1 - flat end mill
;X Min: -0.6 - X Max: 0.6
;Y Min: -0.599 - Y Max: 0.6
;Z Min: -6 - Z Max: 15
M400
M117 Bore1
G1 Z15 F300
G1 X0.3 Y-0.45 F2500
G1 Z2 F300
G1 Z0.5 F213
G1 Y-0.446 Z0.44
G1 Y-0.435 Z0.38
G1 Y-0.418 Z0.323
G1 Y-0.393 Z0.268
G1 Y-0.361 Z0.216
G1 Y-0.324 Z0.168
G1 Y-0.282 Z0.126
G1 Y-0.234 Z0.089
G1 Y-0.182 Z0.057
G1 Y-0.127 Z0.032
G1 Y-0.07 Z0.015
G1 Y-0.01 Z0.004
G1 Y0.05 Z0
G1 Y0.3
G3 X0 Y0.6 I-0.3
G1 X-0.069 Y0.596 Z-0.009
G1 X-0.137 Y0.584 Z-0.018
G1 X-0.204 Y0.564 Z-0.028
G1 X-0.267 Y0.537 Z-0.037
G1 X-0.327 Y0.503 Z-0.046
G1 X-0.383 Y0.462 Z-0.055
G1 X-0.434 Y0.414 Z-0.064
G1 X-0.479 Y0.362 Z-0.074
G1 X-0.517 Y0.304 Z-0.083
G1 X-0.549 Y0.243 Z-0.092
G1 X-0.573 Y0.178 Z-0.101
G1 X-0.59 Y0.111 Z-0.11
G1 X-0.599 Y0.042 Z-0.119
G1 Y-0.027 Z-0.129
G1 X-0.592 Y-0.096 Z-0.138
G1 X-0.577 Y-0.164 Z-0.147
G1 X-0.554 Y-0.229 Z-0.156
G1 X-0.524 Y-0.292 Z-0.165
G1 X-0.487 Y-0.35 Z-0.175
G1 X-0.444 Y-0.404 Z-0.184
G1 X-0.394 Y-0.452 Z-0.193
G1 X-0.339 Y-0.495 Z-0.202
G1 X-0.28 Y-0.531 Z-0.211
G1 X-0.217 Y-0.559 Z-0.221
G1 X-0.151 Y-0.581 Z-0.23
G1 X-0.083 Y-0.594 Z-0.239
G1 X-0.014 Y-0.6 Z-0.248
G1 X0.055 Y-0.597 Z-0.257
G1 X0.123 Y-0.587 Z-0.266
G1 X0.19 Y-0.569 Z-0.276
G1 X0.254 Y-0.543 Z-0.285
G1 X0.315 Y-0.51 Z-0.294
G1 X0.372 Y-0.471 Z-0.303
G1 X0.424 Y-0.425 Z-0.312
G1 X0.47 Y-0.373 Z-0.322
G1 X0.51 Y-0.317 Z-0.331
G1 X0.543 Y-0.256 Z-0.34
G1 X0.569 Y-0.191 Z-0.349
G1 X0.587 Y-0.125 Z-0.358
G1 X0.597 Y-0.056 Z-0.368
G1 X0.6 Y0.013 Z-0.377
G1 X0.594 Y0.082 Z-0.386
G1 X0.581 Y0.15 Z-0.395
G1 X0.56 Y0.216 Z-0.404
G1 X0.531 Y0.279 Z-0.413
G1 X0.496 Y0.338 Z-0.423
G1 X0.453 Y0.393 Z-0.432
G1 X0.405 Y0.443 Z-0.441
G1 X0.351 Y0.486 Z-0.45
G1 X0.293 Y0.524 Z-0.459
G1 X0.231 Y0.554 Z-0.469
G1 X0.165 Y0.577 Z-0.478
G1 X0.098 Y0.592 Z-0.487
G1 X0.029 Y0.599 Z-0.496
G1 X-0.04 Z-0.505
G1 X-0.109 Y0.59 Z-0.515
G1 X-0.176 Y0.574 Z-0.524
G1 X-0.241 Y0.549 Z-0.533
G1 X-0.303 Y0.518 Z-0.542
G1 X-0.361 Y0.48 Z-0.551
G1 X-0.413 Y0.435 Z-0.56
G1 X-0.461 Y0.384 Z-0.57
G1 X-0.502 Y0.329 Z-0.579
G1 X-0.536 Y0.269 Z-0.588
G1 X-0.564 Y0.205 Z-0.597
G1 X-0.584 Y0.139 Z-0.606
G1 X-0.596 Y0.071 Z-0.616
G1 X-0.6 Y0.001 Z-0.625
G1 X-0.596 Y-0.068 Z-0.634
G1 X-0.584 Y-0.136 Z-0.643
G1 X-0.565 Y-0.202 Z-0.652
G1 X-0.538 Y-0.266 Z-0.662
G1 X-0.504 Y-0.326 Z-0.671
G1 X-0.463 Y-0.382 Z-0.68
G1 X-0.416 Y-0.433 Z-0.689
G1 X-0.363 Y-0.478 Z-0.698
G1 X-0.305 Y-0.516 Z-0.708
G1 X-0.244 Y-0.548 Z-0.717
G1 X-0.179 Y-0.573 Z-0.726
G1 X-0.112 Y-0.589 Z-0.735
G1 X-0.043 Y-0.598 Z-0.744
G1 X0.026 Y-0.599 Z-0.753
G1 X0.095 Y-0.592 Z-0.763
G1 X0.162 Y-0.578 Z-0.772
G1 X0.228 Y-0.555 Z-0.781
G1 X0.29 Y-0.525 Z-0.79
G1 X0.349 Y-0.488 Z-0.799
G1 X0.403 Y-0.445 Z-0.809
G1 X0.451 Y-0.395 Z-0.818
G1 X0.494 Y-0.341 Z-0.827
G1 X0.53 Y-0.281 Z-0.836
G1 X0.559 Y-0.219 Z-0.845
G1 X0.58 Y-0.153 Z-0.855
G1 X0.594 Y-0.085 Z-0.864
G1 X0.6 Y-0.016 Z-0.873
G1 X0.598 Y0.053 Z-0.882
G1 X0.588 Y0.122 Z-0.891
G1 X0.57 Y0.189 Z-0.9
G1 X0.544 Y0.253 Z-0.91
G1 X0.511 Y0.314 Z-0.919
G1 X0.472 Y0.371 Z-0.928
G1 X0.426 Y0.423 Z-0.937
G1 X0.374 Y0.469 Z-0.946
G1 X0.318 Y0.509 Z-0.956
G1 X0.257 Y0.542 Z-0.965
G1 X0.193 Y0.568 Z-0.974
G1 X0.126 Y0.587 Z-0.983
G1 X0.058 Y0.597 Z-0.992
G1 X-0.012 Y0.6 Z-1.002
G1 X-0.081 Y0.595 Z-1.011
G1 X-0.149 Y0.581 Z-1.02
G1 X-0.215 Y0.56 Z-1.029
G1 X-0.278 Y0.532 Z-1.038
G1 X-0.337 Y0.496 Z-1.047
G1 X-0.392 Y0.454 Z-1.057
G1 X-0.442 Y0.406 Z-1.066
G1 X-0.486 Y0.352 Z-1.075
G1 X-0.523 Y0.294 Z-1.084
G1 X-0.553 Y0.232 Z-1.093
G1 X-0.576 Y0.167 Z-1.103
G1 X-0.592 Y0.099 Z-1.112
G1 X-0.599 Y0.03 Z-1.121
G1 Y-0.039 Z-1.13
G1 X-0.59 Y-0.108 Z-1.139
G1 X-0.574 Y-0.175 Z-1.149
G1 X-0.55 Y-0.24 Z-1.158
G1 X-0.519 Y-0.302 Z-1.167
G1 X-0.48 Y-0.359 Z-1.176
G1 X-0.436 Y-0.412 Z-1.185
G1 X-0.385 Y-0.46 Z-1.194
G1 X-0.33 Y-0.501 Z-1.204
G1 X-0.27 Y-0.536 Z-1.213
G1 X-0.206 Y-0.563 Z-1.222
G1 X-0.14 Y-0.583 Z-1.231
G1 X-0.072 Y-0.596 Z-1.24
G1 X-0.003 Y-0.6 Z-1.25
G1 X0.066 Y-0.596 Z-1.259
G1 X0.135 Y-0.585 Z-1.268
G1 X0.201 Y-0.565 Z-1.277
G1 X0.265 Y-0.538 Z-1.286
G1 X0.325 Y-0.504 Z-1.296
G1 X0.381 Y-0.464 Z-1.305
G1 X0.432 Y-0.417 Z-1.314
G1 X0.477 Y-0.364 Z-1.323
G1 X0.516 Y-0.307 Z-1.332
G1 X0.548 Y-0.245 Z-1.342
G1 X0.572 Y-0.18 Z-1.351
G1 X0.589 Y-0.113 Z-1.36
G1 X0.598 Y-0.045 Z-1.369
G1 X0.599 Y0.025 Z-1.378
G1 X0.593 Y0.093 Z-1.387
G1 X0.578 Y0.161 Z-1.397
G1 X0.556 Y0.227 Z-1.406
G1 X0.526 Y0.289 Z-1.415
G1 X0.489 Y0.348 Z-1.424
G1 X0.446 Y0.402 Z-1.433
G1 X0.396 Y0.45 Z-1.443
G1 X0.342 Y0.493 Z-1.452
G1 X0.283 Y0.529 Z-1.461
G1 X0.22 Y0.558 Z-1.47
G1 X0.154 Y0.58 Z-1.479
G1 X0.086 Y0.594 Z-1.489
G1 X0.017 Y0.6 Z-1.498
G1 X-0.052 Y0.598 Z-1.507
G1 X-0.12 Y0.588 Z-1.516
G1 X-0.187 Y0.57 Z-1.525
G1 X-0.252 Y0.545 Z-1.534
G1 X-0.313 Y0.512 Z-1.544
G1 X-0.37 Y0.473 Z-1.553
G1 X-0.422 Y0.427 Z-1.562
G1 X-0.468 Y0.375 Z-1.571
G1 X-0.508 Y0.319 Z-1.58
G1 X-0.542 Y0.258 Z-1.59
G1 X-0.568 Y0.194 Z-1.599
G1 X-0.586 Y0.127 Z-1.608
G1 X-0.597 Y0.059 Z-1.617
G1 X-0.6 Y-0.01 Z-1.626
G1 X-0.595 Y-0.079 Z-1.636
G1 X-0.582 Y-0.147 Z-1.645
G1 X-0.561 Y-0.213 Z-1.654
G1 X-0.533 Y-0.276 Z-1.663
G1 X-0.497 Y-0.336 Z-1.672
G1 X-0.455 Y-0.391 Z-1.681
G1 X-0.407 Y-0.441 Z-1.691
G1 X-0.354 Y-0.485 Z-1.7
G1 X-0.295 Y-0.522 Z-1.709
G1 X-0.233 Y-0.553 Z-1.718
G1 X-0.168 Y-0.576 Z-1.727
G1 X-0.101 Y-0.592 Z-1.737
G1 X-0.032 Y-0.599 Z-1.746
G1 X0.038 Z-1.755
G1 X0.106 Y-0.591 Z-1.764
G1 X0.174 Y-0.574 Z-1.773
G1 X0.239 Y-0.551 Z-1.783
G1 X0.3 Y-0.519 Z-1.792
G1 X0.358 Y-0.481 Z-1.801
G1 X0.411 Y-0.437 Z-1.81
G1 X0.459 Y-0.387 Z-1.819
G1 X0.5 Y-0.331 Z-1.828
G1 X0.535 Y-0.271 Z-1.838
G1 X0.563 Y-0.208 Z-1.847
G1 X0.583 Y-0.142 Z-1.856
G1 X0.595 Y-0.073 Z-1.865
G1 X0.6 Y-0.004 Z-1.874
G1 X0.596 Y0.065 Z-1.884
G1 X0.585 Y0.133 Z-1.893
G1 X0.566 Y0.2 Z-1.902
G1 X0.539 Y0.263 Z-1.911
G1 X0.505 Y0.324 Z-1.92
G1 X0.464 Y0.38 Z-1.93
G1 X0.418 Y0.431 Z-1.939
G1 X0.365 Y0.476 Z-1.948
G1 X0.308 Y0.515 Z-1.957
G1 X0.247 Y0.547 Z-1.966
G1 X0.182 Y0.572 Z-1.975
G1 X0.115 Y0.589 Z-1.985
G1 X0.046 Y0.598 Z-1.994
G1 X-0.023 Y0.6 Z-2.003
G1 X-0.092 Y0.593 Z-2.012
G1 X-0.16 Y0.578 Z-2.021
G1 X-0.225 Y0.556 Z-2.031
G1 X-0.288 Y0.526 Z-2.04
G1 X-0.347 Y0.49 Z-2.049
G1 X-0.401 Y0.447 Z-2.058
G1 X-0.449 Y0.397 Z-2.067
G1 X-0.492 Y0.343 Z-2.077
G1 X-0.529 Y0.284 Z-2.086
G1 X-0.558 Y0.221 Z-2.095
G1 X-0.579 Y0.156 Z-2.104
G1 X-0.594 Y0.088 Z-2.113
G1 X-0.6 Y0.019 Z-2.123
G1 X-0.598 Y-0.05 Z-2.132
G1 X-0.588 Y-0.119 Z-2.141
G1 X-0.57 Y-0.186 Z-2.15
G1 X-0.545 Y-0.25 Z-2.159
G1 X-0.513 Y-0.312 Z-2.168
G1 X-0.473 Y-0.369 Z-2.178
G1 X-0.428 Y-0.421 Z-2.187
G1 X-0.377 Y-0.467 Z-2.196
G1 X-0.32 Y-0.507 Z-2.205
G1 X-0.26 Y-0.541 Z-2.214
G1 X-0.196 Y-0.567 Z-2.224
G1 X-0.129 Y-0.586 Z-2.233
G1 X-0.061 Y-0.597 Z-2.242
G1 X0.009 Y-0.6 Z-2.251
G1 X0.078 Y-0.595 Z-2.26
G1 X0.146 Y-0.582 Z-2.27
G1 X0.212 Y-0.561 Z-2.279
G1 X0.275 Y-0.533 Z-2.288
G1 X0.335 Y-0.498 Z-2.297
G1 X0.39 Y-0.456 Z-2.306
G1 X0.44 Y-0.408 Z-2.315
G1 X0.484 Y-0.355 Z-2.325
G1 X0.522 Y-0.297 Z-2.334
G1 X0.552 Y-0.235 Z-2.343
G1 X0.576 Y-0.169 Z-2.352
G1 X0.591 Y-0.102 Z-2.361
G1 X0.599 Y-0.033 Z-2.371
G1 Y0.036 Z-2.38
G1 X0.591 Y0.105 Z-2.389
G1 X0.575 Y0.172 Z-2.398
G1 X0.551 Y0.237 Z-2.407
G1 X0.52 Y0.299 Z-2.417
G1 X0.482 Y0.357 Z-2.426
G1 X0.438 Y0.41 Z-2.435
G1 X0.388 Y0.458 Z-2.444
G1 X0.332 Y0.5 Z-2.453
G1 X0.273 Y0.535 Z-2.462
G1 X0.209 Y0.562 Z-2.472
G1 X0.143 Y0.583 Z-2.481
G1 X0.075 Y0.595 Z-2.49
G1 X0.006 Y0.6 Z-2.499
G1 X-0.063 Y0.597 Z-2.508
G1 X-0.132 Y0.585 Z-2.518
G1 X-0.198 Y0.566 Z-2.527
G1 X-0.262 Y0.54 Z-2.536
G1 X-0.323 Y0.506 Z-2.545
G1 X-0.379 Y0.465 Z-2.554
G1 X-0.43 Y0.419 Z-2.564
G1 X-0.475 Y0.366 Z-2.573
G1 X-0.514 Y0.309 Z-2.582
G1 X-0.546 Y0.248 Z-2.591
G1 X-0.571 Y0.183 Z-2.6
G1 X-0.589 Y0.116 Z-2.609
G1 X-0.598 Y0.048 Z-2.619
G1 X-0.6 Y-0.022 Z-2.628
G1 X-0.593 Y-0.091 Z-2.637
G1 X-0.579 Y-0.158 Z-2.646
G1 X-0.557 Y-0.224 Z-2.655
G1 X-0.527 Y-0.287 Z-2.665
G1 X-0.491 Y-0.345 Z-2.674
G1 X-0.448 Y-0.4 Z-2.683
G1 X-0.399 Y-0.449 Z-2.692
G1 X-0.344 Y-0.491 Z-2.701
G1 X-0.285 Y-0.528 Z-2.711
G1 X-0.223 Y-0.557 Z-2.72
G1 X-0.157 Y-0.579 Z-2.729
G1 X-0.089 Y-0.593 Z-2.738
G1 X-0.02 Y-0.6 Z-2.747
G1 X0.049 Y-0.598 Z-2.757
G1 X0.118 Y-0.588 Z-2.766
G1 X0.185 Y-0.571 Z-2.775
G1 X0.249 Y-0.546 Z-2.784
G1 X0.31 Y-0.513 Z-2.793
G1 X0.367 Y-0.474 Z-2.802
G1 X0.42 Y-0.429 Z-2.812
G1 X0.466 Y-0.378 Z-2.821
G1 X0.507 Y-0.321 Z-2.83
G1 X0.54 Y-0.261 Z-2.839
G1 X0.567 Y-0.197 Z-2.848
G1 X0.586 Y-0.13 Z-2.858
G1 X0.597 Y-0.062 Z-2.867
G1 X0.6 Y0.007 Z-2.876
G1 X0.595 Y0.076 Z-2.885
G1 X0.582 Y0.144 Z-2.894
G1 X0.562 Y0.21 Z-2.904
G1 X0.534 Y0.274 Z-2.913
G1 X0.499 Y0.333 Z-2.922
G1 X0.457 Y0.389 Z-2.931
G1 X0.409 Y0.439 Z-2.94
G1 X0.356 Y0.483 Z-2.949
G1 X0.298 Y0.521 Z-2.959
G1 X0.236 Y0.552 Z-2.968
G1 X0.171 Y0.575 Z-2.977
G1 X0.103 Y0.591 Z-2.986
G1 X0.035 Y0.599 Z-2.995
G1 X-0.035 Z-3.005
G1 X-0.103 Y0.591 Z-3.014
G1 X-0.171 Y0.575 Z-3.023
G1 X-0.236 Y0.552 Z-3.032
G1 X-0.298 Y0.521 Z-3.041
G1 X-0.356 Y0.483 Z-3.051
G1 X-0.409 Y0.439 Z-3.06
G1 X-0.457 Y0.389 Z-3.069
G1 X-0.499 Y0.333 Z-3.078
G1 X-0.534 Y0.274 Z-3.087
G1 X-0.562 Y0.21 Z-3.096
G1 X-0.582 Y0.144 Z-3.106
G1 X-0.595 Y0.076 Z-3.115
G1 X-0.6 Y0.007 Z-3.124
G1 X-0.597 Y-0.062 Z-3.133
G1 X-0.586 Y-0.13 Z-3.142
G1 X-0.567 Y-0.197 Z-3.152
G1 X-0.54 Y-0.261 Z-3.161
G1 X-0.507 Y-0.321 Z-3.17
G1 X-0.466 Y-0.378 Z-3.179
G1 X-0.42 Y-0.429 Z-3.188
G1 X-0.367 Y-0.474 Z-3.198
G1 X-0.31 Y-0.513 Z-3.207
G1 X-0.249 Y-0.546 Z-3.216
G1 X-0.185 Y-0.571 Z-3.225
G1 X-0.118 Y-0.588 Z-3.234
G1 X-0.049 Y-0.598 Z-3.243
G1 X0.02 Y-0.6 Z-3.253
G1 X0.089 Y-0.593 Z-3.262
G1 X0.157 Y-0.579 Z-3.271
G1 X0.223 Y-0.557 Z-3.28
G1 X0.285 Y-0.528 Z-3.289
G1 X0.344 Y-0.491 Z-3.299
G1 X0.399 Y-0.449 Z-3.308
G1 X0.448 Y-0.4 Z-3.317
G1 X0.491 Y-0.345 Z-3.326
G1 X0.527 Y-0.287 Z-3.335
G1 X0.557 Y-0.224 Z-3.345
G1 X0.579 Y-0.158 Z-3.354
G1 X0.593 Y-0.091 Z-3.363
G1 X0.6 Y-0.022 Z-3.372
G1 X0.598 Y0.048 Z-3.381
G1 X0.589 Y0.116 Z-3.391
G1 X0.571 Y0.183 Z-3.4
G1 X0.546 Y0.248 Z-3.409
G1 X0.514 Y0.309 Z-3.418
G1 X0.475 Y0.366 Z-3.427
G1 X0.43 Y0.419 Z-3.436
G1 X0.379 Y0.465 Z-3.446
G1 X0.323 Y0.506 Z-3.455
G1 X0.262 Y0.54 Z-3.464
G1 X0.198 Y0.566 Z-3.473
G1 X0.132 Y0.585 Z-3.482
G1 X0.063 Y0.597 Z-3.492
G1 X-0.006 Y0.6 Z-3.501
G1 X-0.075 Y0.595 Z-3.51
G1 X-0.143 Y0.583 Z-3.519
G1 X-0.209 Y0.562 Z-3.528
G1 X-0.273 Y0.535 Z-3.538
G1 X-0.332 Y0.5 Z-3.547
G1 X-0.388 Y0.458 Z-3.556
G1 X-0.438 Y0.41 Z-3.565
G1 X-0.482 Y0.357 Z-3.574
G1 X-0.52 Y0.299 Z-3.583
G1 X-0.551 Y0.237 Z-3.593
G1 X-0.575 Y0.172 Z-3.602
G1 X-0.591 Y0.105 Z-3.611
G1 X-0.599 Y0.036 Z-3.62
G1 Y-0.033 Z-3.629
G1 X-0.591 Y-0.102 Z-3.639
G1 X-0.576 Y-0.169 Z-3.648
G1 X-0.552 Y-0.235 Z-3.657
G1 X-0.522 Y-0.297 Z-3.666
G1 X-0.484 Y-0.355 Z-3.675
G1 X-0.44 Y-0.408 Z-3.685
G1 X-0.39 Y-0.456 Z-3.694
G1 X-0.335 Y-0.498 Z-3.703
G1 X-0.275 Y-0.533 Z-3.712
G1 X-0.212 Y-0.561 Z-3.721
G1 X-0.146 Y-0.582 Z-3.73
G1 X-0.078 Y-0.595 Z-3.74
G1 X-0.009 Y-0.6 Z-3.749
G1 X0.061 Y-0.597 Z-3.758
G1 X0.129 Y-0.586 Z-3.767
G1 X0.196 Y-0.567 Z-3.776
G1 X0.26 Y-0.541 Z-3.786
G1 X0.32 Y-0.507 Z-3.795
G1 X0.377 Y-0.467 Z-3.804
G1 X0.428 Y-0.421 Z-3.813
G1 X0.473 Y-0.369 Z-3.822
G1 X0.513 Y-0.312 Z-3.832
G1 X0.545 Y-0.25 Z-3.841
G1 X0.57 Y-0.186 Z-3.85
G1 X0.588 Y-0.119 Z-3.859
G1 X0.598 Y-0.05 Z-3.868
G1 X0.6 Y0.019 Z-3.877
G1 X0.594 Y0.088 Z-3.887
G1 X0.579 Y0.156 Z-3.896
G1 X0.558 Y0.221 Z-3.905
G1 X0.529 Y0.284 Z-3.914
G1 X0.492 Y0.343 Z-3.923
G1 X0.449 Y0.397 Z-3.933
G1 X0.401 Y0.447 Z-3.942
G1 X0.347 Y0.49 Z-3.951
G1 X0.288 Y0.526 Z-3.96
G1 X0.225 Y0.556 Z-3.969
G1 X0.16 Y0.578 Z-3.979
G1 X0.092 Y0.593 Z-3.988
G1 X0.023 Y0.6 Z-3.997
G1 X-0.046 Y0.598 Z-4.006
G1 X-0.115 Y0.589 Z-4.015
G1 X-0.182 Y0.572 Z-4.025
G1 X-0.247 Y0.547 Z-4.034
G1 X-0.308 Y0.515 Z-4.043
G1 X-0.365 Y0.476 Z-4.052
G1 X-0.418 Y0.431 Z-4.061
G1 X-0.464 Y0.38 Z-4.07
G1 X-0.505 Y0.324 Z-4.08
G1 X-0.539 Y0.263 Z-4.089
G1 X-0.566 Y0.2 Z-4.098
G1 X-0.585 Y0.133 Z-4.107
G1 X-0.596 Y0.065 Z-4.116
G1 X-0.6 Y-0.004 Z-4.126
G1 X-0.595 Y-0.073 Z-4.135
G1 X-0.583 Y-0.142 Z-4.144
G1 X-0.563 Y-0.208 Z-4.153
G1 X-0.535 Y-0.271 Z-4.162
G1 X-0.5 Y-0.331 Z-4.172
G1 X-0.459 Y-0.387 Z-4.181
G1 X-0.411 Y-0.437 Z-4.19
G1 X-0.358 Y-0.481 Z-4.199
G1 X-0.3 Y-0.519 Z-4.208
G1 X-0.239 Y-0.551 Z-4.217
G1 X-0.174 Y-0.574 Z-4.227
G1 X-0.106 Y-0.591 Z-4.236
G1 X-0.038 Y-0.599 Z-4.245
G1 X0.032 Z-4.254
G1 X0.101 Y-0.592 Z-4.263
G1 X0.168 Y-0.576 Z-4.273
G1 X0.233 Y-0.553 Z-4.282
G1 X0.295 Y-0.522 Z-4.291
G1 X0.354 Y-0.485 Z-4.3
G1 X0.407 Y-0.441 Z-4.309
G1 X0.455 Y-0.391 Z-4.319
G1 X0.497 Y-0.336 Z-4.328
G1 X0.533 Y-0.276 Z-4.337
G1 X0.561 Y-0.213 Z-4.346
G1 X0.582 Y-0.147 Z-4.355
G1 X0.595 Y-0.079 Z-4.364
G1 X0.6 Y-0.01 Z-4.374
G1 X0.597 Y0.059 Z-4.383
G1 X0.586 Y0.127 Z-4.392
G1 X0.568 Y0.194 Z-4.401
G1 X0.542 Y0.258 Z-4.41
G1 X0.508 Y0.319 Z-4.42
G1 X0.468 Y0.375 Z-4.429
G1 X0.422 Y0.427 Z-4.438
G1 X0.37 Y0.473 Z-4.447
G1 X0.313 Y0.512 Z-4.456
G1 X0.252 Y0.545 Z-4.466
G1 X0.187 Y0.57 Z-4.475
G1 X0.12 Y0.588 Z-4.484
G1 X0.052 Y0.598 Z-4.493
G1 X-0.017 Y0.6 Z-4.502
G1 X-0.086 Y0.594 Z-4.511
G1 X-0.154 Y0.58 Z-4.521
G1 X-0.22 Y0.558 Z-4.53
G1 X-0.283 Y0.529 Z-4.539
G1 X-0.342 Y0.493 Z-4.548
G1 X-0.396 Y0.45 Z-4.557
G1 X-0.446 Y0.402 Z-4.567
G1 X-0.489 Y0.348 Z-4.576
G1 X-0.526 Y0.289 Z-4.585
G1 X-0.556 Y0.227 Z-4.594
G1 X-0.578 Y0.161 Z-4.603
G1 X-0.593 Y0.093 Z-4.613
G1 X-0.599 Y0.025 Z-4.622
G1 X-0.598 Y-0.045 Z-4.631
G1 X-0.589 Y-0.113 Z-4.64
G1 X-0.572 Y-0.18 Z-4.649
G1 X-0.548 Y-0.245 Z-4.658
G1 X-0.516 Y-0.307 Z-4.668
G1 X-0.477 Y-0.364 Z-4.677
G1 X-0.432 Y-0.417 Z-4.686
G1 X-0.381 Y-0.464 Z-4.695
G1 X-0.325 Y-0.504 Z-4.704
G1 X-0.265 Y-0.538 Z-4.714
G1 X-0.201 Y-0.565 Z-4.723
G1 X-0.135 Y-0.585 Z-4.732
G1 X-0.066 Y-0.596 Z-4.741
G1 X0.003 Y-0.6 Z-4.75
G1 X0.072 Y-0.596 Z-4.76
G1 X0.14 Y-0.583 Z-4.769
G1 X0.206 Y-0.563 Z-4.778
G1 X0.27 Y-0.536 Z-4.787
G1 X0.33 Y-0.501 Z-4.796
G1 X0.385 Y-0.46 Z-4.806
G1 X0.436 Y-0.412 Z-4.815
G1 X0.48 Y-0.359 Z-4.824
G1 X0.519 Y-0.302 Z-4.833
G1 X0.55 Y-0.24 Z-4.842
G1 X0.574 Y-0.175 Z-4.851
G1 X0.59 Y-0.108 Z-4.861
G1 X0.599 Y-0.039 Z-4.87
G1 Y0.03 Z-4.879
G1 X0.592 Y0.099 Z-4.888
G1 X0.576 Y0.167 Z-4.897
G1 X0.553 Y0.232 Z-4.907
G1 X0.523 Y0.294 Z-4.916
G1 X0.486 Y0.352 Z-4.925
G1 X0.442 Y0.406 Z-4.934
G1 X0.392 Y0.454 Z-4.943
G1 X0.337 Y0.496 Z-4.953
G1 X0.278 Y0.532 Z-4.962
G1 X0.215 Y0.56 Z-4.971
G1 X0.149 Y0.581 Z-4.98
G1 X0.081 Y0.595 Z-4.989
G1 X0.012 Y0.6 Z-4.998
G1 X-0.058 Y0.597 Z-5.008
G1 X-0.126 Y0.587 Z-5.017
G1 X-0.193 Y0.568 Z-5.026
G1 X-0.257 Y0.542 Z-5.035
G1 X-0.318 Y0.509 Z-5.044
G1 X-0.374 Y0.469 Z-5.054
G1 X-0.426 Y0.423 Z-5.063
G1 X-0.472 Y0.371 Z-5.072
G1 X-0.511 Y0.314 Z-5.081
G1 X-0.544 Y0.253 Z-5.09
G1 X-0.57 Y0.189 Z-5.1
G1 X-0.588 Y0.122 Z-5.109
G1 X-0.598 Y0.053 Z-5.118
G1 X-0.6 Y-0.016 Z-5.127
G1 X-0.594 Y-0.085 Z-5.136
G1 X-0.58 Y-0.153 Z-5.145
G1 X-0.559 Y-0.219 Z-5.155
G1 X-0.53 Y-0.281 Z-5.164
G1 X-0.494 Y-0.341 Z-5.173
G1 X-0.451 Y-0.395 Z-5.182
G1 X-0.403 Y-0.445 Z-5.191
G1 X-0.349 Y-0.488 Z-5.201
G1 X-0.29 Y-0.525 Z-5.21
G1 X-0.228 Y-0.555 Z-5.219
G1 X-0.162 Y-0.578 Z-5.228
G1 X-0.095 Y-0.592 Z-5.237
G1 X-0.026 Y-0.599 Z-5.247
G1 X0.043 Y-0.598 Z-5.256
G1 X0.112 Y-0.589 Z-5.265
G1 X0.179 Y-0.573 Z-5.274
G1 X0.244 Y-0.548 Z-5.283
G1 X0.305 Y-0.516 Z-5.292
G1 X0.363 Y-0.478 Z-5.302
G1 X0.416 Y-0.433 Z-5.311
G1 X0.463 Y-0.382 Z-5.32
G1 X0.504 Y-0.326 Z-5.329
G1 X0.538 Y-0.266 Z-5.338
G1 X0.565 Y-0.202 Z-5.348
G1 X0.584 Y-0.136 Z-5.357
G1 X0.596 Y-0.068 Z-5.366
G1 X0.6 Y0.001 Z-5.375
G1 X0.596 Y0.071 Z-5.384
G1 X0.584 Y0.139 Z-5.394
G1 X0.564 Y0.205 Z-5.403
G1 X0.536 Y0.269 Z-5.412
G1 X0.502 Y0.329 Z-5.421
G1 X0.461 Y0.384 Z-5.43
G1 X0.413 Y0.435 Z-5.44
G1 X0.361 Y0.48 Z-5.449
G1 X0.303 Y0.518 Z-5.458
G1 X0.241 Y0.549 Z-5.467
G1 X0.176 Y0.574 Z-5.476
G1 X0.109 Y0.59 Z-5.485
G1 X0.04 Y0.599 Z-5.495
G1 X-0.029 Z-5.504
G1 X-0.098 Y0.592 Z-5.513
G1 X-0.165 Y0.577 Z-5.522
G1 X-0.231 Y0.554 Z-5.531
G1 X-0.293 Y0.524 Z-5.541
G1 X-0.351 Y0.486 Z-5.55
G1 X-0.405 Y0.443 Z-5.559
G1 X-0.453 Y0.393 Z-5.568
G1 X-0.496 Y0.338 Z-5.577
G1 X-0.531 Y0.279 Z-5.587
G1 X-0.56 Y0.216 Z-5.596
G1 X-0.581 Y0.15 Z-5.605
G1 X-0.594 Y0.082 Z-5.614
G1 X-0.6 Y0.013 Z-5.623
G1 X-0.597 Y-0.056 Z-5.632
G1 X-0.587 Y-0.125 Z-5.642
G1 X-0.569 Y-0.191 Z-5.651
G1 X-0.543 Y-0.256 Z-5.66
G1 X-0.51 Y-0.317 Z-5.669
G1 X-0.47 Y-0.373 Z-5.678
G1 X-0.424 Y-0.425 Z-5.688
G1 X-0.372 Y-0.471 Z-5.697
G1 X-0.315 Y-0.51 Z-5.706
G1 X-0.254 Y-0.543 Z-5.715
G1 X-0.19 Y-0.569 Z-5.724
G1 X-0.123 Y-0.587 Z-5.734
G1 X-0.055 Y-0.597 Z-5.743
G1 X0.014 Y-0.6 Z-5.752
G1 X0.083 Y-0.594 Z-5.761
G1 X0.151 Y-0.581 Z-5.77
G1 X0.217 Y-0.559 Z-5.779
G1 X0.28 Y-0.531 Z-5.789
G1 X0.339 Y-0.495 Z-5.798
G1 X0.394 Y-0.452 Z-5.807
G1 X0.444 Y-0.404 Z-5.816
G1 X0.487 Y-0.35 Z-5.825
G1 X0.524 Y-0.292 Z-5.835
G1 X0.554 Y-0.229 Z-5.844
G1 X0.577 Y-0.164 Z-5.853
G1 X0.592 Y-0.096 Z-5.862
G1 X0.599 Y-0.027 Z-5.871
G1 Y0.042 Z-5.881
G1 X0.59 Y0.111 Z-5.89
G1 X0.573 Y0.178 Z-5.899
G1 X0.549 Y0.243 Z-5.908
G1 X0.517 Y0.304 Z-5.917
G1 X0.479 Y0.362 Z-5.926
G1 X0.434 Y0.414 Z-5.936
G1 X0.383 Y0.462 Z-5.945
G1 X0.327 Y0.503 Z-5.954
G1 X0.267 Y0.537 Z-5.963
G1 X0.204 Y0.564 Z-5.972
G1 X0.137 Y0.584 Z-5.982
G1 X0.069 Y0.596 Z-5.991
G1 X0 Y0.6 Z-6
G3 Y-0.6 J-0.6
G3 Y0.6 J0.6
G3 X-0.3 Y0.3 J-0.3
G1 Y0.05
G1 Y-0.01 Z-5.996
G1 Y-0.07 Z-5.985
G1 Y-0.127 Z-5.968
G1 Y-0.182 Z-5.943
G1 Y-0.234 Z-5.911
G1 Y-0.282 Z-5.874
G1 Y-0.324 Z-5.832
G1 Y-0.361 Z-5.784
G1 Y-0.393 Z-5.732
G1 Y-0.418 Z-5.677
G1 Y-0.435 Z-5.62
G1 Y-0.446 Z-5.56
G1 Y-0.45 Z-5.5
G1 Z15 F300

;2D Contour1 - Milling - Tool: 1 - flat end mill
;X Min: -1.1 - X Max: 1.1
;Y Min: -1.098 - Y Max: 1.098
;Z Min: -6 - Z Max: 15
M400
M117 2D Contour1
G1 Z15 F300
G1 X-0.4 Y-0.5 F2500
G1 Z5 F300
G1 Z1 F30
G1 Z-5.5
G1 X-0.396 Z-5.56
G1 X-0.385 Z-5.62
G1 X-0.368 Z-5.677
G1 X-0.343 Z-5.732
G1 X-0.311 Z-5.784
G1 X-0.274 Z-5.832
G1 X-0.232 Z-5.874
G1 X-0.184 Z-5.911
G1 X-0.132 Z-5.943
G1 X-0.077 Z-5.968
G1 X-0.02 Z-5.985
G1 X0.04 Z-5.996
G1 X0.1 Z-6
G1 X0.6 F213
G3 X1.1 Y0 J0.5
G3 X-1.1 I-1.1 F600
G3 X1.1 I1.1
G3 X-1.1 I-1.1
G3 X1.1 I1.1
G3 X0.6 Y0.5 I-0.5 F213
G1 X0.1
G1 X0.04 Z-5.996
G1 X-0.02 Z-5.985
G1 X-0.077 Z-5.968
G1 X-0.132 Z-5.943
G1 X-0.184 Z-5.911
G1 X-0.232 Z-5.874
G1 X-0.274 Z-5.832
G1 X-0.311 Z-5.784
G1 X-0.343 Z-5.732
G1 X-0.368 Z-5.677
G1 X-0.385 Z-5.62
G1 X-0.396 Z-5.56
G1 X-0.4 Z-5.5
G1 Z15 F300

;2D Contour3 - Milling - Tool: 1 - flat end mill
;X Min: -12.5 - X Max: 12.5
;Y Min: -12.5 - Y Max: 14
;Z Min: -5.5 - Z Max: 15
M400
M117 2D Contour3
G1 Z15 F300
G1 X-0.5 Y14 F2500
G1 Z5 F300
G1 Z2 F30
G1 Z-0.5
G1 Y13.996 Z-0.56
G1 Y13.985 Z-0.62
G1 Y13.968 Z-0.677
G1 Y13.943 Z-0.732
G1 Y13.911 Z-0.784
G1 Y13.874 Z-0.832
G1 Y13.832 Z-0.874
G1 Y13.784 Z-0.911
G1 Y13.732 Z-0.943
G1 Y13.677 Z-0.968
G1 Y13.62 Z-0.985
G1 Y13.56 Z-0.996
G1 Y13.5 Z-1
G1 Y13 F213
G3 X0 Y12.5 I0.5
G2 Y-12.5 J-12.5 F200
G2 Y12.5 J12.5
G3 X0.5 Y13 J0.5 F213
G1 Y13.5
G1 Y13.56 Z-0.996
G1 Y13.62 Z-0.985
G1 Y13.677 Z-0.968
G1 Y13.732 Z-0.943
G1 Y13.784 Z-0.911
G1 Y13.832 Z-0.874
G1 Y13.874 Z-0.832
G1 Y13.911 Z-0.784
G1 Y13.943 Z-0.732
G1 Y13.968 Z-0.677
G1 Y13.985 Z-0.62
G1 Y13.996 Z-0.56
G1 Y14 Z-0.5
G1 X-0.5 F200
G1 Z-1.5 F30
G1 Y13.996 Z-1.56
G1 Y13.985 Z-1.62
G1 Y13.968 Z-1.677
G1 Y13.943 Z-1.732
G1 Y13.911 Z-1.784
G1 Y13.874 Z-1.832
G1 Y13.832 Z-1.874
G1 Y13.784 Z-1.911
G1 Y13.732 Z-1.943
G1 Y13.677 Z-1.968
G1 Y13.62 Z-1.985
G1 Y13.56 Z-1.996
G1 Y13.5 Z-2
G1 Y13 F213
G3 X0 Y12.5 I0.5
G2 Y-12.5 J-12.5 F200
G2 Y12.5 J12.5
G3 X0.5 Y13 J0.5 F213
G1 Y13.5
G1 Y13.56 Z-1.996
G1 Y13.62 Z-1.985
G1 Y13.677 Z-1.968
G1 Y13.732 Z-1.943
G1 Y13.784 Z-1.911
G1 Y13.832 Z-1.874
G1 Y13.874 Z-1.832
G1 Y13.911 Z-1.784
G1 Y13.943 Z-1.732
G1 Y13.968 Z-1.677
G1 Y13.985 Z-1.62
G1 Y13.996 Z-1.56
G1 Y14 Z-1.5
G1 X-0.5 F200
G1 Z-2.5 F30
G1 Y13.996 Z-2.56
G1 Y13.985 Z-2.62
G1 Y13.968 Z-2.677
G1 Y13.943 Z-2.732
G1 Y13.911 Z-2.784
G1 Y13.874 Z-2.832
G1 Y13.832 Z-2.874
G1 Y13.784 Z-2.911
G1 Y13.732 Z-2.943
G1 Y13.677 Z-2.968
G1 Y13.62 Z-2.985
G1 Y13.56 Z-2.996
G1 Y13.5 Z-3
G1 Y13 F213
G3 X0 Y12.5 I0.5
G2 Y-12.5 J-12.5 F200
G2 Y12.5 J12.5
G3 X0.5 Y13 J0.5 F213
G1 Y13.5
G1 Y13.56 Z-2.996
G1 Y13.62 Z-2.985
G1 Y13.677 Z-2.968
G1 Y13.732 Z-2.943
G1 Y13.784 Z-2.911
G1 Y13.832 Z-2.874
G1 Y13.874 Z-2.832
G1 Y13.911 Z-2.784
G1 Y13.943 Z-2.732
G1 Y13.968 Z-2.677
G1 Y13.985 Z-2.62
G1 Y13.996 Z-2.56
G1 Y14 Z-2.5
G1 X-0.5 F200
G1 Z-3.5 F30
G1 Y13.996 Z-3.56
G1 Y13.985 Z-3.62
G1 Y13.968 Z-3.677
G1 Y13.943 Z-3.732
G1 Y13.911 Z-3.784
G1 Y13.874 Z-3.832
G1 Y13.832 Z-3.874
G1 Y13.784 Z-3.911
G1 Y13.732 Z-3.943
G1 Y13.677 Z-3.968
G1 Y13.62 Z-3.985
G1 Y13.56 Z-3.996
G1 Y13.5 Z-4
G1 Y13 F213
G3 X0 Y12.5 I0.5
G2 Y-12.5 J-12.5 F200
G2 Y12.5 J12.5
G3 X0.5 Y13 J0.5 F213
G1 Y13.5
G1 Y13.56 Z-3.996
G1 Y13.62 Z-3.985
G1 Y13.677 Z-3.968
G1 Y13.732 Z-3.943
G1 Y13.784 Z-3.911
G1 Y13.832 Z-3.874
G1 Y13.874 Z-3.832
G1 Y13.911 Z-3.784
G1 Y13.943 Z-3.732
G1 Y13.968 Z-3.677
G1 Y13.985 Z-3.62
G1 Y13.996 Z-3.56
G1 Y14 Z-3.5
G1 X-0.5 F200
G1 Z-4.5 F30
G1 Y13.997 Z-4.552
G1 Y13.989 Z-4.604
G1 Y13.976 Z-4.655
G1 Y13.957 Z-4.703
G1 Y13.933 Z-4.75
G1 Y13.5
G1 Y13 F213
G3 X0 Y12.5 I0.5
G2 X5 Y11.456 J-12.5 F200
G1 Z-5 F30
G2 X12.422 Y-1.398 I-5 J-11.456 F200
G1 Z-4.75
G2 X7.422 Y-10.058 I-12.422 J1.398
G1 Z-5 F30
G2 X-7.422 I-7.422 J10.058 F200
G1 Z-4.75
G2 X-12.422 Y-1.398 I7.422 J10.058
G1 Z-5 F30
G2 X-5 Y11.456 I12.422 J1.398 F200
G1 Z-4.75
G2 X0 Y12.5 I5 J-11.456
G3 X0.5 Y13 J0.5 F213
G1 Y13.5
G1 Y13.933 F30
G1 Y13.957 Z-4.703 F213
G1 Y13.976 Z-4.655
G1 Y13.989 Z-4.604
G1 Y13.997 Z-4.552
G1 Y14 Z-4.5
G1 X-0.5 F200
G1 Z-4.75 F30
G1 Y13.5
G1 Y13 F213
G3 X0 Y12.5 I0.5
G2 X5 Y11.456 J-12.5 F200
G1 Z-5.5 F30
G2 X12.422 Y-1.398 I-5 J-11.456 F200
G1 Z-4.75
G2 X7.422 Y-10.058 I-12.422 J1.398
G1 Z-5.5 F30
G2 X-7.422 I-7.422 J10.058 F200
G1 Z-4.75
G2 X-12.422 Y-1.398 I7.422 J10.058
G1 Z-5.5 F30
G2 X-5 Y11.456 I12.422 J1.398 F200
G1 Z-4.75
G2 X0 Y12.5 I5 J-11.456
G3 X0.5 Y13 J0.5 F213
G1 Y14
G1 Z15 F300

;2D Contour2 - Milling - Tool: 1 - flat end mill
;X Min: -12.25 - X Max: 13.75
;Y Min: -12.25 - Y Max: 12.249
;Z Min: -6 - Z Max: 15
M400
M117 2D Contour2
G1 X13.75 Y0.5 Z15 F600
G1 Z5
G1 Z1 F30
G1 Z-5.5
G1 X13.746 Z-5.56
G1 X13.735 Z-5.62
G1 X13.718 Z-5.677
G1 X13.693 Z-5.732
G1 X13.661 Z-5.784
G1 X13.624 Z-5.832
G1 X13.582 Z-5.874
G1 X13.534 Z-5.911
G1 X13.482 Z-5.943
G1 X13.427 Z-5.968
G1 X13.37 Z-5.985
G1 X13.31 Z-5.996
G1 X13.25 Z-6
G1 X12.75 F213
G3 X12.25 Y0 J-0.5
G2 X12.185 Y-1.261 I-12.25 F600
G1 Z-4.75
G2 X7.185 Y-9.922 I-12.185 J1.261
G1 Z-6 F30
G2 X-7.185 I-7.185 J9.922 F600
G1 Z-4.75
G2 X-12.185 Y-1.261 I7.185 J9.922
G1 Z-6 F30
G2 X-5 Y11.183 I12.185 J1.261 F600
G1 Z-4.75
G2 X5 I5 J-11.183
G1 Z-6 F30
G2 X12.25 Y0 I-5 J-11.183 F600
G2 X12.124 Y-0.188 I-0.204
G3 X11.994 Y-0.375 I0.079 J-0.193
G2 X11.947 Y-1.124 I-11.994 J0.375
G1 Z-4.75
G2 X6.947 Y-9.784 I-11.947 J1.124
G1 Z-6 F30
G2 X-6.947 I-6.947 J9.784 F600
G1 Z-4.75
G2 X-11.947 Y-1.124 I6.947 J9.784
G1 Z-6 F30
G2 X-5 Y10.909 I11.947 J1.124 F600
G1 Z-4.75
G2 X5 I5 J-10.909
G1 Z-6 F30
G2 X11.947 Y-1.124 I-5 J-10.909 F600
G1 Z-4.75
G2 X6.947 Y-9.784 I-11.947 J1.124
G1 Z-6 F30
G2 X-6.947 I-6.947 J9.784 F600
G1 Z-4.75
G2 X-11.947 Y-1.124 I6.947 J9.784
G1 Z-6 F30
G2 X-5 Y10.909 I11.947 J1.124 F600
G1 Z-4.75
G2 X5 I5 J-10.909
G1 Z-6 F30
G2 X11.994 Y-0.375 I-5 J-10.909 F600
G3 X12.478 Y-0.89 I0.5 J-0.016 F213
G1 X12.978 Y-0.906
G1 X13.038 Y-0.908 Z-5.996
G1 X13.098 Y-0.91 Z-5.985
G1 X13.155 Y-0.911 Z-5.968
G1 X13.21 Y-0.913 Z-5.943
G1 X13.262 Y-0.915 Z-5.911
G1 X13.309 Y-0.916 Z-5.874
G1 X13.352 Y-0.918 Z-5.832
G1 X13.389 Y-0.919 Z-5.784
G1 X13.421 Y-0.92 Z-5.732
G1 X13.445 Y-0.921 Z-5.677
G1 X13.463 Z-5.62
G1 X13.474 Z-5.56
G1 X13.478 Y-0.922 Z-5.5
G1 Z15 F600

M400
M117 Job end
G1 X0 Y0 F2500
G1 Z0 F300
