;Fusion 360 CAM 2.0.6258
;Posts processor: MPCNC_Mill_Laser.cps
;Gcode generated: Sunday, September 1, 2019 8:09:08 PM GMT
;Document: Biela inferior v5
;Setup: Setup1

G90
G21
M84 S0
G92 X0 Y0 Z0

;Probe tool - Not yet implemented

;2D Contour2 - Milling - Tool: 2 - flat end mill
;X Min: -10.5 - X Max: 79.5
;Y Min: -105.5 - Y Max: 10.5
;Z Min: -6 - Z Max: 15
M400
M117 2D Contour2
G1 Z15 F300
G1 X35 Y-94.5 F2500
G1 Z5 F300
G1 Z3 F30
G1 Z-1.5
G1 X34.996 Z-1.56
G1 X34.985 Z-1.62
G1 X34.968 Z-1.677
G1 X34.943 Z-1.732
G1 X34.911 Z-1.784
G1 X34.874 Z-1.832
G1 X34.832 Z-1.874
G1 X34.784 Z-1.911
G1 X34.732 Z-1.943
G1 X34.677 Z-1.968
G1 X34.62 Z-1.985
G1 X34.56 Z-1.996
G1 X34.5 Z-2
G1 X34 F213
G3 X33.5 Y-95 J-0.5
G2 X12.5 I-10.5
G1 Y0
G2 X33.5 I10.5
G1 Y-95
G3 X34 Y-95.5 I0.5
G1 X34.5
G1 X34.56 Z-1.996
G1 X34.62 Z-1.985
G1 X34.677 Z-1.968
G1 X34.732 Z-1.943
G1 X34.784 Z-1.911
G1 X34.832 Z-1.874
G1 X34.874 Z-1.832
G1 X34.911 Z-1.784
G1 X34.943 Z-1.732
G1 X34.968 Z-1.677
G1 X34.985 Z-1.62
G1 X34.996 Z-1.56
G1 X35 Z-1.5
G1 Z5 F300
G1 X34.002 Y-95.547 F2500
G1 Z3 F30
G1 Z-1.5
G1 X34.006 Z-1.56
G1 X34.017 Z-1.62
G1 X34.035 Z-1.677
G1 X34.059 Z-1.732
G1 X34.091 Z-1.784
G1 X34.128 Z-1.832
G1 X34.17 Z-1.874
G1 X34.218 Y-95.546 Z-1.911
G1 X34.27 Z-1.943
G1 X34.325 Z-1.968
G1 X34.382 Z-1.985
G1 X34.442 Y-95.545 Z-1.996
G1 X34.502 Z-2
G1 X35.002 Y-95.543 F213
G3 X35.5 Y-95.041 I-0.002 J0.5
G2 Y-95 I10.5 J0.041
G1 Y0
G2 X56.5 I10.5
G1 Y-95
G2 X35.5 Y-95.041 I-10.5
G3 X34.998 Y-94.543 I-0.5 J-0.002
G1 X34.498 Y-94.545
G1 X34.438 Z-1.996
G1 X34.378 Y-94.546 Z-1.985
G1 X34.321 Z-1.968
G1 X34.266 Z-1.943
G1 X34.214 Z-1.911
G1 X34.167 Y-94.547 Z-1.874
G1 X34.124 Z-1.832
G1 X34.087 Z-1.784
G1 X34.055 Z-1.732
G1 X34.031 Z-1.677
G1 X34.013 Z-1.62
G1 X34.002 Z-1.56
G1 X33.998 Z-1.5
G1 Z5 F300
G1 X12 Y-94.5 F2500
G1 Z3 F30
G1 Z-1.5
G1 X11.996 Z-1.56
G1 X11.985 Z-1.62
G1 X11.968 Z-1.677
G1 X11.943 Z-1.732
G1 X11.911 Z-1.784
G1 X11.874 Z-1.832
G1 X11.832 Z-1.874
G1 X11.784 Z-1.911
G1 X11.732 Z-1.943
G1 X11.677 Z-1.968
G1 X11.62 Z-1.985
G1 X11.56 Z-1.996
G1 X11.5 Z-2
G1 X11 F213
G3 X10.5 Y-95 J-0.5
G2 X-10.5 I-10.5
G1 Y0
G2 X10.5 I10.5
G1 Y-95
G3 X11 Y-95.5 I0.5
G1 X11.5
G1 X11.56 Z-1.996
G1 X11.62 Z-1.985
G1 X11.677 Z-1.968
G1 X11.732 Z-1.943
G1 X11.784 Z-1.911
G1 X11.832 Z-1.874
G1 X11.874 Z-1.832
G1 X11.911 Z-1.784
G1 X11.943 Z-1.732
G1 X11.968 Z-1.677
G1 X11.985 Z-1.62
G1 X11.996 Z-1.56
G1 X12 Z-1.5
G1 Z5 F300
G1 X11.002 Y-95.547 F2500
G1 Z1 F30
G1 Z-3.5
G1 X11.006 Z-3.56
G1 X11.017 Z-3.62
G1 X11.035 Z-3.677
G1 X11.059 Z-3.732
G1 X11.091 Z-3.784
G1 X11.128 Z-3.832
G1 X11.17 Z-3.874
G1 X11.218 Y-95.546 Z-3.911
G1 X11.27 Z-3.943
G1 X11.325 Z-3.968
G1 X11.382 Z-3.985
G1 X11.442 Y-95.545 Z-3.996
G1 X11.502 Z-4
G1 X12.002 Y-95.543 F213
G3 X12.5 Y-95.041 I-0.002 J0.5
G2 Y-95 I10.5 J0.041
G1 Y0
G2 X33.5 I10.5
G1 Y-95
G2 X12.5 Y-95.041 I-10.5
G3 X11.998 Y-94.543 I-0.5 J-0.002
G1 X11.498 Y-94.545
G1 X11.438 Z-3.996
G1 X11.378 Y-94.546 Z-3.985
G1 X11.321 Z-3.968
G1 X11.266 Z-3.943
G1 X11.214 Z-3.911
G1 X11.167 Y-94.547 Z-3.874
G1 X11.124 Z-3.832
G1 X11.087 Z-3.784
G1 X11.055 Z-3.732
G1 X11.031 Z-3.677
G1 X11.013 Z-3.62
G1 X11.002 Z-3.56
G1 X10.998 Z-3.5
G1 Z5 F300
G1 X12 Y-94.5 F2500
G1 Z1 F30
G1 Z-3.5
G1 X11.996 Z-3.56
G1 X11.985 Z-3.62
G1 X11.968 Z-3.677
G1 X11.943 Z-3.732
G1 X11.911 Z-3.784
G1 X11.874 Z-3.832
G1 X11.832 Z-3.874
G1 X11.784 Z-3.911
G1 X11.732 Z-3.943
G1 X11.677 Z-3.968
G1 X11.62 Z-3.985
G1 X11.56 Z-3.996
G1 X11.5 Z-4
G1 X11 F213
G3 X10.5 Y-95 J-0.5
G2 X-10.5 I-10.5
G1 Y0
G2 X10.5 I10.5
G1 Y-95
G3 X11 Y-95.5 I0.5
G1 X11.5
G1 X11.56 Z-3.996
G1 X11.62 Z-3.985
G1 X11.677 Z-3.968
G1 X11.732 Z-3.943
G1 X11.784 Z-3.911
G1 X11.832 Z-3.874
G1 X11.874 Z-3.832
G1 X11.911 Z-3.784
G1 X11.943 Z-3.732
G1 X11.968 Z-3.677
G1 X11.985 Z-3.62
G1 X11.996 Z-3.56
G1 X12 Z-3.5
G1 Z5 F300
G1 Y-94.5 F2500
G1 Z-1 F30
G1 Z-5.5
G1 X11.996 Z-5.56
G1 X11.985 Z-5.62
G1 X11.968 Z-5.677
G1 X11.943 Z-5.732
G1 X11.911 Z-5.784
G1 X11.874 Z-5.832
G1 X11.832 Z-5.874
G1 X11.784 Z-5.911
G1 X11.732 Z-5.943
G1 X11.677 Z-5.968
G1 X11.62 Z-5.985
G1 X11.56 Z-5.996
G1 X11.5 Z-6
G1 X11 F213
G3 X10.5 Y-95 J-0.5
G2 X-10.5 I-10.5
G1 Y-76.25
G1 Z-4.75
G1 Y-66.25
G1 Z-6 F30
G1 Y-28.75 F213
G1 Z-4.75
G1 Y-18.75
G1 Z-6 F30
G1 Y0 F213
G2 X10.5 I10.5
G1 Y-18.75
G1 Z-4.75
G1 Y-28.75
G1 Z-6 F30
G1 Y-66.25 F213
G1 Z-4.75
G1 Y-76.25
G1 Z-6 F30
G1 Y-95 F213
G3 X11 Y-95.5 I0.5
G1 X11.5
G1 X11.56 Z-5.996
G1 X11.62 Z-5.985
G1 X11.677 Z-5.968
G1 X11.732 Z-5.943
G1 X11.784 Z-5.911
G1 X11.832 Z-5.874
G1 X11.874 Z-5.832
G1 X11.911 Z-5.784
G1 X11.943 Z-5.732
G1 X11.968 Z-5.677
G1 X11.985 Z-5.62
G1 X11.996 Z-5.56
G1 X12 Z-5.5
G1 Z5 F300
G1 X57.002 Y-95.547 F2500
G1 Z3 F30
G1 Z-1.5
G1 X57.006 Z-1.56
G1 X57.017 Z-1.62
G1 X57.035 Z-1.677
G1 X57.059 Z-1.732
G1 X57.091 Z-1.784
G1 X57.128 Z-1.832
G1 X57.17 Z-1.874
G1 X57.218 Y-95.546 Z-1.911
G1 X57.27 Z-1.943
G1 X57.325 Z-1.968
G1 X57.382 Z-1.985
G1 X57.442 Y-95.545 Z-1.996
G1 X57.502 Z-2
G1 X58.002 Y-95.543 F213
G3 X58.5 Y-95.041 I-0.002 J0.5
G2 Y-95 I10.5 J0.041
G1 Y0
G2 X79.5 I10.5
G1 Y-95
G2 X75.451 Y-103.284 I-10.5
G2 X69 Y-105.5 I-6.451 J8.285
G2 X58.5 Y-95.041 J10.5
G3 X57.998 Y-94.543 I-0.5 J-0.002
G1 X57.498 Y-94.545
G1 X57.438 Z-1.996
G1 X57.378 Y-94.546 Z-1.985
G1 X57.321 Z-1.968
G1 X57.266 Z-1.943
G1 X57.214 Z-1.911
G1 X57.167 Y-94.547 Z-1.874
G1 X57.124 Z-1.832
G1 X57.087 Z-1.784
G1 X57.055 Z-1.732
G1 X57.031 Z-1.677
G1 X57.013 Z-1.62
G1 X57.002 Z-1.56
G1 X56.998 Z-1.5
G1 Z5 F300
G1 X58 Y-94.5 F2500
G1 Z1 F30
G1 Z-3.5
G1 X57.996 Z-3.56
G1 X57.985 Z-3.62
G1 X57.968 Z-3.677
G1 X57.943 Z-3.732
G1 X57.911 Z-3.784
G1 X57.874 Z-3.832
G1 X57.832 Z-3.874
G1 X57.784 Z-3.911
G1 X57.732 Z-3.943
G1 X57.677 Z-3.968
G1 X57.62 Z-3.985
G1 X57.56 Z-3.996
G1 X57.5 Z-4
G1 X57 F213
G3 X56.5 Y-95 J-0.5
G2 X35.5 I-10.5
G1 Y0
G2 X56.5 I10.5
G1 Y-95
G3 X57 Y-95.5 I0.5
G1 X57.5
G1 X57.56 Z-3.996
G1 X57.62 Z-3.985
G1 X57.677 Z-3.968
G1 X57.732 Z-3.943
G1 X57.784 Z-3.911
G1 X57.832 Z-3.874
G1 X57.874 Z-3.832
G1 X57.911 Z-3.784
G1 X57.943 Z-3.732
G1 X57.968 Z-3.677
G1 X57.985 Z-3.62
G1 X57.996 Z-3.56
G1 X58 Z-3.5
G1 Z5 F300
G1 X57.002 Y-95.547 F2500
G1 Z1 F30
G1 Z-3.5
G1 X57.006 Z-3.56
G1 X57.017 Z-3.62
G1 X57.035 Z-3.677
G1 X57.059 Z-3.732
G1 X57.091 Z-3.784
G1 X57.128 Z-3.832
G1 X57.17 Z-3.874
G1 X57.218 Y-95.546 Z-3.911
G1 X57.27 Z-3.943
G1 X57.325 Z-3.968
G1 X57.382 Z-3.985
G1 X57.442 Y-95.545 Z-3.996
G1 X57.502 Z-4
G1 X58.002 Y-95.543 F213
G3 X58.5 Y-95.041 I-0.002 J0.5
G2 Y-95 I10.5 J0.041
G1 Y0
G2 X79.5 I10.5
G1 Y-95
G2 X75.451 Y-103.284 I-10.5
G2 X69 Y-105.5 I-6.451 J8.285
G2 X58.5 Y-95.041 J10.5
G3 X57.998 Y-94.543 I-0.5 J-0.002
G1 X57.498 Y-94.545
G1 X57.438 Z-3.996
G1 X57.378 Y-94.546 Z-3.985
G1 X57.321 Z-3.968
G1 X57.266 Z-3.943
G1 X57.214 Z-3.911
G1 X57.167 Y-94.547 Z-3.874
G1 X57.124 Z-3.832
G1 X57.087 Z-3.784
G1 X57.055 Z-3.732
G1 X57.031 Z-3.677
G1 X57.013 Z-3.62
G1 X57.002 Z-3.56
G1 X56.998 Z-3.5
G1 Z5 F300
G1 X58 Y-94.5 F2500
G1 Z-1 F30
G1 Z-5.5
G1 X57.996 Z-5.56
G1 X57.985 Z-5.62
G1 X57.968 Z-5.677
G1 X57.943 Z-5.732
G1 X57.911 Z-5.784
G1 X57.874 Z-5.832
G1 X57.832 Z-5.874
G1 X57.784 Z-5.911
G1 X57.732 Z-5.943
G1 X57.677 Z-5.968
G1 X57.62 Z-5.985
G1 X57.56 Z-5.996
G1 X57.5 Z-6
G1 X57 F213
G3 X56.5 Y-95 J-0.5
G2 X35.5 I-10.5
G1 Y-76.25
G1 Z-4.75
G1 Y-66.25
G1 Z-6 F30
G1 Y-28.75 F213
G1 Z-4.75
G1 Y-18.75
G1 Z-6 F30
G1 Y0 F213
G2 X56.5 I10.5
G1 Y-18.75
G1 Z-4.75
G1 Y-28.75
G1 Z-6 F30
G1 Y-66.25 F213
G1 Z-4.75
G1 Y-76.25
G1 Z-6 F30
G1 Y-95 F213
G3 X57 Y-95.5 I0.5
G1 X57.5
G1 X57.56 Z-5.996
G1 X57.62 Z-5.985
G1 X57.677 Z-5.968
G1 X57.732 Z-5.943
G1 X57.784 Z-5.911
G1 X57.832 Z-5.874
G1 X57.874 Z-5.832
G1 X57.911 Z-5.784
G1 X57.943 Z-5.732
G1 X57.968 Z-5.677
G1 X57.985 Z-5.62
G1 X57.996 Z-5.56
G1 X58 Z-5.5
G1 Z5 F300
G1 X57.002 Y-95.547 F2500
G1 Z-1 F30
G1 Z-5.5
G1 X57.006 Z-5.56
G1 X57.017 Z-5.62
G1 X57.035 Z-5.677
G1 X57.059 Z-5.732
G1 X57.091 Z-5.784
G1 X57.128 Z-5.832
G1 X57.17 Z-5.874
G1 X57.218 Y-95.546 Z-5.911
G1 X57.27 Z-5.943
G1 X57.325 Z-5.968
G1 X57.382 Z-5.985
G1 X57.442 Y-95.545 Z-5.996
G1 X57.502 Z-6
G1 X58.002 Y-95.543 F213
G3 X58.5 Y-95.041 I-0.002 J0.5
G2 Y-95 I10.5 J0.041
G1 Y-76.25
G1 Z-4.75
G1 Y-66.25
G1 Z-6 F30
G1 Y-28.75 F213
G1 Z-4.75
G1 Y-18.75
G1 Z-6 F30
G1 Y0 F213
G2 X79.5 I10.5
G1 Y-18.75
G1 Z-4.75
G1 Y-28.75
G1 Z-6 F30
G1 Y-66.25 F213
G1 Z-4.75
G1 Y-76.25
G1 Z-6 F30
G1 Y-95 F213
G2 X75.451 Y-103.284 I-10.5
G2 X69 Y-105.5 I-6.451 J8.285
G2 X58.5 Y-95.041 J10.5
G3 X57.998 Y-94.543 I-0.5 J-0.002
G1 X57.498 Y-94.545
G1 X57.438 Z-5.996
G1 X57.378 Y-94.546 Z-5.985
G1 X57.321 Z-5.968
G1 X57.266 Z-5.943
G1 X57.214 Z-5.911
G1 X57.167 Y-94.547 Z-5.874
G1 X57.124 Z-5.832
G1 X57.087 Z-5.784
G1 X57.055 Z-5.732
G1 X57.031 Z-5.677
G1 X57.013 Z-5.62
G1 X57.002 Z-5.56
G1 X56.998 Z-5.5
G1 Z5 F300
G1 X35 Y-94.5 F2500
G1 Z-1 F30
G1 Z-5.5
G1 X34.996 Z-5.56
G1 X34.985 Z-5.62
G1 X34.968 Z-5.677
G1 X34.943 Z-5.732
G1 X34.911 Z-5.784
G1 X34.874 Z-5.832
G1 X34.832 Z-5.874
G1 X34.784 Z-5.911
G1 X34.732 Z-5.943
G1 X34.677 Z-5.968
G1 X34.62 Z-5.985
G1 X34.56 Z-5.996
G1 X34.5 Z-6
G1 X34 F213
G3 X33.5 Y-95 J-0.5
G2 X12.5 I-10.5
G1 Y-76.25
G1 Z-4.75
G1 Y-66.25
G1 Z-6 F30
G1 Y-28.75 F213
G1 Z-4.75
G1 Y-18.75
G1 Z-6 F30
G1 Y0 F213
G2 X33.5 I10.5
G1 Y-18.75
G1 Z-4.75
G1 Y-28.75
G1 Z-6 F30
G1 Y-66.25 F213
G1 Z-4.75
G1 Y-76.25
G1 Z-6 F30
G1 Y-95 F213
G3 X34 Y-95.5 I0.5
G1 X34.5
G1 X34.56 Z-5.996
G1 X34.62 Z-5.985
G1 X34.677 Z-5.968
G1 X34.732 Z-5.943
G1 X34.784 Z-5.911
G1 X34.832 Z-5.874
G1 X34.874 Z-5.832
G1 X34.911 Z-5.784
G1 X34.943 Z-5.732
G1 X34.968 Z-5.677
G1 X34.985 Z-5.62
G1 X34.996 Z-5.56
G1 X35 Z-5.5
G1 Z15 F300

M400
M117 Job end
G1 X0 Y0 F2500
G1 Z0 F300
