;Fusion 360 CAM 2.0.6258
;Posts processor: MPCNC_Mill_Laser.cps
;Gcode generated: Sunday, September 1, 2019 6:34:59 PM GMT
;Document: Biela inferior v4
;Setup: Setup1

G90
G21
M84 S0
G92 X0 Y0 Z0

;Probe tool - Not yet implemented

;2D Contour2 - Milling - Tool: 3 - flat end mill
;X Min: -11 - X Max: 80
;Y Min: -106 - Y Max: 11
;Z Min: -6 - Z Max: 15
M400
M117 2D Contour2
G1 Z15 F300
G1 X35.159 Y-99.046 F2500
G1 Z5 F300
G1 Z3 F30
G1 Z-1.4
G1 X35.155 Y-99.044 Z-1.467
G1 X35.145 Y-99.04 Z-1.534
G1 X35.127 Y-99.034 Z-1.598
G1 X35.103 Y-99.024 Z-1.66
G1 X35.073 Y-99.013 Z-1.719
G1 X35.036 Y-98.999 Z-1.774
G1 X34.995 Y-98.982 Z-1.824
G1 X34.948 Y-98.964 Z-1.869
G1 X34.897 Y-98.945 Z-1.908
G1 X34.842 Y-98.924 Z-1.941
G1 X34.784 Y-98.901 Z-1.966
G1 X34.723 Y-98.878 Z-1.985
G1 X34.661 Y-98.854 Z-1.996
G1 X34.599 Y-98.83 Z-2
G1 X34.039 Y-98.614 F214
G3 X33.263 Y-98.958 I-0.216 J-0.56
G2 X12 Y-95 I-10.263 J3.958
G1 Y0
G2 X34 I11
G1 Y-95
G2 X33.263 Y-98.958 I-11
G3 X33.607 Y-99.734 I0.56 J-0.216
G1 X34.167 Y-99.949
G1 X34.23 Y-99.974 Z-1.996
G1 X34.292 Y-99.998 Z-1.985
G1 X34.352 Y-100.021 Z-1.966
G1 X34.41 Y-100.043 Z-1.941
G1 X34.465 Y-100.064 Z-1.908
G1 X34.516 Y-100.084 Z-1.869
G1 X34.563 Y-100.102 Z-1.824
G1 X34.605 Y-100.118 Z-1.774
G1 X34.641 Y-100.132 Z-1.719
G1 X34.671 Y-100.144 Z-1.66
G1 X34.695 Y-100.153 Z-1.598
G1 X34.713 Y-100.16 Z-1.534
G1 X34.723 Y-100.164 Z-1.467
G1 X34.727 Y-100.165 Z-1.4
G1 Z5 F300
G1 X33.879 Y4.157 F2500
G1 Z3 F30
G1 Z-1.4
G1 X33.882 Y4.155 Z-1.467
G1 X33.893 Y4.151 Z-1.534
G1 X33.91 Y4.144 Z-1.598
G1 X33.934 Y4.135 Z-1.66
G1 X33.964 Y4.123 Z-1.719
G1 X34.001 Y4.108 Z-1.774
G1 X34.042 Y4.092 Z-1.824
G1 X34.089 Y4.073 Z-1.869
G1 X34.14 Y4.053 Z-1.908
G1 X34.195 Y4.032 Z-1.941
G1 X34.252 Y4.009 Z-1.966
G1 X34.313 Y3.985 Z-1.985
G1 X34.374 Y3.96 Z-1.996
G1 X34.437 Y3.936 Z-2
G1 X34.995 Y3.715 F214
G3 X35.773 Y4.052 I0.221 J0.558
G2 X57 Y0 I10.227 J-4.052
G1 Y-95
G2 X35 I-11
G1 Y0
G2 X35.773 Y4.052 I11
G3 X35.436 Y4.83 I-0.558 J0.221
G1 X34.879 Y5.051
G1 X34.816 Y5.076 Z-1.996
G1 X34.755 Y5.101 Z-1.985
G1 X34.694 Y5.124 Z-1.966
G1 X34.637 Y5.147 Z-1.941
G1 X34.582 Y5.169 Z-1.908
G1 X34.531 Y5.189 Z-1.869
G1 X34.484 Y5.208 Z-1.824
G1 X34.443 Y5.224 Z-1.774
G1 X34.406 Y5.238 Z-1.719
G1 X34.376 Y5.25 Z-1.66
G1 X34.352 Y5.26 Z-1.598
G1 X34.335 Y5.267 Z-1.534
G1 X34.324 Y5.271 Z-1.467
G1 X34.321 Y5.272 Z-1.4
G1 Z5 F300
G1 X12.121 Y-99.157 F2500
G1 Z3 F30
G1 Z-1.4
G1 X12.118 Y-99.155 Z-1.467
G1 X12.107 Y-99.151 Z-1.534
G1 X12.09 Y-99.144 Z-1.598
G1 X12.066 Y-99.135 Z-1.66
G1 X12.036 Y-99.123 Z-1.719
G1 X11.999 Y-99.108 Z-1.774
G1 X11.958 Y-99.092 Z-1.824
G1 X11.911 Y-99.073 Z-1.869
G1 X11.86 Y-99.053 Z-1.908
G1 X11.805 Y-99.032 Z-1.941
G1 X11.748 Y-99.009 Z-1.966
G1 X11.687 Y-98.985 Z-1.985
G1 X11.626 Y-98.96 Z-1.996
G1 X11.563 Y-98.936 Z-2
G1 X11.005 Y-98.715 F214
G3 X10.227 Y-99.052 I-0.221 J-0.558
G2 X-11 Y-95 I-10.227 J4.052
G1 Y0
G2 X11 I11
G1 Y-95
G2 X10.227 Y-99.052 I-11
G3 X10.564 Y-99.83 I0.558 J-0.221
G1 X11.121 Y-100.051
G1 X11.184 Y-100.076 Z-1.996
G1 X11.245 Y-100.101 Z-1.985
G1 X11.306 Y-100.124 Z-1.966
G1 X11.363 Y-100.147 Z-1.941
G1 X11.418 Y-100.169 Z-1.908
G1 X11.469 Y-100.189 Z-1.869
G1 X11.516 Y-100.208 Z-1.824
G1 X11.557 Y-100.224 Z-1.774
G1 X11.594 Y-100.238 Z-1.719
G1 X11.624 Y-100.25 Z-1.66
G1 X11.648 Y-100.26 Z-1.598
G1 X11.665 Y-100.267 Z-1.534
G1 X11.676 Y-100.271 Z-1.467
G1 X11.679 Y-100.272 Z-1.4
G1 Z5 F300
G1 X10.879 Y4.157 F2500
G1 Z1 F30
G1 Z-3.4
G1 X10.882 Y4.155 Z-3.467
G1 X10.893 Y4.151 Z-3.534
G1 X10.91 Y4.144 Z-3.598
G1 X10.934 Y4.135 Z-3.66
G1 X10.964 Y4.123 Z-3.719
G1 X11.001 Y4.108 Z-3.774
G1 X11.042 Y4.092 Z-3.824
G1 X11.089 Y4.073 Z-3.869
G1 X11.14 Y4.053 Z-3.908
G1 X11.195 Y4.032 Z-3.941
G1 X11.252 Y4.009 Z-3.966
G1 X11.313 Y3.985 Z-3.985
G1 X11.374 Y3.96 Z-3.996
G1 X11.437 Y3.936 Z-4
G1 X11.995 Y3.715 F214
G3 X12.773 Y4.052 I0.221 J0.558
G2 X34 Y0 I10.227 J-4.052
G1 Y-95
G2 X12 I-11
G1 Y0
G2 X12.773 Y4.052 I11
G3 X12.436 Y4.83 I-0.558 J0.221
G1 X11.879 Y5.051
G1 X11.816 Y5.076 Z-3.996
G1 X11.755 Y5.101 Z-3.985
G1 X11.694 Y5.124 Z-3.966
G1 X11.637 Y5.147 Z-3.941
G1 X11.582 Y5.169 Z-3.908
G1 X11.531 Y5.189 Z-3.869
G1 X11.484 Y5.208 Z-3.824
G1 X11.443 Y5.224 Z-3.774
G1 X11.406 Y5.238 Z-3.719
G1 X11.376 Y5.25 Z-3.66
G1 X11.352 Y5.26 Z-3.598
G1 X11.335 Y5.267 Z-3.534
G1 X11.324 Y5.271 Z-3.467
G1 X11.321 Y5.272 Z-3.4
G1 Z5 F300
G1 X12.121 Y-99.157 F2500
G1 Z1 F30
G1 Z-3.4
G1 X12.118 Y-99.155 Z-3.467
G1 X12.107 Y-99.151 Z-3.534
G1 X12.09 Y-99.144 Z-3.598
G1 X12.066 Y-99.135 Z-3.66
G1 X12.036 Y-99.123 Z-3.719
G1 X11.999 Y-99.108 Z-3.774
G1 X11.958 Y-99.092 Z-3.824
G1 X11.911 Y-99.073 Z-3.869
G1 X11.86 Y-99.053 Z-3.908
G1 X11.805 Y-99.032 Z-3.941
G1 X11.748 Y-99.009 Z-3.966
G1 X11.687 Y-98.985 Z-3.985
G1 X11.626 Y-98.96 Z-3.996
G1 X11.563 Y-98.936 Z-4
G1 X11.005 Y-98.715 F214
G3 X10.227 Y-99.052 I-0.221 J-0.558
G2 X-11 Y-95 I-10.227 J4.052
G1 Y0
G2 X11 I11
G1 Y-95
G2 X10.227 Y-99.052 I-11
G3 X10.564 Y-99.83 I0.558 J-0.221
G1 X11.121 Y-100.051
G1 X11.184 Y-100.076 Z-3.996
G1 X11.245 Y-100.101 Z-3.985
G1 X11.306 Y-100.124 Z-3.966
G1 X11.363 Y-100.147 Z-3.941
G1 X11.418 Y-100.169 Z-3.908
G1 X11.469 Y-100.189 Z-3.869
G1 X11.516 Y-100.208 Z-3.824
G1 X11.557 Y-100.224 Z-3.774
G1 X11.594 Y-100.238 Z-3.719
G1 X11.624 Y-100.25 Z-3.66
G1 X11.648 Y-100.26 Z-3.598
G1 X11.665 Y-100.267 Z-3.534
G1 X11.676 Y-100.271 Z-3.467
G1 X11.679 Y-100.272 Z-3.4
G1 Z5 F300
G1 X12.159 Y-99.046 F2500
G1 Z-1 F30
G1 Z-5.4
G1 X12.155 Y-99.044 Z-5.467
G1 X12.145 Y-99.04 Z-5.534
G1 X12.127 Y-99.034 Z-5.598
G1 X12.103 Y-99.024 Z-5.66
G1 X12.073 Y-99.013 Z-5.719
G1 X12.036 Y-98.999 Z-5.774
G1 X11.995 Y-98.982 Z-5.824
G1 X11.948 Y-98.964 Z-5.869
G1 X11.897 Y-98.945 Z-5.908
G1 X11.842 Y-98.924 Z-5.941
G1 X11.784 Y-98.901 Z-5.966
G1 X11.723 Y-98.878 Z-5.985
G1 X11.661 Y-98.854 Z-5.996
G1 X11.599 Y-98.83 Z-6
G1 X11.039 Y-98.614 F214
G3 X10.263 Y-98.958 I-0.216 J-0.56
G2 X-11 Y-95 I-10.263 J3.958
G1 Y-53.5
G1 Z-4.5
G1 Y-41.5
G1 Z-6 F30
G1 Y0 F214
G2 X11 I11
G1 Y-41.5
G1 Z-4.5
G1 Y-53.5
G1 Z-6 F30
G1 Y-95 F214
G2 X10.263 Y-98.958 I-11
G3 X10.607 Y-99.734 I0.56 J-0.216
G1 X11.167 Y-99.949
G1 X11.23 Y-99.974 Z-5.996
G1 X11.292 Y-99.998 Z-5.985
G1 X11.352 Y-100.021 Z-5.966
G1 X11.41 Y-100.043 Z-5.941
G1 X11.465 Y-100.064 Z-5.908
G1 X11.516 Y-100.084 Z-5.869
G1 X11.563 Y-100.102 Z-5.824
G1 X11.605 Y-100.118 Z-5.774
G1 X11.641 Y-100.132 Z-5.719
G1 X11.671 Y-100.144 Z-5.66
G1 X11.695 Y-100.153 Z-5.598
G1 X11.713 Y-100.16 Z-5.534
G1 X11.723 Y-100.164 Z-5.467
G1 X11.727 Y-100.165 Z-5.4
G1 Z5 F300
G1 X56.879 Y4.157 F2500
G1 Z3 F30
G1 Z-1.4
G1 X56.882 Y4.155 Z-1.467
G1 X56.893 Y4.151 Z-1.534
G1 X56.91 Y4.144 Z-1.598
G1 X56.934 Y4.135 Z-1.66
G1 X56.964 Y4.123 Z-1.719
G1 X57.001 Y4.109 Z-1.774
G1 X57.042 Y4.092 Z-1.824
G1 X57.089 Y4.074 Z-1.869
G1 X57.14 Y4.053 Z-1.908
G1 X57.195 Y4.032 Z-1.941
G1 X57.252 Y4.009 Z-1.966
G1 X57.313 Y3.985 Z-1.985
G1 X57.374 Y3.96 Z-1.996
G1 X57.437 Y3.936 Z-2
G1 X57.995 Y3.715 F214
G3 X58.773 Y4.052 I0.221 J0.558
G2 X80 Y0 I10.227 J-4.052
G1 Y-95
G2 X75.759 Y-103.678 I-11
G2 X69 Y-106 I-6.759 J8.678
G2 X58 Y-95 J11
G1 Y0
G2 X58.773 Y4.052 I11
G3 X58.437 Y4.83 I-0.558 J0.221
G1 X57.879 Y5.051
G1 X57.816 Y5.076 Z-1.996
G1 X57.755 Y5.101 Z-1.985
G1 X57.694 Y5.124 Z-1.966
G1 X57.637 Y5.147 Z-1.941
G1 X57.582 Y5.169 Z-1.908
G1 X57.531 Y5.189 Z-1.869
G1 X57.484 Y5.208 Z-1.824
G1 X57.443 Y5.224 Z-1.774
G1 X57.406 Y5.239 Z-1.719
G1 X57.376 Y5.25 Z-1.66
G1 X57.352 Y5.26 Z-1.598
G1 X57.335 Y5.267 Z-1.534
G1 X57.324 Y5.271 Z-1.467
G1 X57.321 Y5.272 Z-1.4
G1 Z5 F300
G1 X58.121 Y-99.157 F2500
G1 Z1 F30
G1 Z-3.4
G1 X58.118 Y-99.155 Z-3.467
G1 X58.107 Y-99.151 Z-3.534
G1 X58.09 Y-99.144 Z-3.598
G1 X58.066 Y-99.135 Z-3.66
G1 X58.036 Y-99.123 Z-3.719
G1 X57.999 Y-99.108 Z-3.774
G1 X57.958 Y-99.092 Z-3.824
G1 X57.911 Y-99.073 Z-3.869
G1 X57.86 Y-99.053 Z-3.908
G1 X57.805 Y-99.032 Z-3.941
G1 X57.748 Y-99.009 Z-3.966
G1 X57.687 Y-98.985 Z-3.985
G1 X57.626 Y-98.96 Z-3.996
G1 X57.563 Y-98.936 Z-4
G1 X57.005 Y-98.715 F214
G3 X56.227 Y-99.052 I-0.221 J-0.558
G2 X35 Y-95 I-10.227 J4.052
G1 Y0
G2 X57 I11
G1 Y-95
G2 X56.227 Y-99.052 I-11
G3 X56.564 Y-99.83 I0.558 J-0.221
G1 X57.121 Y-100.051
G1 X57.184 Y-100.076 Z-3.996
G1 X57.245 Y-100.101 Z-3.985
G1 X57.306 Y-100.124 Z-3.966
G1 X57.363 Y-100.147 Z-3.941
G1 X57.418 Y-100.169 Z-3.908
G1 X57.469 Y-100.189 Z-3.869
G1 X57.516 Y-100.208 Z-3.824
G1 X57.557 Y-100.224 Z-3.774
G1 X57.594 Y-100.238 Z-3.719
G1 X57.624 Y-100.25 Z-3.66
G1 X57.648 Y-100.26 Z-3.598
G1 X57.665 Y-100.267 Z-3.534
G1 X57.676 Y-100.271 Z-3.467
G1 X57.679 Y-100.272 Z-3.4
G1 Z5 F300
G1 X56.879 Y4.157 F2500
G1 Z1 F30
G1 Z-3.4
G1 X56.882 Y4.155 Z-3.467
G1 X56.893 Y4.151 Z-3.534
G1 X56.91 Y4.144 Z-3.598
G1 X56.934 Y4.135 Z-3.66
G1 X56.964 Y4.123 Z-3.719
G1 X57.001 Y4.109 Z-3.774
G1 X57.042 Y4.092 Z-3.824
G1 X57.089 Y4.074 Z-3.869
G1 X57.14 Y4.053 Z-3.908
G1 X57.195 Y4.032 Z-3.941
G1 X57.252 Y4.009 Z-3.966
G1 X57.313 Y3.985 Z-3.985
G1 X57.374 Y3.96 Z-3.996
G1 X57.437 Y3.936 Z-4
G1 X57.995 Y3.715 F214
G3 X58.773 Y4.052 I0.221 J0.558
G2 X80 Y0 I10.227 J-4.052
G1 Y-95
G2 X75.759 Y-103.678 I-11
G2 X69 Y-106 I-6.759 J8.678
G2 X58 Y-95 J11
G1 Y0
G2 X58.773 Y4.052 I11
G3 X58.437 Y4.83 I-0.558 J0.221
G1 X57.879 Y5.051
G1 X57.816 Y5.076 Z-3.996
G1 X57.755 Y5.101 Z-3.985
G1 X57.694 Y5.124 Z-3.966
G1 X57.637 Y5.147 Z-3.941
G1 X57.582 Y5.169 Z-3.908
G1 X57.531 Y5.189 Z-3.869
G1 X57.484 Y5.208 Z-3.824
G1 X57.443 Y5.224 Z-3.774
G1 X57.406 Y5.239 Z-3.719
G1 X57.376 Y5.25 Z-3.66
G1 X57.352 Y5.26 Z-3.598
G1 X57.335 Y5.267 Z-3.534
G1 X57.324 Y5.271 Z-3.467
G1 X57.321 Y5.272 Z-3.4
G1 Z5 F300
G1 X58.121 Y-99.157 F2500
G1 Z-1 F30
G1 Z-5.4
G1 X58.118 Y-99.155 Z-5.467
G1 X58.107 Y-99.151 Z-5.534
G1 X58.09 Y-99.144 Z-5.598
G1 X58.066 Y-99.135 Z-5.66
G1 X58.036 Y-99.123 Z-5.719
G1 X57.999 Y-99.108 Z-5.774
G1 X57.958 Y-99.092 Z-5.824
G1 X57.911 Y-99.073 Z-5.869
G1 X57.86 Y-99.053 Z-5.908
G1 X57.805 Y-99.032 Z-5.941
G1 X57.748 Y-99.009 Z-5.966
G1 X57.687 Y-98.985 Z-5.985
G1 X57.626 Y-98.96 Z-5.996
G1 X57.563 Y-98.936 Z-6
G1 X57.005 Y-98.715 F214
G3 X56.227 Y-99.052 I-0.221 J-0.558
G2 X35 Y-95 I-10.227 J4.052
G1 Y-53.5
G1 Z-4.5
G1 Y-41.5
G1 Z-6 F30
G1 Y0 F214
G2 X57 I11
G1 Y-41.5
G1 Z-4.5
G1 Y-53.5
G1 Z-6 F30
G1 Y-95 F214
G2 X56.227 Y-99.052 I-11
G3 X56.564 Y-99.83 I0.558 J-0.221
G1 X57.121 Y-100.051
G1 X57.184 Y-100.076 Z-5.996
G1 X57.245 Y-100.101 Z-5.985
G1 X57.306 Y-100.124 Z-5.966
G1 X57.363 Y-100.147 Z-5.941
G1 X57.418 Y-100.169 Z-5.908
G1 X57.469 Y-100.189 Z-5.869
G1 X57.516 Y-100.208 Z-5.824
G1 X57.557 Y-100.224 Z-5.774
G1 X57.594 Y-100.238 Z-5.719
G1 X57.624 Y-100.25 Z-5.66
G1 X57.648 Y-100.26 Z-5.598
G1 X57.665 Y-100.267 Z-5.534
G1 X57.676 Y-100.271 Z-5.467
G1 X57.679 Y-100.272 Z-5.4
G1 Z5 F300
G1 X56.879 Y4.157 F2500
G1 Z-1 F30
G1 Z-5.4
G1 X56.882 Y4.155 Z-5.467
G1 X56.893 Y4.151 Z-5.534
G1 X56.91 Y4.144 Z-5.598
G1 X56.934 Y4.135 Z-5.66
G1 X56.964 Y4.123 Z-5.719
G1 X57.001 Y4.109 Z-5.774
G1 X57.042 Y4.092 Z-5.824
G1 X57.089 Y4.074 Z-5.869
G1 X57.14 Y4.053 Z-5.908
G1 X57.195 Y4.032 Z-5.941
G1 X57.252 Y4.009 Z-5.966
G1 X57.313 Y3.985 Z-5.985
G1 X57.374 Y3.96 Z-5.996
G1 X57.437 Y3.936 Z-6
G1 X57.995 Y3.715 F214
G3 X58.773 Y4.052 I0.221 J0.558
G2 X80 Y0 I10.227 J-4.052
G1 Y-41.5
G1 Z-4.5
G1 Y-53.5
G1 Z-6 F30
G1 Y-95 F214
G2 X75.759 Y-103.678 I-11
G2 X69 Y-106 I-6.759 J8.678
G2 X58 Y-95 J11
G1 Y-53.5
G1 Z-4.5
G1 Y-41.5
G1 Z-6 F30
G1 Y0 F214
G2 X58.773 Y4.052 I11
G3 X58.437 Y4.83 I-0.558 J0.221
G1 X57.879 Y5.051
G1 X57.816 Y5.076 Z-5.996
G1 X57.755 Y5.101 Z-5.985
G1 X57.694 Y5.124 Z-5.966
G1 X57.637 Y5.147 Z-5.941
G1 X57.582 Y5.169 Z-5.908
G1 X57.531 Y5.189 Z-5.869
G1 X57.484 Y5.208 Z-5.824
G1 X57.443 Y5.224 Z-5.774
G1 X57.406 Y5.239 Z-5.719
G1 X57.376 Y5.25 Z-5.66
G1 X57.352 Y5.26 Z-5.598
G1 X57.335 Y5.267 Z-5.534
G1 X57.324 Y5.271 Z-5.467
G1 X57.321 Y5.272 Z-5.4
G1 Z5 F300
G1 X35.121 Y-99.157 F2500
G1 Z-1 F30
G1 Z-5.4
G1 X35.118 Y-99.155 Z-5.467
G1 X35.107 Y-99.151 Z-5.534
G1 X35.09 Y-99.144 Z-5.598
G1 X35.066 Y-99.135 Z-5.66
G1 X35.036 Y-99.123 Z-5.719
G1 X34.999 Y-99.108 Z-5.774
G1 X34.958 Y-99.092 Z-5.824
G1 X34.911 Y-99.073 Z-5.869
G1 X34.86 Y-99.053 Z-5.908
G1 X34.805 Y-99.032 Z-5.941
G1 X34.748 Y-99.009 Z-5.966
G1 X34.687 Y-98.985 Z-5.985
G1 X34.626 Y-98.96 Z-5.996
G1 X34.563 Y-98.936 Z-6
G1 X34.005 Y-98.715 F214
G3 X33.227 Y-99.052 I-0.221 J-0.558
G2 X12 Y-95 I-10.227 J4.052
G1 Y-53.5
G1 Z-4.5
G1 Y-41.5
G1 Z-6 F30
G1 Y0 F214
G2 X34 I11
G1 Y-41.5
G1 Z-4.5
G1 Y-53.5
G1 Z-6 F30
G1 Y-95 F214
G2 X33.227 Y-99.052 I-11
G3 X33.564 Y-99.83 I0.558 J-0.221
G1 X34.121 Y-100.051
G1 X34.184 Y-100.076 Z-5.996
G1 X34.245 Y-100.101 Z-5.985
G1 X34.306 Y-100.124 Z-5.966
G1 X34.363 Y-100.147 Z-5.941
G1 X34.418 Y-100.169 Z-5.908
G1 X34.469 Y-100.189 Z-5.869
G1 X34.516 Y-100.208 Z-5.824
G1 X34.557 Y-100.224 Z-5.774
G1 X34.594 Y-100.238 Z-5.719
G1 X34.624 Y-100.25 Z-5.66
G1 X34.648 Y-100.26 Z-5.598
G1 X34.665 Y-100.267 Z-5.534
G1 X34.676 Y-100.271 Z-5.467
G1 X34.679 Y-100.272 Z-5.4
G1 Z15 F300

M400
M117 Job end
G1 X0 Y0 F2500
G1 Z0 F300
