;Fusion 360 CAM 2.0.6258
;Posts processor: MPCNC_Mill_Laser.cps
;Gcode generated: Sunday, September 1, 2019 8:08:02 PM GMT
;Document: Biela inferior v5
;Setup: Setup1

G90
G21
M84 S0
G92 X0 Y0 Z0

;Probe tool - Not yet implemented

;Drill1 - Milling - Tool: 1 - drill
;X Min: 0 - X Max: 69
;Y Min: -95 - Y Max: 0
;Z Min: -8.803 - Z Max: 15
M400
M117 Drill1
G1 Z15 F300
G1 X69 Y0 F2500
G1 Z5 F300
G1 Z2 F300
G1 Z-1 F41
G1 Z-0.88 F300
G1 Z-2 F41
G1 Z-1.88 F300
G1 Z-3 F41
G1 Z5 F300
G1 Z-1 F300
G1 Z-4 F41
G1 Z-3.88 F300
G1 Z-5 F41
G1 Z-4.88 F300
G1 Z-6 F41
G1 Z5 F300
G1 Z-4 F300
G1 Z-7 F41
G1 Z-6.88 F300
G1 Z-8 F41
G1 Z-7.88 F300
G1 Z-8.803 F41
G1 Z5 F300
G1 X46 F2500
G1 Z2 F300
G1 Z-1 F41
G1 Z-0.88 F300
G1 Z-2 F41
G1 Z-1.88 F300
G1 Z-3 F41
G1 Z5 F300
G1 Z-1 F300
G1 Z-4 F41
G1 Z-3.88 F300
G1 Z-5 F41
G1 Z-4.88 F300
G1 Z-6 F41
G1 Z5 F300
G1 Z-4 F300
G1 Z-7 F41
G1 Z-6.88 F300
G1 Z-8 F41
G1 Z-7.88 F300
G1 Z-8.803 F41
G1 Z5 F300
G1 X23 F2500
G1 Z2 F300
G1 Z-1 F41
G1 Z-0.88 F300
G1 Z-2 F41
G1 Z-1.88 F300
G1 Z-3 F41
G1 Z5 F300
G1 Z-1 F300
G1 Z-4 F41
G1 Z-3.88 F300
G1 Z-5 F41
G1 Z-4.88 F300
G1 Z-6 F41
G1 Z5 F300
G1 Z-4 F300
G1 Z-7 F41
G1 Z-6.88 F300
G1 Z-8 F41
G1 Z-7.88 F300
G1 Z-8.803 F41
G1 Z5 F300
G1 X0 F2500
G1 Z2 F300
G1 Z-1 F41
G1 Z-0.88 F300
G1 Z-2 F41
G1 Z-1.88 F300
G1 Z-3 F41
G1 Z5 F300
G1 Z-1 F300
G1 Z-4 F41
G1 Z-3.88 F300
G1 Z-5 F41
G1 Z-4.88 F300
G1 Z-6 F41
G1 Z5 F300
G1 Z-4 F300
G1 Z-7 F41
G1 Z-6.88 F300
G1 Z-8 F41
G1 Z-7.88 F300
G1 Z-8.803 F41
G1 Z5 F300
G1 Y-95 F2500
G1 Z2 F300
G1 Z-1 F41
G1 Z-0.88 F300
G1 Z-2 F41
G1 Z-1.88 F300
G1 Z-3 F41
G1 Z5 F300
G1 Z-1 F300
G1 Z-4 F41
G1 Z-3.88 F300
G1 Z-5 F41
G1 Z-4.88 F300
G1 Z-6 F41
G1 Z5 F300
G1 Z-4 F300
G1 Z-7 F41
G1 Z-6.88 F300
G1 Z-8 F41
G1 Z-7.88 F300
G1 Z-8.803 F41
G1 Z5 F300
G1 X23 F2500
G1 Z2 F300
G1 Z-1 F41
G1 Z-0.88 F300
G1 Z-2 F41
G1 Z-1.88 F300
G1 Z-3 F41
G1 Z5 F300
G1 Z-1 F300
G1 Z-4 F41
G1 Z-3.88 F300
G1 Z-5 F41
G1 Z-4.88 F300
G1 Z-6 F41
G1 Z5 F300
G1 Z-4 F300
G1 Z-7 F41
G1 Z-6.88 F300
G1 Z-8 F41
G1 Z-7.88 F300
G1 Z-8.803 F41
G1 Z5 F300
G1 X46 F2500
G1 Z2 F300
G1 Z-1 F41
G1 Z-0.88 F300
G1 Z-2 F41
G1 Z-1.88 F300
G1 Z-3 F41
G1 Z5 F300
G1 Z-1 F300
G1 Z-4 F41
G1 Z-3.88 F300
G1 Z-5 F41
G1 Z-4.88 F300
G1 Z-6 F41
G1 Z5 F300
G1 Z-4 F300
G1 Z-7 F41
G1 Z-6.88 F300
G1 Z-8 F41
G1 Z-7.88 F300
G1 Z-8.803 F41
G1 Z5 F300
G1 X69 F2500
G1 Z2 F300
G1 Z-1 F41
G1 Z-0.88 F300
G1 Z-2 F41
G1 Z-1.88 F300
G1 Z-3 F41
G1 Z5 F300
G1 Z-1 F300
G1 Z-4 F41
G1 Z-3.88 F300
G1 Z-5 F41
G1 Z-4.88 F300
G1 Z-6 F41
G1 Z5 F300
G1 Z-4 F300
G1 Z-7 F41
G1 Z-6.88 F300
G1 Z-8 F41
G1 Z-7.88 F300
G1 Z-8.803 F41
G1 Z5 F300
G1 Z15 F300

M400
M117 Job end
G1 X0 Y0 F2500
G1 Z0 F300
