;Fusion 360 CAM 2.0.6263
;Posts processor: MPCNC_Mill_Laser.cps
;Gcode generated: Wednesday, September 11, 2019 2:54:55 AM GMT
;Document: Chasis transversal v4
;Setup: Setup1

G90
G21
M84 S0
G92 X0 Y0 Z0

;Probe tool - Not yet implemented

;2D Contour1 - Milling - Tool: 1 - flat end mill
;X Min: 0.9 - X Max: 31.1
;Y Min: -117.1 - Y Max: -0.9
;Z Min: -10 - Z Max: 15
M400
M117 2D Contour1
G1 Z15 F300
G1 X17.4 Y-114.5 F2500
G1 Z5 F300
G1 Z4 F30
G1 Z-2
G1 X17.404 Z-2.06
G1 X17.415 Z-2.12
G1 X17.432 Z-2.177
G1 X17.457 Z-2.232
G1 X17.489 Z-2.284
G1 X17.526 Z-2.332
G1 X17.568 Z-2.374
G1 X17.616 Z-2.411
G1 X17.668 Z-2.443
G1 X17.723 Z-2.468
G1 X17.78 Z-2.485
G1 X17.84 Z-2.496
G1 X17.9 Z-2.5
G1 X18.4 F213
G3 X18.9 Y-114 J0.5
G1 Y-107.1 F300
G1 X13.1
G1 Y-114
G2 X8.222 Y-116.539 I-3.1
G1 X2.222 Y-112.338
G2 X0.9 Y-109.799 I1.778 J2.539
G1 Y-102.799
G2 X1.461 Y-101.021 I3.1
G1 X5.9 Y-94.681
G1 Y-23.319
G1 X1.461 Y-16.979
G2 X0.9 Y-15.201 I2.539 J1.778
G1 Y-8.201
G2 X2.222 Y-5.662 I3.1
G1 X8.222 Y-1.461
G2 X13.1 Y-4 I1.778 J-2.539
G1 Y-10.9
G1 X18.9
G1 Y-4
G2 X23.778 Y-1.461 I3.1
G1 X29.778 Y-5.662
G2 X31.1 Y-8.201 I-1.778 J-2.539
G1 Y-15.201
G2 X30.539 Y-16.979 I-3.1
G1 X26.1 Y-23.319
G1 Y-94.681
G1 X30.539 Y-101.021
G2 X31.1 Y-102.799 I-2.539 J-1.778
G1 Y-109.799
G2 X29.778 Y-112.338 I-3.1
G1 X23.778 Y-116.539
G2 X18.9 Y-114 I-1.778 J2.539
G3 X18.4 Y-113.5 I-0.5 F213
G1 X17.9
G1 X17.84 Z-2.496
G1 X17.78 Z-2.485
G1 X17.723 Z-2.468
G1 X17.668 Z-2.443
G1 X17.616 Z-2.411
G1 X17.568 Z-2.374
G1 X17.526 Z-2.332
G1 X17.489 Z-2.284
G1 X17.457 Z-2.232
G1 X17.432 Z-2.177
G1 X17.415 Z-2.12
G1 X17.404 Z-2.06
G1 X17.4 Z-2
G1 Y-114.5 F300
G1 Z-4.5 F30
G1 X17.404 Z-4.56
G1 X17.415 Z-4.62
G1 X17.432 Z-4.677
G1 X17.457 Z-4.732
G1 X17.489 Z-4.784
G1 X17.526 Z-4.832
G1 X17.568 Z-4.874
G1 X17.616 Z-4.911
G1 X17.668 Z-4.943
G1 X17.723 Z-4.968
G1 X17.78 Z-4.985
G1 X17.84 Z-4.996
G1 X17.9 Z-5
G1 X18.4 F213
G3 X18.9 Y-114 J0.5
G1 Y-107.1 F300
G1 X13.1
G1 Y-114
G2 X8.222 Y-116.539 I-3.1
G1 X2.222 Y-112.338
G2 X0.9 Y-109.799 I1.778 J2.539
G1 Y-102.799
G2 X1.461 Y-101.021 I3.1
G1 X5.9 Y-94.681
G1 Y-23.319
G1 X1.461 Y-16.979
G2 X0.9 Y-15.201 I2.539 J1.778
G1 Y-8.201
G2 X2.222 Y-5.662 I3.1
G1 X8.222 Y-1.461
G2 X13.1 Y-4 I1.778 J-2.539
G1 Y-10.9
G1 X18.9
G1 Y-4
G2 X23.778 Y-1.461 I3.1
G1 X29.778 Y-5.662
G2 X31.1 Y-8.201 I-1.778 J-2.539
G1 Y-15.201
G2 X30.539 Y-16.979 I-3.1
G1 X26.1 Y-23.319
G1 Y-94.681
G1 X30.539 Y-101.021
G2 X31.1 Y-102.799 I-2.539 J-1.778
G1 Y-109.799
G2 X29.778 Y-112.338 I-3.1
G1 X23.778 Y-116.539
G2 X18.9 Y-114 I-1.778 J2.539
G3 X18.4 Y-113.5 I-0.5 F213
G1 X17.9
G1 X17.84 Z-4.996
G1 X17.78 Z-4.985
G1 X17.723 Z-4.968
G1 X17.668 Z-4.943
G1 X17.616 Z-4.911
G1 X17.568 Z-4.874
G1 X17.526 Z-4.832
G1 X17.489 Z-4.784
G1 X17.457 Z-4.732
G1 X17.432 Z-4.677
G1 X17.415 Z-4.62
G1 X17.404 Z-4.56
G1 X17.4 Z-4.5
G1 Y-114.5 F300
G1 Z-7 F30
G1 X17.404 Z-7.06
G1 X17.415 Z-7.12
G1 X17.432 Z-7.177
G1 X17.457 Z-7.232
G1 X17.489 Z-7.284
G1 X17.526 Z-7.332
G1 X17.568 Z-7.374
G1 X17.616 Z-7.411
G1 X17.668 Z-7.443
G1 X17.723 Z-7.468
G1 X17.78 Z-7.485
G1 X17.84 Z-7.496
G1 X17.9 Z-7.5
G1 X18.4 F213
G3 X18.9 Y-114 J0.5
G1 Y-107.1 F300
G1 X13.1
G1 Y-114
G2 X8.222 Y-116.539 I-3.1
G1 X2.222 Y-112.338
G2 X0.9 Y-109.799 I1.778 J2.539
G1 Y-102.799
G2 X1.461 Y-101.021 I3.1
G1 X5.9 Y-94.681
G1 Y-23.319
G1 X1.461 Y-16.979
G2 X0.9 Y-15.201 I2.539 J1.778
G1 Y-8.201
G2 X2.222 Y-5.662 I3.1
G1 X8.222 Y-1.461
G2 X13.1 Y-4 I1.778 J-2.539
G1 Y-10.9
G1 X18.9
G1 Y-4
G2 X23.778 Y-1.461 I3.1
G1 X29.778 Y-5.662
G2 X31.1 Y-8.201 I-1.778 J-2.539
G1 Y-15.201
G2 X30.539 Y-16.979 I-3.1
G1 X26.1 Y-23.319
G1 Y-94.681
G1 X30.539 Y-101.021
G2 X31.1 Y-102.799 I-2.539 J-1.778
G1 Y-109.799
G2 X29.778 Y-112.338 I-3.1
G1 X23.778 Y-116.539
G2 X18.9 Y-114 I-1.778 J2.539
G3 X18.4 Y-113.5 I-0.5 F213
G1 X17.9
G1 X17.84 Z-7.496
G1 X17.78 Z-7.485
G1 X17.723 Z-7.468
G1 X17.668 Z-7.443
G1 X17.616 Z-7.411
G1 X17.568 Z-7.374
G1 X17.526 Z-7.332
G1 X17.489 Z-7.284
G1 X17.457 Z-7.232
G1 X17.432 Z-7.177
G1 X17.415 Z-7.12
G1 X17.404 Z-7.06
G1 X17.4 Z-7
G1 Y-114.5 F300
G1 Z-9.5 F30
G1 X17.404 Z-9.56
G1 X17.415 Z-9.62
G1 X17.432 Z-9.677
G1 X17.457 Z-9.732
G1 X17.489 Z-9.784
G1 X17.526 Z-9.832
G1 X17.568 Z-9.874
G1 X17.616 Z-9.911
G1 X17.668 Z-9.943
G1 X17.723 Z-9.968
G1 X17.78 Z-9.985
G1 X17.84 Z-9.996
G1 X17.9 Z-10
G1 X18.4 F213
G3 X18.9 Y-114 J0.5
G1 Y-107.1 F300
G1 X13.1
G1 Y-114
G2 X8.222 Y-116.539 I-3.1
G1 X2.222 Y-112.338
G2 X0.9 Y-109.799 I1.778 J2.539
G1 Y-102.799
G2 X1.461 Y-101.021 I3.1
G1 X5.9 Y-94.681
G1 Y-88.439
G1 Z-8
G1 Y-78.439
G1 Z-10 F30
G1 Y-64 F300
G1 Z-8
G1 Y-54
G1 Z-10 F30
G1 Y-39.561 F300
G1 Z-8
G1 Y-29.561
G1 Z-10 F30
G1 Y-23.319 F300
G1 X1.461 Y-16.979
G2 X0.9 Y-15.201 I2.539 J1.778
G1 Y-8.201
G2 X2.222 Y-5.662 I3.1
G1 X8.222 Y-1.461
G2 X13.1 Y-4 I1.778 J-2.539
G1 Y-10.9
G1 X18.9
G1 Y-4
G2 X23.778 Y-1.461 I3.1
G1 X29.778 Y-5.662
G2 X31.1 Y-8.201 I-1.778 J-2.539
G1 Y-15.201
G2 X30.539 Y-16.979 I-3.1
G1 X26.1 Y-23.319
G1 Y-29.561
G1 Z-8
G1 Y-39.561
G1 Z-10 F30
G1 Y-54 F300
G1 Z-8
G1 Y-64
G1 Z-10 F30
G1 Y-78.439 F300
G1 Z-8
G1 Y-88.439
G1 Z-10 F30
G1 Y-94.681 F300
G1 X30.539 Y-101.021
G2 X31.1 Y-102.799 I-2.539 J-1.778
G1 Y-109.799
G2 X29.778 Y-112.338 I-3.1
G1 X23.778 Y-116.539
G2 X18.9 Y-114 I-1.778 J2.539
G3 X18.4 Y-113.5 I-0.5 F213
G1 X17.9
G1 X17.84 Z-9.996
G1 X17.78 Z-9.985
G1 X17.723 Z-9.968
G1 X17.668 Z-9.943
G1 X17.616 Z-9.911
G1 X17.568 Z-9.874
G1 X17.526 Z-9.832
G1 X17.489 Z-9.784
G1 X17.457 Z-9.732
G1 X17.432 Z-9.677
G1 X17.415 Z-9.62
G1 X17.404 Z-9.56
G1 X17.4 Z-9.5
G1 Z15 F300

;2D Contour3 - Milling - Tool: 1 - flat end mill
;X Min: 1.5 - X Max: 30.5
;Y Min: -116.5 - Y Max: -1.5
;Z Min: -10 - Z Max: 15
M400
M117 2D Contour3
G1 Z15 F300
G1 X18 Y-114.5 F2500
G1 Z5 F300
G1 Z1 F30
G1 Z-9.5
G1 X18.004 Z-9.56
G1 X18.015 Z-9.62
G1 X18.032 Z-9.677
G1 X18.057 Z-9.732
G1 X18.089 Z-9.784
G1 X18.126 Z-9.832
G1 X18.168 Z-9.874
G1 X18.216 Z-9.911
G1 X18.268 Z-9.943
G1 X18.323 Z-9.968
G1 X18.38 Z-9.985
G1 X18.44 Z-9.996
G1 X18.5 Z-10
G1 X19 F213
G3 X19.5 Y-114 J0.5
G1 Y-106.5 F200
G1 X12.5
G1 Y-114
G2 X8.566 Y-116.048 I-2.5
G1 X2.566 Y-111.847
G2 X1.5 Y-109.799 I1.434 J2.048
G1 Y-102.799
G2 X1.952 Y-101.365 I2.5
G1 X6.5 Y-94.87
G1 Y-88.439
G1 Z-8
G1 Y-78.439
G1 Z-10 F30
G1 Y-64 F200
G1 Z-8
G1 Y-54
G1 Z-10 F30
G1 Y-39.561 F200
G1 Z-8
G1 Y-29.561
G1 Z-10 F30
G1 Y-23.13 F200
G1 X1.952 Y-16.635
G2 X1.5 Y-15.201 I2.048 J1.434
G1 Y-8.201
G2 X2.566 Y-6.153 I2.5
G1 X8.566 Y-1.952
G2 X12.5 Y-4 I1.434 J-2.048
G1 Y-11.5
G1 X19.5
G1 Y-4
G2 X23.434 Y-1.952 I2.5
G1 X29.434 Y-6.153
G2 X30.5 Y-8.201 I-1.434 J-2.048
G1 Y-15.201
G2 X30.048 Y-16.635 I-2.5
G1 X25.5 Y-23.13
G1 Y-29.561
G1 Z-8
G1 Y-39.561
G1 Z-10 F30
G1 Y-54 F200
G1 Z-8
G1 Y-64
G1 Z-10 F30
G1 Y-78.439 F200
G1 Z-8
G1 Y-88.439
G1 Z-10 F30
G1 Y-94.87 F200
G1 X30.048 Y-101.365
G2 X30.5 Y-102.799 I-2.048 J-1.434
G1 Y-109.799
G2 X29.434 Y-111.847 I-2.5
G1 X23.434 Y-116.048
G2 X19.5 Y-114 I-1.434 J2.048
G1 Y-106.5
G1 X12.5
G1 Y-114
G2 X8.566 Y-116.048 I-2.5
G1 X2.566 Y-111.847
G2 X1.5 Y-109.799 I1.434 J2.048
G1 Y-102.799
G2 X1.952 Y-101.365 I2.5
G1 X6.5 Y-94.87
G1 Y-88.439
G1 Z-8
G1 Y-78.439
G1 Z-10 F30
G1 Y-64 F200
G1 Z-8
G1 Y-54
G1 Z-10 F30
G1 Y-39.561 F200
G1 Z-8
G1 Y-29.561
G1 Z-10 F30
G1 Y-23.13 F200
G1 X1.952 Y-16.635
G2 X1.5 Y-15.201 I2.048 J1.434
G1 Y-8.201
G2 X2.566 Y-6.153 I2.5
G1 X8.566 Y-1.952
G2 X12.5 Y-4 I1.434 J-2.048
G1 Y-11.5
G1 X19.5
G1 Y-4
G2 X23.434 Y-1.952 I2.5
G1 X29.434 Y-6.153
G2 X30.5 Y-8.201 I-1.434 J-2.048
G1 Y-15.201
G2 X30.048 Y-16.635 I-2.5
G1 X25.5 Y-23.13
G1 Y-29.561
G1 Z-8
G1 Y-39.561
G1 Z-10 F30
G1 Y-54 F200
G1 Z-8
G1 Y-64
G1 Z-10 F30
G1 Y-78.439 F200
G1 Z-8
G1 Y-88.439
G1 Z-10 F30
G1 Y-94.87 F200
G1 X30.048 Y-101.365
G2 X30.5 Y-102.799 I-2.048 J-1.434
G1 Y-109.799
G2 X29.434 Y-111.847 I-2.5
G1 X23.434 Y-116.048
G2 X19.5 Y-114 I-1.434 J2.048
G3 X19 Y-113.5 I-0.5 F213
G1 X18.5
G1 X18.44 Z-9.996
G1 X18.38 Z-9.985
G1 X18.323 Z-9.968
G1 X18.268 Z-9.943
G1 X18.216 Z-9.911
G1 X18.168 Z-9.874
G1 X18.126 Z-9.832
G1 X18.089 Z-9.784
G1 X18.057 Z-9.732
G1 X18.032 Z-9.677
G1 X18.015 Z-9.62
G1 X18.004 Z-9.56
G1 X18 Z-9.5
G1 Z15 F300

M400
M117 Job end
G1 X0 Y0 F2500
G1 Z0 F300
