;Fusion 360 CAM 2.0.6258
;Posts processor: MPCNC_Mill_Laser.cps
;Gcode generated: Monday, September 02, 2019 5:59:30 PM GMT
;Document: Biela superior v3
;Setup: Setup1

G90
G21
M84 S0
G92 X0 Y0 Z0

;Probe tool - Not yet implemented

;2D Contour1 - Milling - Tool: 2 - flat end mill
;X Min: -10.5 - X Max: 79.5
;Y Min: -94.51 - Y Max: 10.5
;Z Min: -6 - Z Max: 15
M400
M117 2D Contour1
G1 Z15 F300
G1 X34 Y-0.5 F2500
G1 Z5 F300
G1 Z2.5 F30
G1 Z-1
G1 X34.004 Z-1.06
G1 X34.015 Z-1.12
G1 X34.032 Z-1.177
G1 X34.057 Z-1.232
G1 X34.089 Z-1.284
G1 X34.126 Z-1.332
G1 X34.168 Z-1.374
G1 X34.216 Z-1.411
G1 X34.268 Z-1.443
G1 X34.323 Z-1.468
G1 X34.38 Z-1.485
G1 X34.44 Z-1.496
G1 X34.5 Z-1.5
G1 X35 F213
G3 X35.5 Y0 J0.5
G2 X56.5 I10.5 F200
G1 Y-84.01
G2 X35.5 I-10.5
G1 Y0
G3 X35 Y0.5 I-0.5 F213
G1 X34.5
G1 X34.44 Z-1.496
G1 X34.38 Z-1.485
G1 X34.323 Z-1.468
G1 X34.268 Z-1.443
G1 X34.216 Z-1.411
G1 X34.168 Z-1.374
G1 X34.126 Z-1.332
G1 X34.089 Z-1.284
G1 X34.057 Z-1.232
G1 X34.032 Z-1.177
G1 X34.015 Z-1.12
G1 X34.004 Z-1.06
G1 X34 Z-1
G1 Z5 F300
G1 X34.998 Y0.547 F2500
G1 Z2.5 F30
G1 Z-1
G1 X34.994 Z-1.06
G1 X34.983 Z-1.12
G1 X34.965 Z-1.177
G1 X34.941 Z-1.232
G1 X34.909 Z-1.284
G1 X34.872 Z-1.332
G1 X34.83 Z-1.374
G1 X34.782 Y0.546 Z-1.411
G1 X34.73 Z-1.443
G1 X34.675 Z-1.468
G1 X34.618 Z-1.485
G1 X34.558 Y0.545 Z-1.496
G1 X34.498 Z-1.5
G1 X33.998 Y0.543 F213
G3 X33.5 Y0.041 I0.002 J-0.5
G2 Y0 I-10.5 J-0.041 F200
G1 Y-84.01
G2 X12.5 I-10.5
G1 Y0
G2 X33.5 Y0.041 I10.5
G3 X34.002 Y-0.457 I0.5 J0.002 F213
G1 X34.502 Y-0.455
G1 X34.562 Z-1.496
G1 X34.622 Y-0.454 Z-1.485
G1 X34.679 Z-1.468
G1 X34.734 Z-1.443
G1 X34.786 Z-1.411
G1 X34.833 Y-0.453 Z-1.374
G1 X34.876 Z-1.332
G1 X34.913 Z-1.284
G1 X34.945 Z-1.232
G1 X34.969 Z-1.177
G1 X34.987 Z-1.12
G1 X34.998 Z-1.06
G1 X35.002 Z-1
G1 Z5 F300
G1 X57 Y-0.5 F2500
G1 Z2.5 F30
G1 Z-1
G1 X57.004 Z-1.06
G1 X57.015 Z-1.12
G1 X57.032 Z-1.177
G1 X57.057 Z-1.232
G1 X57.089 Z-1.284
G1 X57.126 Z-1.332
G1 X57.168 Z-1.374
G1 X57.216 Z-1.411
G1 X57.268 Z-1.443
G1 X57.323 Z-1.468
G1 X57.38 Z-1.485
G1 X57.44 Z-1.496
G1 X57.5 Z-1.5
G1 X58 F213
G3 X58.5 Y0 J0.5
G2 X79.5 I10.5 F200
G1 Y-84.01
G2 X75.824 Y-91.99 I-10.5
G2 X69 Y-94.51 I-6.824 J7.98
G2 X58.5 Y-84.01 J10.5
G1 Y0
G3 X58 Y0.5 I-0.5 F213
G1 X57.5
G1 X57.44 Z-1.496
G1 X57.38 Z-1.485
G1 X57.323 Z-1.468
G1 X57.268 Z-1.443
G1 X57.216 Z-1.411
G1 X57.168 Z-1.374
G1 X57.126 Z-1.332
G1 X57.089 Z-1.284
G1 X57.057 Z-1.232
G1 X57.032 Z-1.177
G1 X57.015 Z-1.12
G1 X57.004 Z-1.06
G1 X57 Z-1
G1 Z5 F300
G1 X57.998 Y0.547 F2500
G1 Z1 F30
G1 Z-2.5
G1 X57.994 Z-2.56
G1 X57.983 Z-2.62
G1 X57.965 Z-2.677
G1 X57.941 Z-2.732
G1 X57.909 Z-2.784
G1 X57.872 Z-2.832
G1 X57.83 Z-2.874
G1 X57.782 Y0.546 Z-2.911
G1 X57.73 Z-2.943
G1 X57.675 Z-2.968
G1 X57.618 Z-2.985
G1 X57.558 Y0.545 Z-2.996
G1 X57.498 Z-3
G1 X56.998 Y0.543 F213
G3 X56.5 Y0.041 I0.002 J-0.5
G2 Y0 I-10.5 J-0.041 F200
G1 Y-84.01
G2 X35.5 I-10.5
G1 Y0
G2 X56.5 Y0.041 I10.5
G3 X57.002 Y-0.457 I0.5 J0.002 F213
G1 X57.502 Y-0.455
G1 X57.562 Z-2.996
G1 X57.622 Y-0.454 Z-2.985
G1 X57.679 Z-2.968
G1 X57.734 Z-2.943
G1 X57.786 Z-2.911
G1 X57.833 Y-0.453 Z-2.874
G1 X57.876 Z-2.832
G1 X57.913 Z-2.784
G1 X57.945 Z-2.732
G1 X57.969 Z-2.677
G1 X57.987 Z-2.62
G1 X57.998 Z-2.56
G1 X58.002 Z-2.5
G1 Z5 F300
G1 X57 Y-0.5 F2500
G1 Z1 F30
G1 Z-2.5
G1 X57.004 Z-2.56
G1 X57.015 Z-2.62
G1 X57.032 Z-2.677
G1 X57.057 Z-2.732
G1 X57.089 Z-2.784
G1 X57.126 Z-2.832
G1 X57.168 Z-2.874
G1 X57.216 Z-2.911
G1 X57.268 Z-2.943
G1 X57.323 Z-2.968
G1 X57.38 Z-2.985
G1 X57.44 Z-2.996
G1 X57.5 Z-3
G1 X58 F213
G3 X58.5 Y0 J0.5
G2 X79.5 I10.5 F200
G1 Y-84.01
G2 X75.824 Y-91.99 I-10.5
G2 X69 Y-94.51 I-6.824 J7.98
G2 X58.5 Y-84.01 J10.5
G1 Y0
G3 X58 Y0.5 I-0.5 F213
G1 X57.5
G1 X57.44 Z-2.996
G1 X57.38 Z-2.985
G1 X57.323 Z-2.968
G1 X57.268 Z-2.943
G1 X57.216 Z-2.911
G1 X57.168 Z-2.874
G1 X57.126 Z-2.832
G1 X57.089 Z-2.784
G1 X57.057 Z-2.732
G1 X57.032 Z-2.677
G1 X57.015 Z-2.62
G1 X57.004 Z-2.56
G1 X57 Z-2.5
G1 Z5 F300
G1 Y-0.5 F2500
G1 Z-0.5 F30
G1 Z-4
G1 X57.004 Z-4.06
G1 X57.015 Z-4.12
G1 X57.032 Z-4.177
G1 X57.057 Z-4.232
G1 X57.089 Z-4.284
G1 X57.126 Z-4.332
G1 X57.168 Z-4.374
G1 X57.216 Z-4.411
G1 X57.268 Z-4.443
G1 X57.323 Z-4.468
G1 X57.38 Z-4.485
G1 X57.44 Z-4.496
G1 X57.5 Z-4.5
G1 X58 F213
G3 X58.5 Y0 J0.5
G2 X79.5 I10.5 F200
G1 Y-84.01
G2 X75.824 Y-91.99 I-10.5
G2 X69 Y-94.51 I-6.824 J7.98
G2 X58.5 Y-84.01 J10.5
G1 Y0
G3 X58 Y0.5 I-0.5 F213
G1 X57.5
G1 X57.44 Z-4.496
G1 X57.38 Z-4.485
G1 X57.323 Z-4.468
G1 X57.268 Z-4.443
G1 X57.216 Z-4.411
G1 X57.168 Z-4.374
G1 X57.126 Z-4.332
G1 X57.089 Z-4.284
G1 X57.057 Z-4.232
G1 X57.032 Z-4.177
G1 X57.015 Z-4.12
G1 X57.004 Z-4.06
G1 X57 Z-4
G1 Z5 F300
G1 X11.998 Y0.547 F2500
G1 Z2.5 F30
G1 Z-1
G1 X11.994 Z-1.06
G1 X11.983 Z-1.12
G1 X11.965 Z-1.177
G1 X11.941 Z-1.232
G1 X11.909 Z-1.284
G1 X11.872 Z-1.332
G1 X11.83 Z-1.374
G1 X11.782 Y0.546 Z-1.411
G1 X11.73 Z-1.443
G1 X11.675 Z-1.468
G1 X11.618 Z-1.485
G1 X11.558 Y0.545 Z-1.496
G1 X11.498 Z-1.5
G1 X10.998 Y0.543 F213
G3 X10.5 Y0.041 I0.002 J-0.5
G2 Y0 I-10.5 J-0.041 F200
G1 Y-84.01
G2 X-10.5 I-10.5
G1 Y0
G2 X10.5 Y0.041 I10.5
G3 X11.002 Y-0.457 I0.5 J0.002 F213
G1 X11.502 Y-0.455
G1 X11.562 Z-1.496
G1 X11.622 Y-0.454 Z-1.485
G1 X11.679 Z-1.468
G1 X11.734 Z-1.443
G1 X11.786 Z-1.411
G1 X11.833 Y-0.453 Z-1.374
G1 X11.876 Z-1.332
G1 X11.913 Z-1.284
G1 X11.945 Z-1.232
G1 X11.969 Z-1.177
G1 X11.987 Z-1.12
G1 X11.998 Z-1.06
G1 X12.002 Z-1
G1 Z5 F300
G1 X11 Y-0.5 F2500
G1 Z1 F30
G1 Z-2.5
G1 X11.004 Z-2.56
G1 X11.015 Z-2.62
G1 X11.032 Z-2.677
G1 X11.057 Z-2.732
G1 X11.089 Z-2.784
G1 X11.126 Z-2.832
G1 X11.168 Z-2.874
G1 X11.216 Z-2.911
G1 X11.268 Z-2.943
G1 X11.323 Z-2.968
G1 X11.38 Z-2.985
G1 X11.44 Z-2.996
G1 X11.5 Z-3
G1 X12 F213
G3 X12.5 Y0 J0.5
G2 X33.5 I10.5 F200
G1 Y-84.01
G2 X12.5 I-10.5
G1 Y0
G3 X12 Y0.5 I-0.5 F213
G1 X11.5
G1 X11.44 Z-2.996
G1 X11.38 Z-2.985
G1 X11.323 Z-2.968
G1 X11.268 Z-2.943
G1 X11.216 Z-2.911
G1 X11.168 Z-2.874
G1 X11.126 Z-2.832
G1 X11.089 Z-2.784
G1 X11.057 Z-2.732
G1 X11.032 Z-2.677
G1 X11.015 Z-2.62
G1 X11.004 Z-2.56
G1 X11 Z-2.5
G1 Z5 F300
G1 X11.998 Y0.547 F2500
G1 Z1 F30
G1 Z-2.5
G1 X11.994 Z-2.56
G1 X11.983 Z-2.62
G1 X11.965 Z-2.677
G1 X11.941 Z-2.732
G1 X11.909 Z-2.784
G1 X11.872 Z-2.832
G1 X11.83 Z-2.874
G1 X11.782 Y0.546 Z-2.911
G1 X11.73 Z-2.943
G1 X11.675 Z-2.968
G1 X11.618 Z-2.985
G1 X11.558 Y0.545 Z-2.996
G1 X11.498 Z-3
G1 X10.998 Y0.543 F213
G3 X10.5 Y0.041 I0.002 J-0.5
G2 Y0 I-10.5 J-0.041 F200
G1 Y-84.01
G2 X-10.5 I-10.5
G1 Y0
G2 X10.5 Y0.041 I10.5
G3 X11.002 Y-0.457 I0.5 J0.002 F213
G1 X11.502 Y-0.455
G1 X11.562 Z-2.996
G1 X11.622 Y-0.454 Z-2.985
G1 X11.679 Z-2.968
G1 X11.734 Z-2.943
G1 X11.786 Z-2.911
G1 X11.833 Y-0.453 Z-2.874
G1 X11.876 Z-2.832
G1 X11.913 Z-2.784
G1 X11.945 Z-2.732
G1 X11.969 Z-2.677
G1 X11.987 Z-2.62
G1 X11.998 Z-2.56
G1 X12.002 Z-2.5
G1 Z5 F300
G1 X11 Y-0.5 F2500
G1 Z-0.5 F30
G1 Z-4
G1 X11.004 Z-4.06
G1 X11.015 Z-4.12
G1 X11.032 Z-4.177
G1 X11.057 Z-4.232
G1 X11.089 Z-4.284
G1 X11.126 Z-4.332
G1 X11.168 Z-4.374
G1 X11.216 Z-4.411
G1 X11.268 Z-4.443
G1 X11.323 Z-4.468
G1 X11.38 Z-4.485
G1 X11.44 Z-4.496
G1 X11.5 Z-4.5
G1 X12 F213
G3 X12.5 Y0 J0.5
G2 X33.5 I10.5 F200
G1 Y-84.01
G2 X12.5 I-10.5
G1 Y0
G3 X12 Y0.5 I-0.5 F213
G1 X11.5
G1 X11.44 Z-4.496
G1 X11.38 Z-4.485
G1 X11.323 Z-4.468
G1 X11.268 Z-4.443
G1 X11.216 Z-4.411
G1 X11.168 Z-4.374
G1 X11.126 Z-4.332
G1 X11.089 Z-4.284
G1 X11.057 Z-4.232
G1 X11.032 Z-4.177
G1 X11.015 Z-4.12
G1 X11.004 Z-4.06
G1 X11 Z-4
G1 Z5 F300
G1 X11.998 Y0.547 F2500
G1 Z-0.5 F30
G1 Z-4
G1 X11.994 Z-4.06
G1 X11.983 Z-4.12
G1 X11.965 Z-4.177
G1 X11.941 Z-4.232
G1 X11.909 Z-4.284
G1 X11.872 Z-4.332
G1 X11.83 Z-4.374
G1 X11.782 Y0.546 Z-4.411
G1 X11.73 Z-4.443
G1 X11.675 Z-4.468
G1 X11.618 Z-4.485
G1 X11.558 Y0.545 Z-4.496
G1 X11.498 Z-4.5
G1 X10.998 Y0.543 F213
G3 X10.5 Y0.041 I0.002 J-0.5
G2 Y0 I-10.5 J-0.041 F200
G1 Y-84.01
G2 X-10.5 I-10.5
G1 Y0
G2 X10.5 Y0.041 I10.5
G3 X11.002 Y-0.457 I0.5 J0.002 F213
G1 X11.502 Y-0.455
G1 X11.562 Z-4.496
G1 X11.622 Y-0.454 Z-4.485
G1 X11.679 Z-4.468
G1 X11.734 Z-4.443
G1 X11.786 Z-4.411
G1 X11.833 Y-0.453 Z-4.374
G1 X11.876 Z-4.332
G1 X11.913 Z-4.284
G1 X11.945 Z-4.232
G1 X11.969 Z-4.177
G1 X11.987 Z-4.12
G1 X11.998 Z-4.06
G1 X12.002 Z-4
G1 Z5 F300
G1 X12 Y0.5 F2500
G1 Z-2 F30
G1 Z-5.5
G1 X11.996 Z-5.56
G1 X11.985 Z-5.62
G1 X11.968 Z-5.677
G1 X11.943 Z-5.732
G1 X11.911 Z-5.784
G1 X11.874 Z-5.832
G1 X11.832 Z-5.874
G1 X11.784 Z-5.911
G1 X11.732 Z-5.943
G1 X11.677 Z-5.968
G1 X11.62 Z-5.985
G1 X11.56 Z-5.996
G1 X11.5 Z-6
G1 X11 F213
G3 X10.5 Y0 J-0.5
G1 Y-16.002 F200
G1 Z-4.75
G1 Y-26.002
G1 Z-6 F30
G1 Y-58.007 F200
G1 Z-4.75
G1 Y-68.007
G1 Z-6 F30
G1 Y-84.01 F200
G2 X-10.5 I-10.5
G1 Y-68.007
G1 Z-4.75
G1 Y-58.007
G1 Z-6 F30
G1 Y-26.002 F200
G1 Z-4.75
G1 Y-16.002
G1 Z-6 F30
G1 Y0 F200
G2 X10.5 I10.5
G3 X11 Y-0.5 I0.5 F213
G1 X11.5
G1 X11.56 Z-5.996
G1 X11.62 Z-5.985
G1 X11.677 Z-5.968
G1 X11.732 Z-5.943
G1 X11.784 Z-5.911
G1 X11.832 Z-5.874
G1 X11.874 Z-5.832
G1 X11.911 Z-5.784
G1 X11.943 Z-5.732
G1 X11.968 Z-5.677
G1 X11.985 Z-5.62
G1 X11.996 Z-5.56
G1 X12 Z-5.5
G1 Z5 F300
G1 X34 F2500
G1 Z-0.5 F30
G1 Z-4
G1 X34.004 Z-4.06
G1 X34.015 Z-4.12
G1 X34.032 Z-4.177
G1 X34.057 Z-4.232
G1 X34.089 Z-4.284
G1 X34.126 Z-4.332
G1 X34.168 Z-4.374
G1 X34.216 Z-4.411
G1 X34.268 Z-4.443
G1 X34.323 Z-4.468
G1 X34.38 Z-4.485
G1 X34.44 Z-4.496
G1 X34.5 Z-4.5
G1 X35 F213
G3 X35.5 Y0 J0.5
G2 X56.5 I10.5 F200
G1 Y-84.01
G2 X35.5 I-10.5
G1 Y0
G3 X35 Y0.5 I-0.5 F213
G1 X34.5
G1 X34.44 Z-4.496
G1 X34.38 Z-4.485
G1 X34.323 Z-4.468
G1 X34.268 Z-4.443
G1 X34.216 Z-4.411
G1 X34.168 Z-4.374
G1 X34.126 Z-4.332
G1 X34.089 Z-4.284
G1 X34.057 Z-4.232
G1 X34.032 Z-4.177
G1 X34.015 Z-4.12
G1 X34.004 Z-4.06
G1 X34 Z-4
G1 Z5 F300
G1 X34.998 Y0.547 F2500
G1 Z-2 F30
G1 Z-5.5
G1 X34.994 Z-5.56
G1 X34.983 Z-5.62
G1 X34.965 Z-5.677
G1 X34.941 Z-5.732
G1 X34.909 Z-5.784
G1 X34.872 Z-5.832
G1 X34.83 Z-5.874
G1 X34.782 Y0.546 Z-5.911
G1 X34.73 Z-5.943
G1 X34.675 Z-5.968
G1 X34.618 Z-5.985
G1 X34.558 Y0.545 Z-5.996
G1 X34.498 Z-6
G1 X33.998 Y0.543 F213
G3 X33.5 Y0.041 I0.002 J-0.5
G2 Y0 I-10.5 J-0.041 F200
G1 Y-16.002
G1 Z-4.75
G1 Y-26.002
G1 Z-6 F30
G1 Y-58.007 F200
G1 Z-4.75
G1 Y-68.007
G1 Z-6 F30
G1 Y-84.01 F200
G2 X12.5 I-10.5
G1 Y-68.007
G1 Z-4.75
G1 Y-58.007
G1 Z-6 F30
G1 Y-26.002 F200
G1 Z-4.75
G1 Y-16.002
G1 Z-6 F30
G1 Y0 F200
G2 X33.5 Y0.041 I10.5
G3 X34.002 Y-0.457 I0.5 J0.002 F213
G1 X34.502 Y-0.455
G1 X34.562 Z-5.996
G1 X34.622 Y-0.454 Z-5.985
G1 X34.679 Z-5.968
G1 X34.734 Z-5.943
G1 X34.786 Z-5.911
G1 X34.833 Y-0.453 Z-5.874
G1 X34.876 Z-5.832
G1 X34.913 Z-5.784
G1 X34.945 Z-5.732
G1 X34.969 Z-5.677
G1 X34.987 Z-5.62
G1 X34.998 Z-5.56
G1 X35.002 Z-5.5
G1 Z5 F300
G1 X34 Y-0.5 F2500
G1 Z-2 F30
G1 Z-5.5
G1 X34.004 Z-5.56
G1 X34.015 Z-5.62
G1 X34.032 Z-5.677
G1 X34.057 Z-5.732
G1 X34.089 Z-5.784
G1 X34.126 Z-5.832
G1 X34.168 Z-5.874
G1 X34.216 Z-5.911
G1 X34.268 Z-5.943
G1 X34.323 Z-5.968
G1 X34.38 Z-5.985
G1 X34.44 Z-5.996
G1 X34.5 Z-6
G1 X35 F213
G3 X35.5 Y0 J0.5
G2 X56.5 I10.5 F200
G1 Y-16.002
G1 Z-4.75
G1 Y-26.002
G1 Z-6 F30
G1 Y-58.007 F200
G1 Z-4.75
G1 Y-68.007
G1 Z-6 F30
G1 Y-84.01 F200
G2 X35.5 I-10.5
G1 Y-68.007
G1 Z-4.75
G1 Y-58.007
G1 Z-6 F30
G1 Y-26.002 F200
G1 Z-4.75
G1 Y-16.002
G1 Z-6 F30
G1 Y0 F200
G3 X35 Y0.5 I-0.5 F213
G1 X34.5
G1 X34.44 Z-5.996
G1 X34.38 Z-5.985
G1 X34.323 Z-5.968
G1 X34.268 Z-5.943
G1 X34.216 Z-5.911
G1 X34.168 Z-5.874
G1 X34.126 Z-5.832
G1 X34.089 Z-5.784
G1 X34.057 Z-5.732
G1 X34.032 Z-5.677
G1 X34.015 Z-5.62
G1 X34.004 Z-5.56
G1 X34 Z-5.5
G1 Z5 F300
G1 X57 Y-0.5 F2500
G1 Z-2 F30
G1 Z-5.5
G1 X57.004 Z-5.56
G1 X57.015 Z-5.62
G1 X57.032 Z-5.677
G1 X57.057 Z-5.732
G1 X57.089 Z-5.784
G1 X57.126 Z-5.832
G1 X57.168 Z-5.874
G1 X57.216 Z-5.911
G1 X57.268 Z-5.943
G1 X57.323 Z-5.968
G1 X57.38 Z-5.985
G1 X57.44 Z-5.996
G1 X57.5 Z-6
G1 X58 F213
G3 X58.5 Y0 J0.5
G2 X79.5 I10.5 F200
G1 Y-16.002
G1 Z-4.75
G1 Y-26.002
G1 Z-6 F30
G1 Y-58.007 F200
G1 Z-4.75
G1 Y-68.007
G1 Z-6 F30
G1 Y-84.01 F200
G2 X75.824 Y-91.99 I-10.5
G2 X69 Y-94.51 I-6.824 J7.98
G2 X58.5 Y-84.01 J10.5
G1 Y-68.007
G1 Z-4.75
G1 Y-58.007
G1 Z-6 F30
G1 Y-26.002 F200
G1 Z-4.75
G1 Y-16.002
G1 Z-6 F30
G1 Y0 F200
G3 X58 Y0.5 I-0.5 F213
G1 X57.5
G1 X57.44 Z-5.996
G1 X57.38 Z-5.985
G1 X57.323 Z-5.968
G1 X57.268 Z-5.943
G1 X57.216 Z-5.911
G1 X57.168 Z-5.874
G1 X57.126 Z-5.832
G1 X57.089 Z-5.784
G1 X57.057 Z-5.732
G1 X57.032 Z-5.677
G1 X57.015 Z-5.62
G1 X57.004 Z-5.56
G1 X57 Z-5.5
G1 Z15 F300

M400
M117 Job end
G1 X0 Y0 F2500
G1 Z0 F300
