;Fusion 360 CAM 2.0.6258
;Posts processor: MPCNC_Mill_Laser.cps
;Gcode generated: Monday, September 02, 2019 6:22:10 PM GMT
;Document: Ternario inferior v4
;Setup: Setup1

G90
G21
M84 S0
G92 X0 Y0 Z0

;Probe tool - Not yet implemented

;2D Contour1 - Milling - Tool: 2 - flat end mill
;X Min: -21.211 - X Max: 107.987
;Y Min: -196.535 - Y Max: 10.5
;Z Min: -6 - Z Max: 15
M400
M117 2D Contour1
G1 Z15 F300
G1 X85.867 Y-92.799 F2500
G1 Z5 F300
G1 Z2.5 F30
G1 Z-1
G1 Y-92.803 Z-1.06
G1 Y-92.813 Z-1.12
G1 Y-92.831 Z-1.177
G1 Y-92.856 Z-1.232
G1 Y-92.887 Z-1.284
G1 Y-92.925 Z-1.332
G1 Y-92.967 Z-1.374
G1 Y-93.015 Z-1.411
G1 Y-93.067 Z-1.443
G1 Y-93.122 Z-1.468
G1 Y-93.179 Z-1.485
G1 Y-93.239 Z-1.496
G1 Y-93.299 Z-1.5
G1 Y-93.799 F213
G3 X86.367 Y-94.299 I0.5
G2 X90.704 Y-107.918 J-7.5 F200
G1 X-9.374 Y-178.858
G2 X-21.197 Y-172.274 I-4.337 J6.119
G1 X-16.8 Y-101.335
G2 X-9.315 Y-94.299 I7.486 J-0.463
G1 X86.367
G3 X86.867 Y-93.799 J0.5 F213
G1 Y-93.299
G1 Y-93.239 Z-1.496
G1 Y-93.179 Z-1.485
G1 Y-93.122 Z-1.468
G1 Y-93.067 Z-1.443
G1 Y-93.015 Z-1.411
G1 Y-92.967 Z-1.374
G1 Y-92.925 Z-1.332
G1 Y-92.887 Z-1.284
G1 Y-92.856 Z-1.232
G1 Y-92.831 Z-1.177
G1 Y-92.813 Z-1.12
G1 Y-92.803 Z-1.06
G1 Y-92.799 Z-1
G1 Z5 F300
G1 X-8.594 Y-84.681 F2500
G1 Z2.5 F30
G1 Z-1
G1 X-8.591 Z-1.06
G1 X-8.58 Z-1.12
G1 X-8.562 Z-1.177
G1 X-8.537 Z-1.232
G1 X-8.506 Y-84.682 Z-1.284
G1 X-8.468 Z-1.332
G1 X-8.426 Z-1.374
G1 X-8.378 Z-1.411
G1 X-8.327 Y-84.683 Z-1.443
G1 X-8.271 Z-1.468
G1 X-8.214 Z-1.485
G1 X-8.154 Y-84.684 Z-1.496
G1 X-8.094 Z-1.5
G1 X-7.594 Y-84.687 F213
G3 X-7.091 Y-84.19 I0.003 J0.5
G2 X-3.928 Y-78.117 I7.5 J-0.046 F200
G1 X96.149 Y-7.177
G2 X107.972 Y-13.76 I4.337 J-6.118
G1 X103.576 Y-84.7
G2 X96.09 Y-91.736 I-7.486 J0.464
G1 X0.409
G2 X-7.091 Y-84.19 J7.5
G3 X-7.588 Y-83.687 I-0.5 J0.003 F213
G1 X-8.088 Y-83.684
G1 X-8.148 Z-1.496
G1 X-8.208 Y-83.683 Z-1.485
G1 X-8.265 Z-1.468
G1 X-8.32 Z-1.443
G1 X-8.372 Y-83.682 Z-1.411
G1 X-8.42 Z-1.374
G1 X-8.462 Z-1.332
G1 X-8.5 Z-1.284
G1 X-8.531 Y-83.681 Z-1.232
G1 X-8.556 Z-1.177
G1 X-8.574 Z-1.12
G1 X-8.584 Z-1.06
G1 X-8.588 Z-1
G1 Z5 F300
G1 X95.861 Y-5.906 F2500
G1 Z2.5 F30
G1 Z-1
G1 X95.859 Y-5.903 Z-1.06
G1 X95.852 Y-5.894 Z-1.12
G1 X95.842 Y-5.879 Z-1.177
G1 X95.828 Y-5.859 Z-1.232
G1 X95.81 Y-5.834 Z-1.284
G1 X95.788 Y-5.803 Z-1.332
G1 X95.763 Y-5.768 Z-1.374
G1 X95.736 Y-5.73 Z-1.411
G1 X95.706 Y-5.687 Z-1.443
G1 X95.674 Y-5.642 Z-1.468
G1 X95.641 Y-5.595 Z-1.485
G1 X95.606 Y-5.547 Z-1.496
G1 X95.572 Y-5.498 Z-1.5
G1 X95.282 Y-5.09 F213
G3 X94.585 Y-4.971 I-0.408 J-0.289
G1 X-2.879 Y-74.058 F200
G2 X-14.702 Y-67.476 I-4.337 J6.119
G1 X-10.305 Y3.464
G2 X-2.82 Y10.5 I7.486 J-0.464
G1 X92.862
G2 X97.199 Y-3.119 J-7.5
G1 X94.626 Y-4.942
G1 X94.585 Y-4.971
G3 X94.467 Y-5.668 I0.289 J-0.408 F213
G1 X94.756 Y-6.076
G1 X94.791 Y-6.125 Z-1.496
G1 X94.825 Y-6.174 Z-1.485
G1 X94.858 Y-6.221 Z-1.468
G1 X94.89 Y-6.266 Z-1.443
G1 X94.92 Y-6.308 Z-1.411
G1 X94.948 Y-6.347 Z-1.374
G1 X94.972 Y-6.381 Z-1.332
G1 X94.994 Y-6.412 Z-1.284
G1 X95.012 Y-6.437 Z-1.232
G1 X95.026 Y-6.458 Z-1.177
G1 X95.037 Y-6.472 Z-1.12
G1 X95.043 Y-6.481 Z-1.06
G1 X95.045 Y-6.484 Z-1
G1 Z5 F300
G1 X-8.594 Y-84.681 F2500
G1 Z1 F30
G1 Z-2.5
G1 X-8.591 Z-2.56
G1 X-8.58 Z-2.62
G1 X-8.562 Z-2.677
G1 X-8.537 Z-2.732
G1 X-8.506 Y-84.682 Z-2.784
G1 X-8.468 Z-2.832
G1 X-8.426 Z-2.874
G1 X-8.378 Z-2.911
G1 X-8.327 Y-84.683 Z-2.943
G1 X-8.271 Z-2.968
G1 X-8.214 Z-2.985
G1 X-8.154 Y-84.684 Z-2.996
G1 X-8.094 Z-3
G1 X-7.594 Y-84.687 F213
G3 X-7.091 Y-84.19 I0.003 J0.5
G2 X-3.928 Y-78.117 I7.5 J-0.046 F200
G1 X96.149 Y-7.177
G2 X107.972 Y-13.76 I4.337 J-6.118
G1 X103.576 Y-84.7
G2 X96.09 Y-91.736 I-7.486 J0.464
G1 X0.409
G2 X-7.091 Y-84.19 J7.5
G3 X-7.588 Y-83.687 I-0.5 J0.003 F213
G1 X-8.088 Y-83.684
G1 X-8.148 Z-2.996
G1 X-8.208 Y-83.683 Z-2.985
G1 X-8.265 Z-2.968
G1 X-8.32 Z-2.943
G1 X-8.372 Y-83.682 Z-2.911
G1 X-8.42 Z-2.874
G1 X-8.462 Z-2.832
G1 X-8.5 Z-2.784
G1 X-8.531 Y-83.681 Z-2.732
G1 X-8.556 Z-2.677
G1 X-8.574 Z-2.62
G1 X-8.584 Z-2.56
G1 X-8.588 Z-2.5
G1 Z5 F300
G1 X95.861 Y-5.906 F2500
G1 Z1 F30
G1 Z-2.5
G1 X95.859 Y-5.903 Z-2.56
G1 X95.852 Y-5.894 Z-2.62
G1 X95.842 Y-5.879 Z-2.677
G1 X95.828 Y-5.859 Z-2.732
G1 X95.81 Y-5.834 Z-2.784
G1 X95.788 Y-5.803 Z-2.832
G1 X95.763 Y-5.768 Z-2.874
G1 X95.736 Y-5.73 Z-2.911
G1 X95.706 Y-5.687 Z-2.943
G1 X95.674 Y-5.642 Z-2.968
G1 X95.641 Y-5.595 Z-2.985
G1 X95.606 Y-5.547 Z-2.996
G1 X95.572 Y-5.498 Z-3
G1 X95.282 Y-5.09 F213
G3 X94.585 Y-4.971 I-0.408 J-0.289
G1 X-2.879 Y-74.058 F200
G2 X-14.702 Y-67.476 I-4.337 J6.119
G1 X-10.305 Y3.464
G2 X-2.82 Y10.5 I7.486 J-0.464
G1 X92.862
G2 X97.199 Y-3.119 J-7.5
G1 X94.626 Y-4.942
G1 X94.585 Y-4.971
G3 X94.467 Y-5.668 I0.289 J-0.408 F213
G1 X94.756 Y-6.076
G1 X94.791 Y-6.125 Z-2.996
G1 X94.825 Y-6.174 Z-2.985
G1 X94.858 Y-6.221 Z-2.968
G1 X94.89 Y-6.266 Z-2.943
G1 X94.92 Y-6.308 Z-2.911
G1 X94.948 Y-6.347 Z-2.874
G1 X94.972 Y-6.381 Z-2.832
G1 X94.994 Y-6.412 Z-2.784
G1 X95.012 Y-6.437 Z-2.732
G1 X95.026 Y-6.458 Z-2.677
G1 X95.037 Y-6.472 Z-2.62
G1 X95.043 Y-6.481 Z-2.56
G1 X95.045 Y-6.484 Z-2.5
G1 Z5 F300
G1 X95.861 Y-5.906 F2500
G1 Z-0.5 F30
G1 Z-4
G1 X95.859 Y-5.903 Z-4.06
G1 X95.852 Y-5.894 Z-4.12
G1 X95.842 Y-5.879 Z-4.177
G1 X95.828 Y-5.859 Z-4.232
G1 X95.81 Y-5.834 Z-4.284
G1 X95.788 Y-5.803 Z-4.332
G1 X95.763 Y-5.768 Z-4.374
G1 X95.736 Y-5.73 Z-4.411
G1 X95.706 Y-5.687 Z-4.443
G1 X95.674 Y-5.642 Z-4.468
G1 X95.641 Y-5.595 Z-4.485
G1 X95.606 Y-5.547 Z-4.496
G1 X95.572 Y-5.498 Z-4.5
G1 X95.282 Y-5.09 F213
G3 X94.585 Y-4.971 I-0.408 J-0.289
G1 X-2.879 Y-74.058 F200
G2 X-14.702 Y-67.476 I-4.337 J6.119
G1 X-10.305 Y3.464
G2 X-2.82 Y10.5 I7.486 J-0.464
G1 X92.862
G2 X97.199 Y-3.119 J-7.5
G1 X94.626 Y-4.942
G1 X94.585 Y-4.971
G3 X94.467 Y-5.668 I0.289 J-0.408 F213
G1 X94.756 Y-6.076
G1 X94.791 Y-6.125 Z-4.496
G1 X94.825 Y-6.174 Z-4.485
G1 X94.858 Y-6.221 Z-4.468
G1 X94.89 Y-6.266 Z-4.443
G1 X94.92 Y-6.308 Z-4.411
G1 X94.948 Y-6.347 Z-4.374
G1 X94.972 Y-6.381 Z-4.332
G1 X94.994 Y-6.412 Z-4.284
G1 X95.012 Y-6.437 Z-4.232
G1 X95.026 Y-6.458 Z-4.177
G1 X95.037 Y-6.472 Z-4.12
G1 X95.043 Y-6.481 Z-4.06
G1 X95.045 Y-6.484 Z-4
G1 Z5 F300
G1 X-14.258 Y-192.838 F2500
G1 Z2.5 F30
G1 Z-1
G1 X-14.255 Y-192.837 Z-1.06
G1 X-14.245 Y-192.833 Z-1.12
G1 X-14.228 Y-192.826 Z-1.177
G1 X-14.205 Y-192.817 Z-1.232
G1 X-14.176 Y-192.805 Z-1.284
G1 X-14.142 Y-192.791 Z-1.332
G1 X-14.102 Y-192.776 Z-1.374
G1 X-14.058 Y-192.758 Z-1.411
G1 X-14.01 Y-192.739 Z-1.443
G1 X-13.959 Y-192.718 Z-1.468
G1 X-13.905 Y-192.697 Z-1.485
G1 X-13.85 Y-192.675 Z-1.496
G1 X-13.794 Y-192.653 Z-1.5
G1 X-13.33 Y-192.467 F213
G3 X-13.051 Y-191.817 I-0.185 J0.464
G2 X-10.423 Y-182.916 I6.965 J2.782 F200
G1 X89.654 Y-111.976
G2 X101.477 Y-118.558 I4.337 J-6.119
G1 X97.081 Y-189.499
G2 X89.595 Y-196.535 I-7.486 J0.464
G1 X-6.086
G2 X-13.051 Y-191.817 J7.5
G3 X-13.701 Y-191.538 I-0.464 J-0.185 F213
G1 X-14.165 Y-191.724
G1 X-14.221 Y-191.746 Z-1.496
G1 X-14.276 Y-191.768 Z-1.485
G1 X-14.33 Y-191.79 Z-1.468
G1 X-14.381 Y-191.81 Z-1.443
G1 X-14.429 Y-191.829 Z-1.411
G1 X-14.473 Y-191.847 Z-1.374
G1 X-14.513 Y-191.863 Z-1.332
G1 X-14.547 Y-191.877 Z-1.284
G1 X-14.576 Y-191.888 Z-1.232
G1 X-14.599 Y-191.897 Z-1.177
G1 X-14.616 Y-191.904 Z-1.12
G1 X-14.626 Y-191.908 Z-1.06
G1 X-14.629 Y-191.909 Z-1
G1 Z5 F300
G1 X-14.258 Y-192.838 F2500
G1 Z1 F30
G1 Z-2.5
G1 X-14.255 Y-192.837 Z-2.56
G1 X-14.245 Y-192.833 Z-2.62
G1 X-14.228 Y-192.826 Z-2.677
G1 X-14.205 Y-192.817 Z-2.732
G1 X-14.176 Y-192.805 Z-2.784
G1 X-14.142 Y-192.791 Z-2.832
G1 X-14.102 Y-192.776 Z-2.874
G1 X-14.058 Y-192.758 Z-2.911
G1 X-14.01 Y-192.739 Z-2.943
G1 X-13.959 Y-192.718 Z-2.968
G1 X-13.905 Y-192.697 Z-2.985
G1 X-13.85 Y-192.675 Z-2.996
G1 X-13.794 Y-192.653 Z-3
G1 X-13.33 Y-192.467 F213
G3 X-13.051 Y-191.817 I-0.185 J0.464
G2 X-10.423 Y-182.916 I6.965 J2.782 F200
G1 X89.654 Y-111.976
G2 X101.477 Y-118.558 I4.337 J-6.119
G1 X97.081 Y-189.499
G2 X89.595 Y-196.535 I-7.486 J0.464
G1 X-6.086
G2 X-13.051 Y-191.817 J7.5
G3 X-13.701 Y-191.538 I-0.464 J-0.185 F213
G1 X-14.165 Y-191.724
G1 X-14.221 Y-191.746 Z-2.996
G1 X-14.276 Y-191.768 Z-2.985
G1 X-14.33 Y-191.79 Z-2.968
G1 X-14.381 Y-191.81 Z-2.943
G1 X-14.429 Y-191.829 Z-2.911
G1 X-14.473 Y-191.847 Z-2.874
G1 X-14.513 Y-191.863 Z-2.832
G1 X-14.547 Y-191.877 Z-2.784
G1 X-14.576 Y-191.888 Z-2.732
G1 X-14.599 Y-191.897 Z-2.677
G1 X-14.616 Y-191.904 Z-2.62
G1 X-14.626 Y-191.908 Z-2.56
G1 X-14.629 Y-191.909 Z-2.5
G1 Z5 F300
G1 X85.867 Y-92.799 F2500
G1 Z1 F30
G1 Z-2.5
G1 Y-92.803 Z-2.56
G1 Y-92.813 Z-2.62
G1 Y-92.831 Z-2.677
G1 Y-92.856 Z-2.732
G1 Y-92.887 Z-2.784
G1 Y-92.925 Z-2.832
G1 Y-92.967 Z-2.874
G1 Y-93.015 Z-2.911
G1 Y-93.067 Z-2.943
G1 Y-93.122 Z-2.968
G1 Y-93.179 Z-2.985
G1 Y-93.239 Z-2.996
G1 Y-93.299 Z-3
G1 Y-93.799 F213
G3 X86.367 Y-94.299 I0.5
G2 X90.704 Y-107.918 J-7.5 F200
G1 X-9.374 Y-178.858
G2 X-21.197 Y-172.274 I-4.337 J6.119
G1 X-16.8 Y-101.335
G2 X-9.315 Y-94.299 I7.486 J-0.463
G1 X86.367
G3 X86.867 Y-93.799 J0.5 F213
G1 Y-93.299
G1 Y-93.239 Z-2.996
G1 Y-93.179 Z-2.985
G1 Y-93.122 Z-2.968
G1 Y-93.067 Z-2.943
G1 Y-93.015 Z-2.911
G1 Y-92.967 Z-2.874
G1 Y-92.925 Z-2.832
G1 Y-92.887 Z-2.784
G1 Y-92.856 Z-2.732
G1 Y-92.831 Z-2.677
G1 Y-92.813 Z-2.62
G1 Y-92.803 Z-2.56
G1 Y-92.799 Z-2.5
G1 Z5 F300
G1 X-8.594 Y-84.681 F2500
G1 Z-0.5 F30
G1 Z-4
G1 X-8.591 Z-4.06
G1 X-8.58 Z-4.12
G1 X-8.562 Z-4.177
G1 X-8.537 Z-4.232
G1 X-8.506 Y-84.682 Z-4.284
G1 X-8.468 Z-4.332
G1 X-8.426 Z-4.374
G1 X-8.378 Z-4.411
G1 X-8.327 Y-84.683 Z-4.443
G1 X-8.271 Z-4.468
G1 X-8.214 Z-4.485
G1 X-8.154 Y-84.684 Z-4.496
G1 X-8.094 Z-4.5
G1 X-7.594 Y-84.687 F213
G3 X-7.091 Y-84.19 I0.003 J0.5
G2 X-3.928 Y-78.117 I7.5 J-0.046 F200
G1 X96.149 Y-7.177
G2 X107.972 Y-13.76 I4.337 J-6.118
G1 X103.576 Y-84.7
G2 X96.09 Y-91.736 I-7.486 J0.464
G1 X0.409
G2 X-7.091 Y-84.19 J7.5
G3 X-7.588 Y-83.687 I-0.5 J0.003 F213
G1 X-8.088 Y-83.684
G1 X-8.148 Z-4.496
G1 X-8.208 Y-83.683 Z-4.485
G1 X-8.265 Z-4.468
G1 X-8.32 Z-4.443
G1 X-8.372 Y-83.682 Z-4.411
G1 X-8.42 Z-4.374
G1 X-8.462 Z-4.332
G1 X-8.5 Z-4.284
G1 X-8.531 Y-83.681 Z-4.232
G1 X-8.556 Z-4.177
G1 X-8.574 Z-4.12
G1 X-8.584 Z-4.06
G1 X-8.588 Z-4
G1 Z5 F300
G1 X95.861 Y-5.906 F2500
G1 Z-2 F30
G1 Z-5.5
G1 X95.859 Y-5.903 Z-5.56
G1 X95.852 Y-5.894 Z-5.62
G1 X95.842 Y-5.879 Z-5.677
G1 X95.828 Y-5.859 Z-5.732
G1 X95.81 Y-5.834 Z-5.784
G1 X95.788 Y-5.803 Z-5.832
G1 X95.763 Y-5.768 Z-5.874
G1 X95.736 Y-5.73 Z-5.911
G1 X95.706 Y-5.687 Z-5.943
G1 X95.674 Y-5.642 Z-5.968
G1 X95.641 Y-5.595 Z-5.985
G1 X95.606 Y-5.547 Z-5.996
G1 X95.572 Y-5.498 Z-6
G1 X95.282 Y-5.09 F213
G3 X94.585 Y-4.971 I-0.408 J-0.289
G1 X80.341 Y-15.068 F200
G1 Z-4.75
G1 X70.147 Y-22.294
G1 Z-6 F30
G1 X21.07 Y-57.082 F200
G1 Z-4.75
G1 X11.085 Y-64.16
G1 Z-6 F30
G1 X-2.879 Y-74.058 F200
G2 X-14.702 Y-67.476 I-4.337 J6.119
G1 X-14.318 Y-61.281
G1 Z-4.75
G1 X-13.576 Y-49.304
G1 Z-6 F30
G1 X-11.556 Y-16.715 F200
G1 Z-4.75
G1 X-10.814 Y-4.738
G1 Z-6 F30
G1 X-10.305 Y3.464 F200
G2 X-2.82 Y10.5 I7.486 J-0.464
G1 X2.91
G1 Z-4.75
G1 X14.91
G1 Z-6 F30
G1 X62.124 F200
G1 Z-4.75
G1 X74.124
G1 Z-6 F30
G1 X92.862 F200
G2 X97.199 Y-3.119 J-7.5
G1 X94.585 Y-4.971
G3 X94.467 Y-5.668 I0.289 J-0.408 F213
G1 X94.756 Y-6.076
G1 X94.791 Y-6.125 Z-5.996
G1 X94.825 Y-6.174 Z-5.985
G1 X94.858 Y-6.221 Z-5.968
G1 X94.89 Y-6.266 Z-5.943
G1 X94.92 Y-6.308 Z-5.911
G1 X94.948 Y-6.347 Z-5.874
G1 X94.972 Y-6.381 Z-5.832
G1 X94.994 Y-6.412 Z-5.784
G1 X95.012 Y-6.437 Z-5.732
G1 X95.026 Y-6.458 Z-5.677
G1 X95.037 Y-6.472 Z-5.62
G1 X95.043 Y-6.481 Z-5.56
G1 X95.045 Y-6.484 Z-5.5
G1 Z5 F300
G1 X85.867 Y-92.799 F2500
G1 Z-0.5 F30
G1 Z-4
G1 Y-92.803 Z-4.06
G1 Y-92.813 Z-4.12
G1 Y-92.831 Z-4.177
G1 Y-92.856 Z-4.232
G1 Y-92.887 Z-4.284
G1 Y-92.925 Z-4.332
G1 Y-92.967 Z-4.374
G1 Y-93.015 Z-4.411
G1 Y-93.067 Z-4.443
G1 Y-93.122 Z-4.468
G1 Y-93.179 Z-4.485
G1 Y-93.239 Z-4.496
G1 Y-93.299 Z-4.5
G1 Y-93.799 F213
G3 X86.367 Y-94.299 I0.5
G2 X90.704 Y-107.918 J-7.5 F200
G1 X-9.374 Y-178.858
G2 X-21.197 Y-172.274 I-4.337 J6.119
G1 X-16.8 Y-101.335
G2 X-9.315 Y-94.299 I7.486 J-0.463
G1 X86.367
G3 X86.867 Y-93.799 J0.5 F213
G1 Y-93.299
G1 Y-93.239 Z-4.496
G1 Y-93.179 Z-4.485
G1 Y-93.122 Z-4.468
G1 Y-93.067 Z-4.443
G1 Y-93.015 Z-4.411
G1 Y-92.967 Z-4.374
G1 Y-92.925 Z-4.332
G1 Y-92.887 Z-4.284
G1 Y-92.856 Z-4.232
G1 Y-92.831 Z-4.177
G1 Y-92.813 Z-4.12
G1 Y-92.803 Z-4.06
G1 Y-92.799 Z-4
G1 Z5 F300
G1 X-8.594 Y-84.681 F2500
G1 Z-2 F30
G1 Z-5.5
G1 X-8.591 Z-5.56
G1 X-8.58 Z-5.62
G1 X-8.562 Z-5.677
G1 X-8.537 Z-5.732
G1 X-8.506 Y-84.682 Z-5.784
G1 X-8.468 Z-5.832
G1 X-8.426 Z-5.874
G1 X-8.378 Z-5.911
G1 X-8.327 Y-84.683 Z-5.943
G1 X-8.271 Z-5.968
G1 X-8.214 Z-5.985
G1 X-8.154 Y-84.684 Z-5.996
G1 X-8.094 Z-6
G1 X-7.594 Y-84.687 F213
G3 X-7.091 Y-84.19 I0.003 J0.5
G2 X-3.928 Y-78.117 I7.5 J-0.046 F200
G1 X12.649 Y-66.366
G1 Z-4.75
G1 X22.634 Y-59.289
G1 Z-6 F30
G1 X71.711 Y-24.501 F200
G1 Z-4.75
G1 X81.905 Y-17.275
G1 Z-6 F30
G1 X96.149 Y-7.177 F200
G2 X107.972 Y-13.76 I4.337 J-6.118
G1 X107.459 Y-22.046
G1 Z-4.75
G1 X106.717 Y-34.023
G1 Z-6 F30
G1 X105.146 Y-59.363 F200
G1 Z-4.75
G1 X104.404 Y-71.34
G1 Z-6 F30
G1 X103.576 Y-84.7 F200
G2 X96.09 Y-91.736 I-7.486 J0.464
G1 X78.086
G1 Z-4.75
G1 X65.965
G1 Z-6 F30
G1 X22.313 F200
G1 Z-4.75
G1 X9.914
G1 Z-6 F30
G1 X0.409 F200
G2 X-7.091 Y-84.19 J7.5
G3 X-7.588 Y-83.687 I-0.5 J0.003 F213
G1 X-8.088 Y-83.684
G1 X-8.148 Z-5.996
G1 X-8.208 Y-83.683 Z-5.985
G1 X-8.265 Z-5.968
G1 X-8.32 Z-5.943
G1 X-8.372 Y-83.682 Z-5.911
G1 X-8.42 Z-5.874
G1 X-8.462 Z-5.832
G1 X-8.5 Z-5.784
G1 X-8.531 Y-83.681 Z-5.732
G1 X-8.556 Z-5.677
G1 X-8.574 Z-5.62
G1 X-8.584 Z-5.56
G1 X-8.588 Z-5.5
G1 Z5 F300
G1 X-14.258 Y-192.838 F2500
G1 Z-0.5 F30
G1 Z-4
G1 X-14.255 Y-192.837 Z-4.06
G1 X-14.245 Y-192.833 Z-4.12
G1 X-14.228 Y-192.826 Z-4.177
G1 X-14.205 Y-192.817 Z-4.232
G1 X-14.176 Y-192.805 Z-4.284
G1 X-14.142 Y-192.791 Z-4.332
G1 X-14.102 Y-192.776 Z-4.374
G1 X-14.058 Y-192.758 Z-4.411
G1 X-14.01 Y-192.739 Z-4.443
G1 X-13.959 Y-192.718 Z-4.468
G1 X-13.905 Y-192.697 Z-4.485
G1 X-13.85 Y-192.675 Z-4.496
G1 X-13.794 Y-192.653 Z-4.5
G1 X-13.33 Y-192.467 F213
G3 X-13.051 Y-191.817 I-0.185 J0.464
G2 X-10.423 Y-182.916 I6.965 J2.782 F200
G1 X89.654 Y-111.976
G2 X101.477 Y-118.558 I4.337 J-6.119
G1 X97.081 Y-189.499
G2 X89.595 Y-196.535 I-7.486 J0.464
G1 X-6.086
G2 X-13.051 Y-191.817 J7.5
G3 X-13.701 Y-191.538 I-0.464 J-0.185 F213
G1 X-14.165 Y-191.724
G1 X-14.221 Y-191.746 Z-4.496
G1 X-14.276 Y-191.768 Z-4.485
G1 X-14.33 Y-191.79 Z-4.468
G1 X-14.381 Y-191.81 Z-4.443
G1 X-14.429 Y-191.829 Z-4.411
G1 X-14.473 Y-191.847 Z-4.374
G1 X-14.513 Y-191.863 Z-4.332
G1 X-14.547 Y-191.877 Z-4.284
G1 X-14.576 Y-191.888 Z-4.232
G1 X-14.599 Y-191.897 Z-4.177
G1 X-14.616 Y-191.904 Z-4.12
G1 X-14.626 Y-191.908 Z-4.06
G1 X-14.629 Y-191.909 Z-4
G1 Z5 F300
G1 X-14.258 Y-192.838 F2500
G1 Z-2 F30
G1 Z-5.5
G1 X-14.255 Y-192.837 Z-5.56
G1 X-14.245 Y-192.833 Z-5.62
G1 X-14.228 Y-192.826 Z-5.677
G1 X-14.205 Y-192.817 Z-5.732
G1 X-14.176 Y-192.805 Z-5.784
G1 X-14.142 Y-192.791 Z-5.832
G1 X-14.102 Y-192.776 Z-5.874
G1 X-14.058 Y-192.758 Z-5.911
G1 X-14.01 Y-192.739 Z-5.943
G1 X-13.959 Y-192.718 Z-5.968
G1 X-13.905 Y-192.697 Z-5.985
G1 X-13.85 Y-192.675 Z-5.996
G1 X-13.794 Y-192.653 Z-6
G1 X-13.33 Y-192.467 F213
G3 X-13.051 Y-191.817 I-0.185 J0.464
G2 X-10.423 Y-182.916 I6.965 J2.782 F200
G1 X3.808 Y-172.829
G1 Z-4.75
G1 X13.879 Y-165.69
G1 Z-6 F30
G1 X66.098 Y-128.675 F200
G1 Z-4.75
G1 X76.313 Y-121.434
G1 Z-6 F30
G1 X89.654 Y-111.976 F200
G2 X101.477 Y-118.558 I4.337 J-6.119
G1 X100.514 Y-134.109
G1 Z-4.75
G1 X99.771 Y-146.086
G1 Z-6 F30
G1 X98.215 Y-171.2 F200
G1 Z-4.75
G1 X97.473 Y-183.177
G1 Z-6 F30
G1 X97.081 Y-189.499 F200
G2 X89.595 Y-196.535 I-7.486 J0.464
G1 X72.749
G1 Z-4.75
G1 X60.749
G1 Z-6 F30
G1 X19.349 F200
G1 Z-4.75
G1 X7.349
G1 Z-6 F30
G1 X-6.086 F200
G2 X-13.051 Y-191.817 J7.5
G3 X-13.701 Y-191.538 I-0.464 J-0.185 F213
G1 X-14.165 Y-191.724
G1 X-14.221 Y-191.746 Z-5.996
G1 X-14.276 Y-191.768 Z-5.985
G1 X-14.33 Y-191.79 Z-5.968
G1 X-14.381 Y-191.81 Z-5.943
G1 X-14.429 Y-191.829 Z-5.911
G1 X-14.473 Y-191.847 Z-5.874
G1 X-14.513 Y-191.863 Z-5.832
G1 X-14.547 Y-191.877 Z-5.784
G1 X-14.576 Y-191.888 Z-5.732
G1 X-14.599 Y-191.897 Z-5.677
G1 X-14.616 Y-191.904 Z-5.62
G1 X-14.626 Y-191.908 Z-5.56
G1 X-14.629 Y-191.909 Z-5.5
G1 Z5 F300
G1 X85.867 Y-92.799 F2500
G1 Z-2 F30
G1 Z-5.5
G1 Y-92.803 Z-5.56
G1 Y-92.813 Z-5.62
G1 Y-92.831 Z-5.677
G1 Y-92.856 Z-5.732
G1 Y-92.887 Z-5.784
G1 Y-92.925 Z-5.832
G1 Y-92.967 Z-5.874
G1 Y-93.015 Z-5.911
G1 Y-93.067 Z-5.943
G1 Y-93.122 Z-5.968
G1 Y-93.179 Z-5.985
G1 Y-93.239 Z-5.996
G1 Y-93.299 Z-6
G1 Y-93.799 F213
G3 X86.367 Y-94.299 I0.5
G2 X90.704 Y-107.918 J-7.5 F200
G1 X74.749 Y-119.227
G1 Z-4.75
G1 X64.534 Y-126.468
G1 Z-6 F30
G1 X12.315 Y-163.484 F200
G1 Z-4.75
G1 X2.244 Y-170.622
G1 Z-6 F30
G1 X-9.374 Y-178.858 F200
G2 X-21.197 Y-172.274 I-4.337 J6.119
G1 X-20.562 Y-162.031
G1 Z-4.75
G1 X-19.82 Y-150.054
G1 Z-6 F30
G1 X-18.473 Y-128.327 F200
G1 Z-4.75
G1 X-17.731 Y-116.35
G1 Z-6 F30
G1 X-16.8 Y-101.335 F200
G2 X-9.315 Y-94.299 I7.486 J-0.463
G1 X9.914
G1 Z-4.75
G1 X22.313
G1 Z-6 F30
G1 X65.965 F200
G1 Z-4.75
G1 X78.086
G1 Z-6 F30
G1 X86.367 F200
G3 X86.867 Y-93.799 J0.5 F213
G1 Y-93.299
G1 Y-93.239 Z-5.996
G1 Y-93.179 Z-5.985
G1 Y-93.122 Z-5.968
G1 Y-93.067 Z-5.943
G1 Y-93.015 Z-5.911
G1 Y-92.967 Z-5.874
G1 Y-92.925 Z-5.832
G1 Y-92.887 Z-5.784
G1 Y-92.856 Z-5.732
G1 Y-92.831 Z-5.677
G1 Y-92.813 Z-5.62
G1 Y-92.803 Z-5.56
G1 Y-92.799 Z-5.5
G1 Z15 F300

M400
M117 Job end
G1 X0 Y0 F2500
G1 Z0 F300
