;Fusion 360 CAM 2.0.6258
;Posts processor: MPCNC_Mill_Laser.cps
;Gcode generated: Monday, September 02, 2019 6:20:06 PM GMT
;Document: Ternario inferior v4
;Setup: Setup1

G90
G21
M84 S0
G92 X0 Y0 Z0

;Probe tool - Not yet implemented

;Drill1 - Milling - Tool: 1 - drill
;X Min: -10.329 - X Max: 97.104
;Y Min: -186.035 - Y Max: 0
;Z Min: -8.803 - Z Max: 15
M400
M117 Drill1
G1 Z15 F300
G1 X86.775 Y-186.035 F2500
G1 Z5 F300
G1 Z2 F300
G1 Z-1.5 F49
G1 Z-1.38 F300
G1 Z-3 F49
G1 Z-2.88 F300
G1 Z-4.5 F49
G1 Z5 F300
G1 Z-2.5 F300
G1 Z-6 F49
G1 Z-5.88 F300
G1 Z-7.5 F49
G1 Z-7.38 F300
G1 Z-8.803 F49
G1 Z5 F300
G1 X90.609 Y-124.17 F2500
G1 Z2 F300
G1 Z-1.5 F49
G1 Z-1.38 F300
G1 Z-3 F49
G1 Z-2.88 F300
G1 Z-4.5 F49
G1 Z5 F300
G1 Z-2.5 F300
G1 Z-6 F49
G1 Z-5.88 F300
G1 Z-7.5 F49
G1 Z-7.38 F300
G1 Z-8.803 F49
G1 Z5 F300
G1 X76.947 Y-104.799 F2500
G1 Z2 F300
G1 Z-1.5 F49
G1 Z-1.38 F300
G1 Z-3 F49
G1 Z-2.88 F300
G1 Z-4.5 F49
G1 Z5 F300
G1 Z-2.5 F300
G1 Z-6 F49
G1 Z-5.88 F300
G1 Z-7.5 F49
G1 Z-7.38 F300
G1 Z-8.803 F49
G1 Z5 F300
G1 X93.27 Y-81.236 F2500
G1 Z2 F300
G1 Z-1.5 F49
G1 Z-1.38 F300
G1 Z-3 F49
G1 Z-2.88 F300
G1 Z-4.5 F49
G1 Z5 F300
G1 Z-2.5 F300
G1 Z-6 F49
G1 Z-5.88 F300
G1 Z-7.5 F49
G1 Z-7.38 F300
G1 Z-8.803 F49
G1 Z5 F300
G1 X97.104 Y-19.371 F2500
G1 Z2 F300
G1 Z-1.5 F49
G1 Z-1.38 F300
G1 Z-3 F49
G1 Z-2.88 F300
G1 Z-4.5 F49
G1 Z5 F300
G1 Z-2.5 F300
G1 Z-6 F49
G1 Z-5.88 F300
G1 Z-7.5 F49
G1 Z-7.38 F300
G1 Z-8.803 F49
G1 Z5 F300
G1 X83.442 Y0 F2500
G1 Z2 F300
G1 Z-1.5 F49
G1 Z-1.38 F300
G1 Z-3 F49
G1 Z-2.88 F300
G1 Z-4.5 F49
G1 Z5 F300
G1 Z-2.5 F300
G1 Z-6 F49
G1 Z-5.88 F300
G1 Z-7.5 F49
G1 Z-7.38 F300
G1 Z-8.803 F49
G1 Z5 F300
G1 X0 F2500
G1 Z2 F300
G1 Z-1.5 F49
G1 Z-1.38 F300
G1 Z-3 F49
G1 Z-2.88 F300
G1 Z-4.5 F49
G1 Z5 F300
G1 Z-2.5 F300
G1 Z-6 F49
G1 Z-5.88 F300
G1 Z-7.5 F49
G1 Z-7.38 F300
G1 Z-8.803 F49
G1 Z5 F300
G1 X-3.834 Y-61.865 F2500
G1 Z2 F300
G1 Z-1.5 F49
G1 Z-1.38 F300
G1 Z-3 F49
G1 Z-2.88 F300
G1 Z-4.5 F49
G1 Z5 F300
G1 Z-2.5 F300
G1 Z-6 F49
G1 Z-5.88 F300
G1 Z-7.5 F49
G1 Z-7.38 F300
G1 Z-8.803 F49
G1 Z5 F300
G1 X9.829 Y-81.236 F2500
G1 Z2 F300
G1 Z-1.5 F49
G1 Z-1.38 F300
G1 Z-3 F49
G1 Z-2.88 F300
G1 Z-4.5 F49
G1 Z5 F300
G1 Z-2.5 F300
G1 Z-6 F49
G1 Z-5.88 F300
G1 Z-7.5 F49
G1 Z-7.38 F300
G1 Z-8.803 F49
G1 Z5 F300
G1 X-6.495 Y-104.799 F2500
G1 Z2 F300
G1 Z-1.5 F49
G1 Z-1.38 F300
G1 Z-3 F49
G1 Z-2.88 F300
G1 Z-4.5 F49
G1 Z5 F300
G1 Z-2.5 F300
G1 Z-6 F49
G1 Z-5.88 F300
G1 Z-7.5 F49
G1 Z-7.38 F300
G1 Z-8.803 F49
G1 Z5 F300
G1 X-10.329 Y-166.664 F2500
G1 Z2 F300
G1 Z-1.5 F49
G1 Z-1.38 F300
G1 Z-3 F49
G1 Z-2.88 F300
G1 Z-4.5 F49
G1 Z5 F300
G1 Z-2.5 F300
G1 Z-6 F49
G1 Z-5.88 F300
G1 Z-7.5 F49
G1 Z-7.38 F300
G1 Z-8.803 F49
G1 Z5 F300
G1 X3.334 Y-186.035 F2500
G1 Z2 F300
G1 Z-1.5 F49
G1 Z-1.38 F300
G1 Z-3 F49
G1 Z-2.88 F300
G1 Z-4.5 F49
G1 Z5 F300
G1 Z-2.5 F300
G1 Z-6 F49
G1 Z-5.88 F300
G1 Z-7.5 F49
G1 Z-7.38 F300
G1 Z-8.803 F49
G1 Z5 F300
G1 Z15 F300

M400
M117 Job end
G1 X0 Y0 F2500
G1 Z0 F300
