;Fusion 360 CAM 2.0.6516
;Posts processor: MPCNC_Mill_Laser.cps
;Gcode generated: Wednesday, October 23, 2019 8:21:52 PM GMT
;Document: Cover cnc v4
;Setup: Setup1

G90
G21
M84 S0
G92 X0 Y0 Z0

;Probe tool - Not yet implemented

;2D Contour1 - Milling - Tool: 1 - flat end mill
;X Min: 43.5 - X Max: 92.5
;Y Min: -118.5 - Y Max: -43.5
;Z Min: -6 - Z Max: 15
M400
M117 2D Contour1
G1 Z15 F300
G1 X91 Y-68.5 F2500
G1 Z5 F300
G1 Z2.5 F30
G1 Z-1
G1 X91.004 Z-1.06
G1 X91.015 Z-1.12
G1 X91.032 Z-1.177
G1 X91.057 Z-1.232
G1 X91.089 Z-1.284
G1 X91.126 Z-1.332
G1 X91.168 Z-1.374
G1 X91.216 Z-1.411
G1 X91.268 Z-1.443
G1 X91.323 Z-1.468
G1 X91.38 Z-1.485
G1 X91.44 Z-1.496
G1 X91.5 Z-1.5
G1 X92 F466
G3 X92.5 Y-68 J0.5
G1 Y-46 F300
G3 X90 Y-43.5 I-2.5
G1 X46
G3 X43.5 Y-46 J-2.5
G1 Y-116
G3 X46 Y-118.5 I2.5
G1 X90
G3 X92.5 Y-116 J2.5
G1 Y-68
G3 X92 Y-67.5 I-0.5 F466
G1 X91.5
G1 X91.44 Z-1.496
G1 X91.38 Z-1.485
G1 X91.323 Z-1.468
G1 X91.268 Z-1.443
G1 X91.216 Z-1.411
G1 X91.168 Z-1.374
G1 X91.126 Z-1.332
G1 X91.089 Z-1.284
G1 X91.057 Z-1.232
G1 X91.032 Z-1.177
G1 X91.015 Z-1.12
G1 X91.004 Z-1.06
G1 X91 Z-1
G1 Z5 F300
G1 Y-68.5 F2500
G1 Z1 F30
G1 Z-2.5
G1 X91.004 Z-2.56
G1 X91.015 Z-2.62
G1 X91.032 Z-2.677
G1 X91.057 Z-2.732
G1 X91.089 Z-2.784
G1 X91.126 Z-2.832
G1 X91.168 Z-2.874
G1 X91.216 Z-2.911
G1 X91.268 Z-2.943
G1 X91.323 Z-2.968
G1 X91.38 Z-2.985
G1 X91.44 Z-2.996
G1 X91.5 Z-3
G1 X92 F466
G3 X92.5 Y-68 J0.5
G1 Y-46 F300
G3 X90 Y-43.5 I-2.5
G1 X46
G3 X43.5 Y-46 J-2.5
G1 Y-116
G3 X46 Y-118.5 I2.5
G1 X90
G3 X92.5 Y-116 J2.5
G1 Y-68
G3 X92 Y-67.5 I-0.5 F466
G1 X91.5
G1 X91.44 Z-2.996
G1 X91.38 Z-2.985
G1 X91.323 Z-2.968
G1 X91.268 Z-2.943
G1 X91.216 Z-2.911
G1 X91.168 Z-2.874
G1 X91.126 Z-2.832
G1 X91.089 Z-2.784
G1 X91.057 Z-2.732
G1 X91.032 Z-2.677
G1 X91.015 Z-2.62
G1 X91.004 Z-2.56
G1 X91 Z-2.5
G1 Z5 F300
G1 Y-68.5 F2500
G1 Z-0.5 F30
G1 Z-4
G1 X91.004 Z-4.06
G1 X91.015 Z-4.12
G1 X91.032 Z-4.177
G1 X91.057 Z-4.232
G1 X91.089 Z-4.284
G1 X91.126 Z-4.332
G1 X91.168 Z-4.374
G1 X91.216 Z-4.411
G1 X91.268 Z-4.443
G1 X91.323 Z-4.468
G1 X91.38 Z-4.485
G1 X91.44 Z-4.496
G1 X91.5 Z-4.5
G1 X92 F466
G3 X92.5 Y-68 J0.5
G1 Y-46 F300
G3 X90 Y-43.5 I-2.5
G1 X46
G3 X43.5 Y-46 J-2.5
G1 Y-116
G3 X46 Y-118.5 I2.5
G1 X90
G3 X92.5 Y-116 J2.5
G1 Y-68
G3 X92 Y-67.5 I-0.5 F466
G1 X91.5
G1 X91.44 Z-4.496
G1 X91.38 Z-4.485
G1 X91.323 Z-4.468
G1 X91.268 Z-4.443
G1 X91.216 Z-4.411
G1 X91.168 Z-4.374
G1 X91.126 Z-4.332
G1 X91.089 Z-4.284
G1 X91.057 Z-4.232
G1 X91.032 Z-4.177
G1 X91.015 Z-4.12
G1 X91.004 Z-4.06
G1 X91 Z-4
G1 Z5 F300
G1 Y-68.5 F2500
G1 Z-2 F30
G1 Z-5.5
G1 X91.004 Z-5.56
G1 X91.015 Z-5.62
G1 X91.032 Z-5.677
G1 X91.057 Z-5.732
G1 X91.089 Z-5.784
G1 X91.126 Z-5.832
G1 X91.168 Z-5.874
G1 X91.216 Z-5.911
G1 X91.268 Z-5.943
G1 X91.323 Z-5.968
G1 X91.38 Z-5.985
G1 X91.44 Z-5.996
G1 X91.5 Z-6
G1 X92 F466
G3 X92.5 Y-68 J0.5
G1 Y-46 F300
G3 X90 Y-43.5 I-2.5
G1 X46
G3 X43.5 Y-46 J-2.5
G1 Y-116
G3 X46 Y-118.5 I2.5
G1 X90
G3 X92.5 Y-116 J2.5
G1 Y-68
G3 X92 Y-67.5 I-0.5 F466
G1 X91.5
G1 X91.44 Z-5.996
G1 X91.38 Z-5.985
G1 X91.323 Z-5.968
G1 X91.268 Z-5.943
G1 X91.216 Z-5.911
G1 X91.168 Z-5.874
G1 X91.126 Z-5.832
G1 X91.089 Z-5.784
G1 X91.057 Z-5.732
G1 X91.032 Z-5.677
G1 X91.015 Z-5.62
G1 X91.004 Z-5.56
G1 X91 Z-5.5
G1 Z15 F300

;2D Contour2 - Milling - Tool: 1 - flat end mill
;X Min: 42.5 - X Max: 93.5
;Y Min: -119.5 - Y Max: -42.5
;Z Min: -6 - Z Max: 15
M400
M117 2D Contour2
G1 Z15 F300
G1 X91.5 Y-68.5 F2500
G1 Z5 F300
G1 Z1 F30
G1 Z-5.5
G1 X91.504 Z-5.56
G1 X91.515 Z-5.62
G1 X91.532 Z-5.677
G1 X91.557 Z-5.732
G1 X91.589 Z-5.784
G1 X91.626 Z-5.832
G1 X91.668 Z-5.874
G1 X91.716 Z-5.911
G1 X91.768 Z-5.943
G1 X91.823 Z-5.968
G1 X91.88 Z-5.985
G1 X91.94 Z-5.996
G1 X92 Z-6
G1 X92.5 F466
G3 X93 Y-68 J0.5
G1 Y-46 F300
G3 X90 Y-43 I-3
G1 X46
G3 X43 Y-46 J-3
G1 Y-116
G3 X46 Y-119 I3
G1 X90
G3 X93 Y-116 J3
G1 Y-68
G2 X93.25 Y-67.625 I0.406
G3 X93.5 Y-67.25 I-0.156 J0.375
G1 Y-46
G3 X90 Y-42.5 I-3.5
G1 X46
G3 X42.5 Y-46 J-3.5
G1 Y-116
G3 X46 Y-119.5 I3.5
G1 X90
G3 X93.5 Y-116 J3.5
G1 Y-67.25
G3 X93 Y-66.75 I-0.5 F466
G1 X92.5
G1 X92.44 Z-5.996
G1 X92.38 Z-5.985
G1 X92.323 Z-5.968
G1 X92.268 Z-5.943
G1 X92.216 Z-5.911
G1 X92.168 Z-5.874
G1 X92.126 Z-5.832
G1 X92.089 Z-5.784
G1 X92.057 Z-5.732
G1 X92.032 Z-5.677
G1 X92.015 Z-5.62
G1 X92.004 Z-5.56
G1 X92 Z-5.5
G1 Z15 F300

;Bore1 - Milling - Tool: 1 - flat end mill
;X Min: 104 - X Max: 119
;Y Min: -126 - Y Max: -111
;Z Min: -6 - Z Max: 15
M400
M117 Bore1
G1 Z15 F300
G1 X111 Y-121.75 F2500
G1 Z-1 F300
G1 Z-2.5 F466
G1 Y-121.754 Z-2.56
G1 Y-121.765 Z-2.62
G1 Y-121.782 Z-2.677
G1 Y-121.807 Z-2.732
G1 Y-121.839 Z-2.784
G1 Y-121.876 Z-2.832
G1 Y-121.918 Z-2.874
G1 Y-121.966 Z-2.911
G1 Y-122.018 Z-2.943
G1 Y-122.073 Z-2.968
G1 Y-122.13 Z-2.985
G1 Y-122.19 Z-2.996
G1 Y-122.25 Z-3
G1 Y-122.5
G3 X111.5 Y-123 I0.5
G1 X111.689 Y-122.996 Z-3.003 F300
G1 X111.879 Y-122.984 Z-3.007
G1 X112.067 Y-122.964 Z-3.01
G1 X112.255 Y-122.936 Z-3.013
G1 X112.441 Y-122.901 Z-3.017
G1 X112.625 Y-122.857 Z-3.02
G1 X112.808 Y-122.806 Z-3.023
G1 X112.988 Y-122.747 Z-3.027
G1 X113.165 Y-122.68 Z-3.03
G1 X113.34 Y-122.607 Z-3.034
G1 X113.511 Y-122.526 Z-3.037
G1 X113.679 Y-122.437 Z-3.04
G1 X113.843 Y-122.342 Z-3.044
G1 X114.003 Y-122.24 Z-3.047
G1 X114.158 Y-122.131 Z-3.05
G1 X114.308 Y-122.016 Z-3.054
G1 X114.454 Y-121.895 Z-3.057
G1 X114.594 Y-121.767 Z-3.06
G1 X114.729 Y-121.634 Z-3.064
G1 X114.858 Y-121.495 Z-3.067
G1 X114.981 Y-121.351 Z-3.07
G1 X115.098 Y-121.202 Z-3.074
G1 X115.209 Y-121.048 Z-3.077
G1 X115.313 Y-120.89 Z-3.08
G1 X115.41 Y-120.727 Z-3.084
G1 X115.501 Y-120.561 Z-3.087
G1 X115.584 Y-120.39 Z-3.091
G1 X115.66 Y-120.217 Z-3.094
G1 X115.728 Y-120.04 Z-3.097
G1 X115.789 Y-119.86 Z-3.101
G1 X115.843 Y-119.679 Z-3.104
G1 X115.889 Y-119.495 Z-3.107
G1 X115.927 Y-119.309 Z-3.111
G1 X115.957 Y-119.122 Z-3.114
G1 X115.979 Y-118.934 Z-3.117
G1 X115.993 Y-118.745 Z-3.121
G1 X116 Y-118.555 Z-3.124
G1 X115.998 Y-118.366 Z-3.127
G1 X115.988 Y-118.176 Z-3.131
G1 X115.971 Y-117.988 Z-3.134
G1 X115.945 Y-117.8 Z-3.137
G1 X115.912 Y-117.613 Z-3.141
G1 X115.871 Y-117.428 Z-3.144
G1 X115.822 Y-117.245 Z-3.147
G1 X115.765 Y-117.064 Z-3.151
G1 X115.701 Y-116.886 Z-3.154
G1 X115.629 Y-116.711 Z-3.158
G1 X115.55 Y-116.538 Z-3.161
G1 X115.464 Y-116.37 Z-3.164
G1 X115.371 Y-116.205 Z-3.168
G1 X115.27 Y-116.044 Z-3.171
G1 X115.164 Y-115.887 Z-3.174
G1 X115.05 Y-115.735 Z-3.178
G1 X114.931 Y-115.588 Z-3.181
G1 X114.805 Y-115.446 Z-3.184
G1 X114.674 Y-115.31 Z-3.188
G1 X114.536 Y-115.179 Z-3.191
G1 X114.394 Y-115.054 Z-3.194
G1 X114.246 Y-114.935 Z-3.198
G1 X114.094 Y-114.823 Z-3.201
G1 X113.937 Y-114.717 Z-3.204
G1 X113.775 Y-114.617 Z-3.208
G1 X113.61 Y-114.525 Z-3.211
G1 X113.44 Y-114.44 Z-3.215
G1 X113.268 Y-114.362 Z-3.218
G1 X113.092 Y-114.291 Z-3.221
G1 X112.913 Y-114.228 Z-3.225
G1 X112.732 Y-114.172 Z-3.228
G1 X112.549 Y-114.124 Z-3.231
G1 X112.363 Y-114.084 Z-3.235
G1 X112.177 Y-114.051 Z-3.238
G1 X111.989 Y-114.027 Z-3.241
G1 X111.8 Y-114.01 Z-3.245
G1 X111.611 Y-114.001 Z-3.248
G1 X111.421 Z-3.251
G1 X111.232 Y-114.008 Z-3.255
G1 X111.043 Y-114.023 Z-3.258
G1 X110.855 Y-114.047 Z-3.261
G1 X110.668 Y-114.078 Z-3.265
G1 X110.482 Y-114.117 Z-3.268
G1 X110.298 Y-114.163 Z-3.272
G1 X110.117 Y-114.218 Z-3.275
G1 X109.938 Y-114.28 Z-3.278
G1 X109.762 Y-114.349 Z-3.282
G1 X109.588 Y-114.426 Z-3.285
G1 X109.418 Y-114.51 Z-3.288
G1 X109.252 Y-114.602 Z-3.292
G1 X109.09 Y-114.7 Z-3.295
G1 X108.932 Y-114.805 Z-3.298
G1 X108.779 Y-114.916 Z-3.302
G1 X108.63 Y-115.034 Z-3.305
G1 X108.487 Y-115.158 Z-3.308
G1 X108.349 Y-115.287 Z-3.312
G1 X108.216 Y-115.423 Z-3.315
G1 X108.09 Y-115.564 Z-3.318
G1 X107.969 Y-115.71 Z-3.322
G1 X107.855 Y-115.861 Z-3.325
G1 X107.747 Y-116.017 Z-3.328
G1 X107.646 Y-116.177 Z-3.332
G1 X107.551 Y-116.342 Z-3.335
G1 X107.464 Y-116.51 Z-3.339
G1 X107.384 Y-116.682 Z-3.342
G1 X107.311 Y-116.857 Z-3.345
G1 X107.245 Y-117.035 Z-3.349
G1 X107.187 Y-117.215 Z-3.352
G1 X107.137 Y-117.398 Z-3.355
G1 X107.095 Y-117.582 Z-3.359
G1 X107.06 Y-117.769 Z-3.362
G1 X107.033 Y-117.956 Z-3.365
G1 X107.014 Y-118.145 Z-3.369
G1 X107.003 Y-118.334 Z-3.372
G1 X107 Y-118.524 Z-3.375
G1 X107.005 Y-118.713 Z-3.379
G1 X107.018 Y-118.902 Z-3.382
G1 X107.039 Y-119.091 Z-3.385
G1 X107.068 Y-119.278 Z-3.389
G1 X107.104 Y-119.464 Z-3.392
G1 X107.149 Y-119.648 Z-3.396
G1 X107.201 Y-119.83 Z-3.399
G1 X107.261 Y-120.01 Z-3.402
G1 X107.328 Y-120.187 Z-3.406
G1 X107.403 Y-120.362 Z-3.409
G1 X107.485 Y-120.532 Z-3.412
G1 X107.574 Y-120.7 Z-3.416
G1 X107.67 Y-120.863 Z-3.419
G1 X107.773 Y-121.022 Z-3.422
G1 X107.883 Y-121.177 Z-3.426
G1 X107.999 Y-121.327 Z-3.429
G1 X108.121 Y-121.472 Z-3.432
G1 X108.249 Y-121.611 Z-3.436
G1 X108.383 Y-121.746 Z-3.439
G1 X108.522 Y-121.874 Z-3.442
G1 X108.667 Y-121.996 Z-3.446
G1 X108.817 Y-122.113 Z-3.449
G1 X108.971 Y-122.222 Z-3.453
G1 X109.13 Y-122.325 Z-3.456
G1 X109.293 Y-122.422 Z-3.459
G1 X109.461 Y-122.511 Z-3.463
G1 X109.631 Y-122.594 Z-3.466
G1 X109.805 Y-122.669 Z-3.469
G1 X109.982 Y-122.736 Z-3.473
G1 X110.162 Y-122.797 Z-3.476
G1 X110.344 Y-122.849 Z-3.479
G1 X110.528 Y-122.894 Z-3.483
G1 X110.714 Y-122.931 Z-3.486
G1 X110.902 Y-122.96 Z-3.489
G1 X111.09 Y-122.981 Z-3.493
G1 X111.279 Y-122.995 Z-3.496
G1 X111.468 Y-123 Z-3.499
G1 X111.658 Y-122.997 Z-3.503
G1 X111.847 Y-122.987 Z-3.506
G1 X112.036 Y-122.968 Z-3.509
G1 X112.223 Y-122.941 Z-3.513
G1 X112.41 Y-122.907 Z-3.516
G1 X112.595 Y-122.865 Z-3.52
G1 X112.777 Y-122.815 Z-3.523
G1 X112.958 Y-122.757 Z-3.526
G1 X113.136 Y-122.692 Z-3.53
G1 X113.311 Y-122.619 Z-3.533
G1 X113.483 Y-122.54 Z-3.536
G1 X113.651 Y-122.452 Z-3.54
G1 X113.816 Y-122.358 Z-3.543
G1 X113.976 Y-122.257 Z-3.546
G1 X114.132 Y-122.15 Z-3.55
G1 X114.284 Y-122.036 Z-3.553
G1 X114.43 Y-121.915 Z-3.556
G1 X114.571 Y-121.789 Z-3.56
G1 X114.707 Y-121.657 Z-3.563
G1 X114.837 Y-121.519 Z-3.566
G1 X114.961 Y-121.376 Z-3.57
G1 X115.079 Y-121.227 Z-3.573
G1 X115.191 Y-121.074 Z-3.577
G1 X115.296 Y-120.917 Z-3.58
G1 X115.394 Y-120.755 Z-3.583
G1 X115.486 Y-120.589 Z-3.587
G1 X115.57 Y-120.419 Z-3.59
G1 X115.648 Y-120.246 Z-3.593
G1 X115.717 Y-120.07 Z-3.597
G1 X115.78 Y-119.891 Z-3.6
G1 X115.835 Y-119.709 Z-3.603
G1 X115.882 Y-119.526 Z-3.607
G1 X115.921 Y-119.34 Z-3.61
G1 X115.952 Y-119.153 Z-3.613
G1 X115.976 Y-118.965 Z-3.617
G1 X115.992 Y-118.776 Z-3.62
G1 X115.999 Y-118.587 Z-3.623
G1 Y-118.397 Z-3.627
G1 X115.991 Y-118.208 Z-3.63
G1 X115.974 Y-118.019 Z-3.634
G1 X115.95 Y-117.831 Z-3.637
G1 X115.918 Y-117.644 Z-3.64
G1 X115.878 Y-117.459 Z-3.644
G1 X115.83 Y-117.276 Z-3.647
G1 X115.775 Y-117.094 Z-3.65
G1 X115.712 Y-116.916 Z-3.654
G1 X115.641 Y-116.74 Z-3.657
G1 X115.564 Y-116.567 Z-3.66
G1 X115.479 Y-116.397 Z-3.664
G1 X115.387 Y-116.232 Z-3.667
G1 X115.288 Y-116.07 Z-3.67
G1 X115.182 Y-115.913 Z-3.674
G1 X115.07 Y-115.76 Z-3.677
G1 X114.951 Y-115.612 Z-3.68
G1 X114.826 Y-115.469 Z-3.684
G1 X114.696 Y-115.332 Z-3.687
G1 X114.56 Y-115.2 Z-3.691
G1 X114.418 Y-115.074 Z-3.694
G1 X114.271 Y-114.954 Z-3.697
G1 X114.119 Y-114.841 Z-3.701
G1 X113.963 Y-114.734 Z-3.704
G1 X113.802 Y-114.634 Z-3.707
G1 X113.637 Y-114.54 Z-3.711
G1 X113.469 Y-114.454 Z-3.714
G1 X113.297 Y-114.374 Z-3.717
G1 X113.121 Y-114.302 Z-3.721
G1 X112.943 Y-114.238 Z-3.724
G1 X112.762 Y-114.181 Z-3.727
G1 X112.579 Y-114.131 Z-3.731
G1 X112.394 Y-114.09 Z-3.734
G1 X112.208 Y-114.056 Z-3.737
G1 X112.02 Y-114.03 Z-3.741
G1 X111.831 Y-114.012 Z-3.744
G1 X111.642 Y-114.002 Z-3.747
G1 X111.453 Y-114 Z-3.751
G1 X111.263 Y-114.006 Z-3.754
G1 X111.074 Y-114.02 Z-3.758
G1 X110.886 Y-114.042 Z-3.761
G1 X110.699 Y-114.072 Z-3.764
G1 X110.513 Y-114.11 Z-3.768
G1 X110.329 Y-114.155 Z-3.771
G1 X110.147 Y-114.208 Z-3.774
G1 X109.968 Y-114.269 Z-3.778
G1 X109.791 Y-114.337 Z-3.781
G1 X109.617 Y-114.413 Z-3.784
G1 X109.446 Y-114.496 Z-3.788
G1 X109.28 Y-114.586 Z-3.791
G1 X109.117 Y-114.683 Z-3.794
G1 X108.958 Y-114.787 Z-3.798
G1 X108.804 Y-114.897 Z-3.801
G1 X108.655 Y-115.014 Z-3.804
G1 X108.51 Y-115.137 Z-3.808
G1 X108.372 Y-115.265 Z-3.811
G1 X108.238 Y-115.4 Z-3.815
G1 X108.11 Y-115.54 Z-3.818
G1 X107.989 Y-115.685 Z-3.821
G1 X107.873 Y-115.836 Z-3.825
G1 X107.764 Y-115.991 Z-3.828
G1 X107.662 Y-116.15 Z-3.831
G1 X107.567 Y-116.314 Z-3.835
G1 X107.478 Y-116.482 Z-3.838
G1 X107.397 Y-116.653 Z-3.841
G1 X107.322 Y-116.827 Z-3.845
G1 X107.256 Y-117.005 Z-3.848
G1 X107.197 Y-117.185 Z-3.851
G1 X107.145 Y-117.367 Z-3.855
G1 X107.101 Y-117.552 Z-3.858
G1 X107.065 Y-117.738 Z-3.861
G1 X107.037 Y-117.925 Z-3.865
G1 X107.017 Y-118.113 Z-3.868
G1 X107.004 Y-118.303 Z-3.872
G1 X107 Y-118.492 Z-3.875
G1 X107.004 Y-118.682 Z-3.878
G1 X107.015 Y-118.871 Z-3.882
G1 X107.035 Y-119.059 Z-3.885
G1 X107.062 Y-119.247 Z-3.888
G1 X107.098 Y-119.433 Z-3.892
G1 X107.141 Y-119.618 Z-3.895
G1 X107.192 Y-119.8 Z-3.898
G1 X107.25 Y-119.98 Z-3.902
G1 X107.317 Y-120.158 Z-3.905
G1 X107.39 Y-120.333 Z-3.908
G1 X107.471 Y-120.504 Z-3.912
G1 X107.559 Y-120.672 Z-3.915
G1 X107.654 Y-120.836 Z-3.918
G1 X107.756 Y-120.996 Z-3.922
G1 X107.864 Y-121.151 Z-3.925
G1 X107.979 Y-121.302 Z-3.928
G1 X108.1 Y-121.448 Z-3.932
G1 X108.227 Y-121.589 Z-3.935
G1 X108.36 Y-121.724 Z-3.939
G1 X108.499 Y-121.853 Z-3.942
G1 X108.643 Y-121.976 Z-3.945
G1 X108.791 Y-122.094 Z-3.949
G1 X108.945 Y-122.204 Z-3.952
G1 X109.103 Y-122.309 Z-3.955
G1 X109.266 Y-122.406 Z-3.959
G1 X109.432 Y-122.497 Z-3.962
G1 X109.603 Y-122.58 Z-3.965
G1 X109.776 Y-122.657 Z-3.969
G1 X109.953 Y-122.726 Z-3.972
G1 X110.132 Y-122.787 Z-3.975
G1 X110.314 Y-122.841 Z-3.979
G1 X110.498 Y-122.887 Z-3.982
G1 X110.683 Y-122.925 Z-3.985
G1 X110.87 Y-122.956 Z-3.989
G1 X111.058 Y-122.978 Z-3.992
G1 X111.247 Y-122.993 Z-3.996
G1 X111.437 Y-123 Z-3.999
G1 X111.626 Y-122.998 Z-4.002
G1 X111.816 Y-122.989 Z-4.006
G1 X112.004 Y-122.972 Z-4.009
G1 X112.192 Y-122.946 Z-4.012
G1 X112.379 Y-122.913 Z-4.016
G1 X112.564 Y-122.872 Z-4.019
G1 X112.747 Y-122.824 Z-4.022
G1 X112.928 Y-122.767 Z-4.026
G1 X113.107 Y-122.703 Z-4.029
G1 X113.282 Y-122.632 Z-4.032
G1 X113.455 Y-122.553 Z-4.036
G1 X113.623 Y-122.467 Z-4.039
G1 X113.789 Y-122.375 Z-4.042
G1 X113.95 Y-122.275 Z-4.046
G1 X114.107 Y-122.168 Z-4.049
G1 X114.259 Y-122.055 Z-4.053
G1 X114.406 Y-121.936 Z-4.056
G1 X114.548 Y-121.81 Z-4.059
G1 X114.685 Y-121.679 Z-4.063
G1 X114.816 Y-121.542 Z-4.066
G1 X114.941 Y-121.4 Z-4.069
G1 X115.06 Y-121.252 Z-4.073
G1 X115.173 Y-121.1 Z-4.076
G1 X115.279 Y-120.943 Z-4.079
G1 X115.379 Y-120.782 Z-4.083
G1 X115.471 Y-120.616 Z-4.086
G1 X115.557 Y-120.447 Z-4.089
G1 X115.635 Y-120.275 Z-4.093
G1 X115.706 Y-120.099 Z-4.096
G1 X115.77 Y-119.921 Z-4.099
G1 X115.826 Y-119.74 Z-4.103
G1 X115.874 Y-119.556 Z-4.106
G1 X115.915 Y-119.371 Z-4.109
G1 X115.948 Y-119.184 Z-4.113
G1 X115.973 Y-118.997 Z-4.116
G1 X115.989 Y-118.808 Z-4.12
G1 X115.998 Y-118.618 Z-4.123
G1 X115.999 Y-118.429 Z-4.126
G1 X115.992 Y-118.24 Z-4.13
G1 X115.978 Y-118.051 Z-4.133
G1 X115.955 Y-117.862 Z-4.136
G1 X115.924 Y-117.675 Z-4.14
G1 X115.885 Y-117.49 Z-4.143
G1 X115.839 Y-117.306 Z-4.146
G1 X115.785 Y-117.124 Z-4.15
G1 X115.723 Y-116.945 Z-4.153
G1 X115.654 Y-116.769 Z-4.156
G1 X115.577 Y-116.595 Z-4.16
G1 X115.493 Y-116.425 Z-4.163
G1 X115.402 Y-116.259 Z-4.166
G1 X115.305 Y-116.097 Z-4.17
G1 X115.2 Y-115.939 Z-4.173
G1 X115.089 Y-115.785 Z-4.177
G1 X114.971 Y-115.636 Z-4.18
G1 X114.848 Y-115.493 Z-4.183
G1 X114.718 Y-115.355 Z-4.187
G1 X114.583 Y-115.222 Z-4.19
G1 X114.442 Y-115.095 Z-4.193
G1 X114.296 Y-114.974 Z-4.197
G1 X114.145 Y-114.859 Z-4.2
G1 X113.989 Y-114.751 Z-4.203
G1 X113.829 Y-114.65 Z-4.207
G1 X113.665 Y-114.555 Z-4.21
G1 X113.497 Y-114.467 Z-4.213
G1 X113.326 Y-114.387 Z-4.217
G1 X113.151 Y-114.314 Z-4.22
G1 X112.973 Y-114.248 Z-4.223
G1 X112.793 Y-114.19 Z-4.227
G1 X112.61 Y-114.139 Z-4.23
G1 X112.425 Y-114.096 Z-4.234
G1 X112.239 Y-114.061 Z-4.237
G1 X112.051 Y-114.034 Z-4.24
G1 X111.863 Y-114.015 Z-4.244
G1 X111.674 Y-114.003 Z-4.247
G1 X111.484 Y-114 Z-4.25
G1 X111.295 Y-114.005 Z-4.254
G1 X111.106 Y-114.017 Z-4.257
G1 X110.917 Y-114.038 Z-4.26
G1 X110.73 Y-114.066 Z-4.264
G1 X110.544 Y-114.103 Z-4.267
G1 X110.359 Y-114.147 Z-4.27
G1 X110.177 Y-114.199 Z-4.274
G1 X109.997 Y-114.258 Z-4.277
G1 X109.82 Y-114.325 Z-4.28
G1 X109.646 Y-114.4 Z-4.284
G1 X109.475 Y-114.482 Z-4.287
G1 X109.307 Y-114.57 Z-4.291
G1 X109.144 Y-114.666 Z-4.294
G1 X108.984 Y-114.769 Z-4.297
G1 X108.829 Y-114.878 Z-4.301
G1 X108.679 Y-114.994 Z-4.304
G1 X108.534 Y-115.116 Z-4.307
G1 X108.394 Y-115.244 Z-4.311
G1 X108.26 Y-115.377 Z-4.314
G1 X108.131 Y-115.516 Z-4.317
G1 X108.009 Y-115.661 Z-4.321
G1 X107.892 Y-115.81 Z-4.324
G1 X107.782 Y-115.965 Z-4.327
G1 X107.679 Y-116.124 Z-4.331
G1 X107.582 Y-116.287 Z-4.334
G1 X107.492 Y-116.454 Z-4.337
G1 X107.41 Y-116.624 Z-4.341
G1 X107.334 Y-116.798 Z-4.344
G1 X107.266 Y-116.975 Z-4.347
G1 X107.206 Y-117.155 Z-4.351
G1 X107.153 Y-117.337 Z-4.354
G1 X107.108 Y-117.521 Z-4.358
G1 X107.071 Y-117.706 Z-4.361
G1 X107.041 Y-117.894 Z-4.364
G1 X107.019 Y-118.082 Z-4.368
G1 X107.006 Y-118.271 Z-4.371
G1 X107 Y-118.461 Z-4.374
G1 X107.003 Y-118.65 Z-4.378
G1 X107.013 Y-118.839 Z-4.381
G1 X107.031 Y-119.028 Z-4.384
G1 X107.057 Y-119.216 Z-4.388
G1 X107.091 Y-119.402 Z-4.391
G1 X107.133 Y-119.587 Z-4.394
G1 X107.183 Y-119.77 Z-4.398
G1 X107.24 Y-119.951 Z-4.401
G1 X107.305 Y-120.129 Z-4.404
G1 X107.377 Y-120.304 Z-4.408
G1 X107.457 Y-120.476 Z-4.411
G1 X107.544 Y-120.644 Z-4.415
G1 X107.638 Y-120.809 Z-4.418
G1 X107.738 Y-120.97 Z-4.421
G1 X107.846 Y-121.126 Z-4.425
G1 X107.959 Y-121.277 Z-4.428
G1 X108.079 Y-121.424 Z-4.431
G1 X108.206 Y-121.565 Z-4.435
G1 X108.338 Y-121.701 Z-4.438
G1 X108.475 Y-121.832 Z-4.441
G1 X108.618 Y-121.956 Z-4.445
G1 X108.766 Y-122.074 Z-4.448
G1 X108.919 Y-122.186 Z-4.451
G1 X109.077 Y-122.292 Z-4.455
G1 X109.239 Y-122.391 Z-4.458
G1 X109.404 Y-122.482 Z-4.461
G1 X109.574 Y-122.567 Z-4.465
G1 X109.747 Y-122.644 Z-4.468
G1 X109.923 Y-122.715 Z-4.472
G1 X110.102 Y-122.777 Z-4.475
G1 X110.283 Y-122.832 Z-4.478
G1 X110.467 Y-122.88 Z-4.482
G1 X110.652 Y-122.919 Z-4.485
G1 X110.839 Y-122.951 Z-4.488
G1 X111.027 Y-122.975 Z-4.492
G1 X111.216 Y-122.991 Z-4.495
G1 X111.405 Y-122.999 Z-4.498
G1 X111.595 Z-4.502
G1 X111.784 Y-122.991 Z-4.505
G1 X111.973 Y-122.975 Z-4.508
G1 X112.161 Y-122.951 Z-4.512
G1 X112.348 Y-122.919 Z-4.515
G1 X112.533 Y-122.88 Z-4.518
G1 X112.717 Y-122.832 Z-4.522
G1 X112.898 Y-122.777 Z-4.525
G1 X113.077 Y-122.715 Z-4.528
G1 X113.253 Y-122.644 Z-4.532
G1 X113.426 Y-122.567 Z-4.535
G1 X113.596 Y-122.482 Z-4.539
G1 X113.761 Y-122.391 Z-4.542
G1 X113.923 Y-122.292 Z-4.545
G1 X114.081 Y-122.186 Z-4.549
G1 X114.234 Y-122.074 Z-4.552
G1 X114.382 Y-121.956 Z-4.555
G1 X114.525 Y-121.832 Z-4.559
G1 X114.662 Y-121.701 Z-4.562
G1 X114.794 Y-121.565 Z-4.565
G1 X114.921 Y-121.424 Z-4.569
G1 X115.041 Y-121.277 Z-4.572
G1 X115.154 Y-121.126 Z-4.575
G1 X115.262 Y-120.97 Z-4.579
G1 X115.362 Y-120.809 Z-4.582
G1 X115.456 Y-120.644 Z-4.585
G1 X115.543 Y-120.476 Z-4.589
G1 X115.623 Y-120.304 Z-4.592
G1 X115.695 Y-120.129 Z-4.596
G1 X115.76 Y-119.951 Z-4.599
G1 X115.817 Y-119.77 Z-4.602
G1 X115.867 Y-119.587 Z-4.606
G1 X115.909 Y-119.402 Z-4.609
G1 X115.943 Y-119.216 Z-4.612
G1 X115.969 Y-119.028 Z-4.616
G1 X115.987 Y-118.839 Z-4.619
G1 X115.997 Y-118.65 Z-4.622
G1 X116 Y-118.461 Z-4.626
G1 X115.994 Y-118.271 Z-4.629
G1 X115.981 Y-118.082 Z-4.632
G1 X115.959 Y-117.894 Z-4.636
G1 X115.929 Y-117.706 Z-4.639
G1 X115.892 Y-117.521 Z-4.642
G1 X115.847 Y-117.337 Z-4.646
G1 X115.794 Y-117.155 Z-4.649
G1 X115.734 Y-116.975 Z-4.653
G1 X115.666 Y-116.798 Z-4.656
G1 X115.59 Y-116.624 Z-4.659
G1 X115.508 Y-116.454 Z-4.663
G1 X115.418 Y-116.287 Z-4.666
G1 X115.321 Y-116.124 Z-4.669
G1 X115.218 Y-115.965 Z-4.673
G1 X115.108 Y-115.81 Z-4.676
G1 X114.991 Y-115.661 Z-4.679
G1 X114.869 Y-115.516 Z-4.683
G1 X114.74 Y-115.377 Z-4.686
G1 X114.606 Y-115.244 Z-4.689
G1 X114.466 Y-115.116 Z-4.693
G1 X114.321 Y-114.994 Z-4.696
G1 X114.171 Y-114.878 Z-4.699
G1 X114.016 Y-114.769 Z-4.703
G1 X113.856 Y-114.666 Z-4.706
G1 X113.693 Y-114.57 Z-4.709
G1 X113.525 Y-114.482 Z-4.713
G1 X113.354 Y-114.4 Z-4.716
G1 X113.18 Y-114.325 Z-4.72
G1 X113.003 Y-114.258 Z-4.723
G1 X112.823 Y-114.199 Z-4.726
G1 X112.641 Y-114.147 Z-4.73
G1 X112.456 Y-114.103 Z-4.733
G1 X112.27 Y-114.066 Z-4.736
G1 X112.083 Y-114.038 Z-4.74
G1 X111.894 Y-114.017 Z-4.743
G1 X111.705 Y-114.005 Z-4.746
G1 X111.516 Y-114 Z-4.75
G1 X111.326 Y-114.003 Z-4.753
G1 X111.137 Y-114.015 Z-4.756
G1 X110.949 Y-114.034 Z-4.76
G1 X110.761 Y-114.061 Z-4.763
G1 X110.575 Y-114.096 Z-4.766
G1 X110.39 Y-114.139 Z-4.77
G1 X110.207 Y-114.19 Z-4.773
G1 X110.027 Y-114.248 Z-4.777
G1 X109.849 Y-114.314 Z-4.78
G1 X109.674 Y-114.387 Z-4.783
G1 X109.503 Y-114.467 Z-4.787
G1 X109.335 Y-114.555 Z-4.79
G1 X109.171 Y-114.65 Z-4.793
G1 X109.011 Y-114.751 Z-4.797
G1 X108.855 Y-114.859 Z-4.8
G1 X108.704 Y-114.974 Z-4.803
G1 X108.558 Y-115.095 Z-4.807
G1 X108.417 Y-115.222 Z-4.81
G1 X108.282 Y-115.355 Z-4.813
G1 X108.152 Y-115.493 Z-4.817
G1 X108.029 Y-115.636 Z-4.82
G1 X107.911 Y-115.785 Z-4.823
G1 X107.8 Y-115.939 Z-4.827
G1 X107.695 Y-116.097 Z-4.83
G1 X107.598 Y-116.259 Z-4.834
G1 X107.507 Y-116.425 Z-4.837
G1 X107.423 Y-116.595 Z-4.84
G1 X107.346 Y-116.769 Z-4.844
G1 X107.277 Y-116.945 Z-4.847
G1 X107.215 Y-117.124 Z-4.85
G1 X107.161 Y-117.306 Z-4.854
G1 X107.115 Y-117.49 Z-4.857
G1 X107.076 Y-117.675 Z-4.86
G1 X107.045 Y-117.862 Z-4.864
G1 X107.022 Y-118.051 Z-4.867
G1 X107.008 Y-118.24 Z-4.87
G1 X107.001 Y-118.429 Z-4.874
G1 X107.002 Y-118.618 Z-4.877
G1 X107.011 Y-118.808 Z-4.88
G1 X107.027 Y-118.997 Z-4.884
G1 X107.052 Y-119.184 Z-4.887
G1 X107.085 Y-119.371 Z-4.891
G1 X107.126 Y-119.556 Z-4.894
G1 X107.174 Y-119.74 Z-4.897
G1 X107.23 Y-119.921 Z-4.901
G1 X107.294 Y-120.099 Z-4.904
G1 X107.365 Y-120.275 Z-4.907
G1 X107.443 Y-120.447 Z-4.911
G1 X107.529 Y-120.616 Z-4.914
G1 X107.621 Y-120.782 Z-4.917
G1 X107.721 Y-120.943 Z-4.921
G1 X107.827 Y-121.1 Z-4.924
G1 X107.94 Y-121.252 Z-4.927
G1 X108.059 Y-121.4 Z-4.931
G1 X108.184 Y-121.542 Z-4.934
G1 X108.315 Y-121.679 Z-4.937
G1 X108.452 Y-121.81 Z-4.941
G1 X108.594 Y-121.936 Z-4.944
G1 X108.741 Y-122.055 Z-4.947
G1 X108.893 Y-122.168 Z-4.951
G1 X109.05 Y-122.275 Z-4.954
G1 X109.211 Y-122.375 Z-4.958
G1 X109.377 Y-122.467 Z-4.961
G1 X109.545 Y-122.553 Z-4.964
G1 X109.718 Y-122.632 Z-4.968
G1 X109.893 Y-122.703 Z-4.971
G1 X110.072 Y-122.767 Z-4.974
G1 X110.253 Y-122.824 Z-4.978
G1 X110.436 Y-122.872 Z-4.981
G1 X110.621 Y-122.913 Z-4.984
G1 X110.808 Y-122.946 Z-4.988
G1 X110.996 Y-122.972 Z-4.991
G1 X111.184 Y-122.989 Z-4.994
G1 X111.374 Y-122.998 Z-4.998
G1 X111.563 Y-123 Z-5.001
G1 X111.753 Y-122.993 Z-5.004
G1 X111.942 Y-122.978 Z-5.008
G1 X112.13 Y-122.956 Z-5.011
G1 X112.317 Y-122.925 Z-5.015
G1 X112.502 Y-122.887 Z-5.018
G1 X112.686 Y-122.841 Z-5.021
G1 X112.868 Y-122.787 Z-5.025
G1 X113.047 Y-122.726 Z-5.028
G1 X113.224 Y-122.657 Z-5.031
G1 X113.397 Y-122.58 Z-5.035
G1 X113.568 Y-122.497 Z-5.038
G1 X113.734 Y-122.406 Z-5.041
G1 X113.897 Y-122.309 Z-5.045
G1 X114.055 Y-122.204 Z-5.048
G1 X114.209 Y-122.094 Z-5.051
G1 X114.357 Y-121.976 Z-5.055
G1 X114.501 Y-121.853 Z-5.058
G1 X114.64 Y-121.724 Z-5.061
G1 X114.773 Y-121.589 Z-5.065
G1 X114.9 Y-121.448 Z-5.068
G1 X115.021 Y-121.302 Z-5.072
G1 X115.136 Y-121.151 Z-5.075
G1 X115.244 Y-120.996 Z-5.078
G1 X115.346 Y-120.836 Z-5.082
G1 X115.441 Y-120.672 Z-5.085
G1 X115.529 Y-120.504 Z-5.088
G1 X115.61 Y-120.333 Z-5.092
G1 X115.683 Y-120.158 Z-5.095
G1 X115.75 Y-119.98 Z-5.098
G1 X115.808 Y-119.8 Z-5.102
G1 X115.859 Y-119.618 Z-5.105
G1 X115.902 Y-119.433 Z-5.108
G1 X115.938 Y-119.247 Z-5.112
G1 X115.965 Y-119.059 Z-5.115
G1 X115.985 Y-118.871 Z-5.118
G1 X115.996 Y-118.682 Z-5.122
G1 X116 Y-118.492 Z-5.125
G1 X115.996 Y-118.303 Z-5.128
G1 X115.983 Y-118.113 Z-5.132
G1 X115.963 Y-117.925 Z-5.135
G1 X115.935 Y-117.738 Z-5.139
G1 X115.899 Y-117.552 Z-5.142
G1 X115.855 Y-117.367 Z-5.145
G1 X115.803 Y-117.185 Z-5.149
G1 X115.744 Y-117.005 Z-5.152
G1 X115.678 Y-116.827 Z-5.155
G1 X115.603 Y-116.653 Z-5.159
G1 X115.522 Y-116.482 Z-5.162
G1 X115.433 Y-116.314 Z-5.165
G1 X115.338 Y-116.15 Z-5.169
G1 X115.236 Y-115.991 Z-5.172
G1 X115.127 Y-115.836 Z-5.175
G1 X115.011 Y-115.685 Z-5.179
G1 X114.89 Y-115.54 Z-5.182
G1 X114.762 Y-115.4 Z-5.185
G1 X114.628 Y-115.265 Z-5.189
G1 X114.49 Y-115.137 Z-5.192
G1 X114.345 Y-115.014 Z-5.196
G1 X114.196 Y-114.897 Z-5.199
G1 X114.042 Y-114.787 Z-5.202
G1 X113.883 Y-114.683 Z-5.206
G1 X113.72 Y-114.586 Z-5.209
G1 X113.554 Y-114.496 Z-5.212
G1 X113.383 Y-114.413 Z-5.216
G1 X113.209 Y-114.337 Z-5.219
G1 X113.032 Y-114.269 Z-5.222
G1 X112.853 Y-114.208 Z-5.226
G1 X112.671 Y-114.155 Z-5.229
G1 X112.487 Y-114.11 Z-5.232
G1 X112.301 Y-114.072 Z-5.236
G1 X112.114 Y-114.042 Z-5.239
G1 X111.926 Y-114.02 Z-5.242
G1 X111.737 Y-114.006 Z-5.246
G1 X111.547 Y-114 Z-5.249
G1 X111.358 Y-114.002 Z-5.253
G1 X111.169 Y-114.012 Z-5.256
G1 X110.98 Y-114.03 Z-5.259
G1 X110.792 Y-114.056 Z-5.263
G1 X110.606 Y-114.09 Z-5.266
G1 X110.421 Y-114.131 Z-5.269
G1 X110.238 Y-114.181 Z-5.273
G1 X110.057 Y-114.238 Z-5.276
G1 X109.879 Y-114.302 Z-5.279
G1 X109.703 Y-114.374 Z-5.283
G1 X109.531 Y-114.454 Z-5.286
G1 X109.363 Y-114.54 Z-5.289
G1 X109.198 Y-114.634 Z-5.293
G1 X109.037 Y-114.734 Z-5.296
G1 X108.881 Y-114.841 Z-5.299
G1 X108.729 Y-114.954 Z-5.303
G1 X108.582 Y-115.074 Z-5.306
G1 X108.44 Y-115.2 Z-5.309
G1 X108.304 Y-115.332 Z-5.313
G1 X108.174 Y-115.469 Z-5.316
G1 X108.049 Y-115.612 Z-5.32
G1 X107.93 Y-115.76 Z-5.323
G1 X107.818 Y-115.913 Z-5.326
G1 X107.712 Y-116.07 Z-5.33
G1 X107.613 Y-116.232 Z-5.333
G1 X107.521 Y-116.397 Z-5.336
G1 X107.436 Y-116.567 Z-5.34
G1 X107.359 Y-116.74 Z-5.343
G1 X107.288 Y-116.916 Z-5.346
G1 X107.225 Y-117.094 Z-5.35
G1 X107.17 Y-117.276 Z-5.353
G1 X107.122 Y-117.459 Z-5.356
G1 X107.082 Y-117.644 Z-5.36
G1 X107.05 Y-117.831 Z-5.363
G1 X107.026 Y-118.019 Z-5.366
G1 X107.009 Y-118.208 Z-5.37
G1 X107.001 Y-118.397 Z-5.373
G1 Y-118.587 Z-5.377
G1 X107.008 Y-118.776 Z-5.38
G1 X107.024 Y-118.965 Z-5.383
G1 X107.048 Y-119.153 Z-5.387
G1 X107.079 Y-119.34 Z-5.39
G1 X107.118 Y-119.526 Z-5.393
G1 X107.165 Y-119.709 Z-5.397
G1 X107.22 Y-119.891 Z-5.4
G1 X107.283 Y-120.07 Z-5.403
G1 X107.352 Y-120.246 Z-5.407
G1 X107.43 Y-120.419 Z-5.41
G1 X107.514 Y-120.589 Z-5.413
G1 X107.606 Y-120.755 Z-5.417
G1 X107.704 Y-120.917 Z-5.42
G1 X107.809 Y-121.074 Z-5.423
G1 X107.921 Y-121.227 Z-5.427
G1 X108.039 Y-121.376 Z-5.43
G1 X108.163 Y-121.519 Z-5.434
G1 X108.293 Y-121.657 Z-5.437
G1 X108.429 Y-121.789 Z-5.44
G1 X108.57 Y-121.915 Z-5.444
G1 X108.716 Y-122.036 Z-5.447
G1 X108.868 Y-122.15 Z-5.45
G1 X109.024 Y-122.257 Z-5.454
G1 X109.184 Y-122.358 Z-5.457
G1 X109.349 Y-122.452 Z-5.46
G1 X109.517 Y-122.54 Z-5.464
G1 X109.689 Y-122.619 Z-5.467
G1 X109.864 Y-122.692 Z-5.47
G1 X110.042 Y-122.757 Z-5.474
G1 X110.223 Y-122.815 Z-5.477
G1 X110.405 Y-122.865 Z-5.48
G1 X110.59 Y-122.907 Z-5.484
G1 X110.777 Y-122.941 Z-5.487
G1 X110.964 Y-122.968 Z-5.491
G1 X111.153 Y-122.987 Z-5.494
G1 X111.342 Y-122.997 Z-5.497
G1 X111.532 Y-123 Z-5.501
G1 X111.721 Y-122.995 Z-5.504
G1 X111.91 Y-122.981 Z-5.507
G1 X112.098 Y-122.96 Z-5.511
G1 X112.286 Y-122.931 Z-5.514
G1 X112.472 Y-122.894 Z-5.517
G1 X112.656 Y-122.849 Z-5.521
G1 X112.838 Y-122.797 Z-5.524
G1 X113.018 Y-122.736 Z-5.527
G1 X113.195 Y-122.669 Z-5.531
G1 X113.369 Y-122.594 Z-5.534
G1 X113.539 Y-122.511 Z-5.537
G1 X113.707 Y-122.422 Z-5.541
G1 X113.87 Y-122.325 Z-5.544
G1 X114.029 Y-122.222 Z-5.547
G1 X114.183 Y-122.113 Z-5.551
G1 X114.333 Y-121.996 Z-5.554
G1 X114.478 Y-121.874 Z-5.558
G1 X114.617 Y-121.746 Z-5.561
G1 X114.751 Y-121.611 Z-5.564
G1 X114.879 Y-121.472 Z-5.568
G1 X115.001 Y-121.327 Z-5.571
G1 X115.117 Y-121.177 Z-5.574
G1 X115.227 Y-121.022 Z-5.578
G1 X115.33 Y-120.863 Z-5.581
G1 X115.426 Y-120.7 Z-5.584
G1 X115.515 Y-120.532 Z-5.588
G1 X115.597 Y-120.362 Z-5.591
G1 X115.672 Y-120.187 Z-5.594
G1 X115.739 Y-120.01 Z-5.598
G1 X115.799 Y-119.83 Z-5.601
G1 X115.851 Y-119.648 Z-5.604
G1 X115.896 Y-119.464 Z-5.608
G1 X115.932 Y-119.278 Z-5.611
G1 X115.961 Y-119.091 Z-5.615
G1 X115.982 Y-118.902 Z-5.618
G1 X115.995 Y-118.713 Z-5.621
G1 X116 Y-118.524 Z-5.625
G1 X115.997 Y-118.334 Z-5.628
G1 X115.986 Y-118.145 Z-5.631
G1 X115.967 Y-117.956 Z-5.635
G1 X115.94 Y-117.769 Z-5.638
G1 X115.905 Y-117.582 Z-5.641
G1 X115.863 Y-117.398 Z-5.645
G1 X115.813 Y-117.215 Z-5.648
G1 X115.755 Y-117.035 Z-5.651
G1 X115.689 Y-116.857 Z-5.655
G1 X115.616 Y-116.682 Z-5.658
G1 X115.536 Y-116.51 Z-5.661
G1 X115.449 Y-116.342 Z-5.665
G1 X115.354 Y-116.177 Z-5.668
G1 X115.253 Y-116.017 Z-5.672
G1 X115.145 Y-115.861 Z-5.675
G1 X115.031 Y-115.71 Z-5.678
G1 X114.91 Y-115.564 Z-5.682
G1 X114.784 Y-115.423 Z-5.685
G1 X114.651 Y-115.287 Z-5.688
G1 X114.513 Y-115.158 Z-5.692
G1 X114.37 Y-115.034 Z-5.695
G1 X114.221 Y-114.916 Z-5.698
G1 X114.068 Y-114.805 Z-5.702
G1 X113.91 Y-114.7 Z-5.705
G1 X113.748 Y-114.602 Z-5.708
G1 X113.582 Y-114.51 Z-5.712
G1 X113.412 Y-114.426 Z-5.715
G1 X113.238 Y-114.349 Z-5.718
G1 X113.062 Y-114.28 Z-5.722
G1 X112.883 Y-114.218 Z-5.725
G1 X112.702 Y-114.163 Z-5.728
G1 X112.518 Y-114.117 Z-5.732
G1 X112.332 Y-114.078 Z-5.735
G1 X112.145 Y-114.047 Z-5.739
G1 X111.957 Y-114.023 Z-5.742
G1 X111.768 Y-114.008 Z-5.745
G1 X111.579 Y-114.001 Z-5.749
G1 X111.389 Z-5.752
G1 X111.2 Y-114.01 Z-5.755
G1 X111.011 Y-114.027 Z-5.759
G1 X110.823 Y-114.051 Z-5.762
G1 X110.637 Y-114.084 Z-5.765
G1 X110.451 Y-114.124 Z-5.769
G1 X110.268 Y-114.172 Z-5.772
G1 X110.087 Y-114.228 Z-5.775
G1 X109.908 Y-114.291 Z-5.779
G1 X109.732 Y-114.362 Z-5.782
G1 X109.56 Y-114.44 Z-5.785
G1 X109.39 Y-114.525 Z-5.789
G1 X109.225 Y-114.617 Z-5.792
G1 X109.063 Y-114.717 Z-5.796
G1 X108.906 Y-114.823 Z-5.799
G1 X108.754 Y-114.935 Z-5.802
G1 X108.606 Y-115.054 Z-5.806
G1 X108.464 Y-115.179 Z-5.809
G1 X108.326 Y-115.31 Z-5.812
G1 X108.195 Y-115.446 Z-5.816
G1 X108.069 Y-115.588 Z-5.819
G1 X107.95 Y-115.735 Z-5.822
G1 X107.836 Y-115.887 Z-5.826
G1 X107.73 Y-116.044 Z-5.829
G1 X107.629 Y-116.205 Z-5.832
G1 X107.536 Y-116.37 Z-5.836
G1 X107.45 Y-116.538 Z-5.839
G1 X107.371 Y-116.711 Z-5.842
G1 X107.299 Y-116.886 Z-5.846
G1 X107.235 Y-117.064 Z-5.849
G1 X107.178 Y-117.245 Z-5.853
G1 X107.129 Y-117.428 Z-5.856
G1 X107.088 Y-117.613 Z-5.859
G1 X107.055 Y-117.8 Z-5.863
G1 X107.029 Y-117.988 Z-5.866
G1 X107.012 Y-118.176 Z-5.869
G1 X107.002 Y-118.366 Z-5.873
G1 X107 Y-118.555 Z-5.876
G1 X107.007 Y-118.745 Z-5.879
G1 X107.021 Y-118.934 Z-5.883
G1 X107.043 Y-119.122 Z-5.886
G1 X107.073 Y-119.309 Z-5.889
G1 X107.111 Y-119.495 Z-5.893
G1 X107.157 Y-119.679 Z-5.896
G1 X107.211 Y-119.86 Z-5.899
G1 X107.272 Y-120.04 Z-5.903
G1 X107.34 Y-120.217 Z-5.906
G1 X107.416 Y-120.39 Z-5.909
G1 X107.499 Y-120.561 Z-5.913
G1 X107.59 Y-120.727 Z-5.916
G1 X107.687 Y-120.89 Z-5.92
G1 X107.791 Y-121.048 Z-5.923
G1 X107.902 Y-121.202 Z-5.926
G1 X108.019 Y-121.351 Z-5.93
G1 X108.142 Y-121.495 Z-5.933
G1 X108.271 Y-121.634 Z-5.936
G1 X108.406 Y-121.767 Z-5.94
G1 X108.546 Y-121.895 Z-5.943
G1 X108.692 Y-122.016 Z-5.946
G1 X108.842 Y-122.131 Z-5.95
G1 X108.997 Y-122.24 Z-5.953
G1 X109.157 Y-122.342 Z-5.956
G1 X109.321 Y-122.437 Z-5.96
G1 X109.489 Y-122.526 Z-5.963
G1 X109.66 Y-122.607 Z-5.966
G1 X109.835 Y-122.68 Z-5.97
G1 X110.012 Y-122.747 Z-5.973
G1 X110.192 Y-122.806 Z-5.977
G1 X110.375 Y-122.857 Z-5.98
G1 X110.559 Y-122.901 Z-5.983
G1 X110.745 Y-122.936 Z-5.987
G1 X110.933 Y-122.964 Z-5.99
G1 X111.121 Y-122.984 Z-5.993
G1 X111.311 Y-122.996 Z-5.997
G1 X111.5 Y-123 Z-6
G3 Y-114 J4.5
G3 Y-123 J-4.5
G3 X112 Y-122.5 J0.5 F466
G1 Y-122.25
G1 Y-122.19 Z-5.996
G1 Y-122.13 Z-5.985
G1 Y-122.073 Z-5.968
G1 Y-122.018 Z-5.943
G1 Y-121.966 Z-5.911
G1 Y-121.918 Z-5.874
G1 Y-121.876 Z-5.832
G1 Y-121.839 Z-5.784
G1 Y-121.807 Z-5.732
G1 Y-121.782 Z-5.677
G1 Y-121.765 Z-5.62
G1 Y-121.754 Z-5.56
G1 Y-121.75 Z-5.5
G1 Z5 F300
G1 X111 Y-124.25 F2500
G1 Z-1 F300
G1 Z-2.5 F466
G1 Y-124.254 Z-2.56
G1 Y-124.265 Z-2.62
G1 Y-124.282 Z-2.677
G1 Y-124.307 Z-2.732
G1 Y-124.339 Z-2.784
G1 Y-124.376 Z-2.832
G1 Y-124.418 Z-2.874
G1 Y-124.466 Z-2.911
G1 Y-124.518 Z-2.943
G1 Y-124.573 Z-2.968
G1 Y-124.63 Z-2.985
G1 Y-124.69 Z-2.996
G1 Y-124.75 Z-3
G1 Y-125
G3 X111.5 Y-125.5 I0.5
G1 X111.736 Y-125.496 Z-3.003 F300
G1 X111.973 Y-125.484 Z-3.005
G1 X112.208 Y-125.464 Z-3.008
G1 X112.443 Y-125.436 Z-3.011
G1 X112.677 Y-125.4 Z-3.013
G1 X112.909 Y-125.357 Z-3.016
G1 X113.14 Y-125.305 Z-3.019
G1 X113.369 Y-125.246 Z-3.022
G1 X113.596 Y-125.179 Z-3.024
G1 X113.82 Y-125.104 Z-3.027
G1 X114.042 Y-125.022 Z-3.03
G1 X114.26 Y-124.933 Z-3.032
G1 X114.476 Y-124.836 Z-3.035
G1 X114.688 Y-124.732 Z-3.038
G1 X114.897 Y-124.62 Z-3.04
G1 X115.102 Y-124.502 Z-3.043
G1 X115.303 Y-124.377 Z-3.046
G1 X115.499 Y-124.245 Z-3.048
G1 X115.691 Y-124.107 Z-3.051
G1 X115.878 Y-123.962 Z-3.054
G1 X116.06 Y-123.811 Z-3.056
G1 X116.236 Y-123.654 Z-3.059
G1 X116.408 Y-123.491 Z-3.062
G1 X116.574 Y-123.323 Z-3.065
G1 X116.734 Y-123.149 Z-3.067
G1 X116.888 Y-122.969 Z-3.07
G1 X117.035 Y-122.785 Z-3.073
G1 X117.177 Y-122.595 Z-3.075
G1 X117.312 Y-122.401 Z-3.078
G1 X117.441 Y-122.203 Z-3.081
G1 X117.562 Y-122 Z-3.083
G1 X117.677 Y-121.793 Z-3.086
G1 X117.785 Y-121.583 Z-3.089
G1 X117.885 Y-121.369 Z-3.091
G1 X117.978 Y-121.151 Z-3.094
G1 X118.064 Y-120.931 Z-3.097
G1 X118.143 Y-120.708 Z-3.099
G1 X118.213 Y-120.482 Z-3.102
G1 X118.277 Y-120.255 Z-3.105
G1 X118.332 Y-120.025 Z-3.108
G1 X118.38 Y-119.793 Z-3.11
G1 X118.419 Y-119.56 Z-3.113
G1 X118.451 Y-119.326 Z-3.116
G1 X118.475 Y-119.09 Z-3.118
G1 X118.491 Y-118.855 Z-3.121
G1 X118.499 Y-118.618 Z-3.124
G1 Y-118.382 Z-3.126
G1 X118.491 Y-118.145 Z-3.129
G1 X118.475 Y-117.91 Z-3.132
G1 X118.451 Y-117.674 Z-3.134
G1 X118.419 Y-117.44 Z-3.137
G1 X118.38 Y-117.207 Z-3.14
G1 X118.332 Y-116.975 Z-3.142
G1 X118.277 Y-116.745 Z-3.145
G1 X118.213 Y-116.518 Z-3.148
G1 X118.143 Y-116.292 Z-3.151
G1 X118.064 Y-116.069 Z-3.153
G1 X117.978 Y-115.849 Z-3.156
G1 X117.885 Y-115.631 Z-3.159
G1 X117.785 Y-115.417 Z-3.161
G1 X117.677 Y-115.207 Z-3.164
G1 X117.562 Y-115 Z-3.167
G1 X117.441 Y-114.797 Z-3.169
G1 X117.312 Y-114.599 Z-3.172
G1 X117.177 Y-114.405 Z-3.175
G1 X117.035 Y-114.215 Z-3.177
G1 X116.888 Y-114.031 Z-3.18
G1 X116.734 Y-113.851 Z-3.183
G1 X116.574 Y-113.677 Z-3.185
G1 X116.408 Y-113.509 Z-3.188
G1 X116.236 Y-113.346 Z-3.191
G1 X116.06 Y-113.189 Z-3.194
G1 X115.878 Y-113.038 Z-3.196
G1 X115.691 Y-112.893 Z-3.199
G1 X115.499 Y-112.755 Z-3.202
G1 X115.303 Y-112.623 Z-3.204
G1 X115.102 Y-112.498 Z-3.207
G1 X114.897 Y-112.38 Z-3.21
G1 X114.688 Y-112.268 Z-3.212
G1 X114.476 Y-112.164 Z-3.215
G1 X114.26 Y-112.067 Z-3.218
G1 X114.042 Y-111.978 Z-3.22
G1 X113.82 Y-111.896 Z-3.223
G1 X113.596 Y-111.821 Z-3.226
G1 X113.369 Y-111.754 Z-3.228
G1 X113.14 Y-111.695 Z-3.231
G1 X112.909 Y-111.643 Z-3.234
G1 X112.677 Y-111.6 Z-3.237
G1 X112.443 Y-111.564 Z-3.239
G1 X112.208 Y-111.536 Z-3.242
G1 X111.973 Y-111.516 Z-3.245
G1 X111.736 Y-111.504 Z-3.247
G1 X111.5 Y-111.5 Z-3.25
G1 X111.264 Y-111.504 Z-3.253
G1 X111.027 Y-111.516 Z-3.255
G1 X110.792 Y-111.536 Z-3.258
G1 X110.557 Y-111.564 Z-3.261
G1 X110.323 Y-111.6 Z-3.263
G1 X110.091 Y-111.643 Z-3.266
G1 X109.86 Y-111.695 Z-3.269
G1 X109.631 Y-111.754 Z-3.272
G1 X109.404 Y-111.821 Z-3.274
G1 X109.18 Y-111.896 Z-3.277
G1 X108.958 Y-111.978 Z-3.28
G1 X108.74 Y-112.067 Z-3.282
G1 X108.524 Y-112.164 Z-3.285
G1 X108.312 Y-112.268 Z-3.288
G1 X108.103 Y-112.38 Z-3.29
G1 X107.898 Y-112.498 Z-3.293
G1 X107.697 Y-112.623 Z-3.296
G1 X107.501 Y-112.755 Z-3.298
G1 X107.309 Y-112.893 Z-3.301
G1 X107.122 Y-113.038 Z-3.304
G1 X106.94 Y-113.189 Z-3.306
G1 X106.764 Y-113.346 Z-3.309
G1 X106.592 Y-113.509 Z-3.312
G1 X106.426 Y-113.677 Z-3.315
G1 X106.266 Y-113.851 Z-3.317
G1 X106.112 Y-114.031 Z-3.32
G1 X105.965 Y-114.215 Z-3.323
G1 X105.823 Y-114.405 Z-3.325
G1 X105.688 Y-114.599 Z-3.328
G1 X105.559 Y-114.797 Z-3.331
G1 X105.438 Y-115 Z-3.333
G1 X105.323 Y-115.207 Z-3.336
G1 X105.215 Y-115.417 Z-3.339
G1 X105.115 Y-115.631 Z-3.341
G1 X105.022 Y-115.849 Z-3.344
G1 X104.936 Y-116.069 Z-3.347
G1 X104.857 Y-116.292 Z-3.349
G1 X104.787 Y-116.518 Z-3.352
G1 X104.723 Y-116.745 Z-3.355
G1 X104.668 Y-116.975 Z-3.358
G1 X104.62 Y-117.207 Z-3.36
G1 X104.581 Y-117.44 Z-3.363
G1 X104.549 Y-117.674 Z-3.366
G1 X104.525 Y-117.91 Z-3.368
G1 X104.509 Y-118.145 Z-3.371
G1 X104.501 Y-118.382 Z-3.374
G1 Y-118.618 Z-3.376
G1 X104.509 Y-118.855 Z-3.379
G1 X104.525 Y-119.09 Z-3.382
G1 X104.549 Y-119.326 Z-3.384
G1 X104.581 Y-119.56 Z-3.387
G1 X104.62 Y-119.793 Z-3.39
G1 X104.668 Y-120.025 Z-3.392
G1 X104.723 Y-120.255 Z-3.395
G1 X104.787 Y-120.482 Z-3.398
G1 X104.857 Y-120.708 Z-3.401
G1 X104.936 Y-120.931 Z-3.403
G1 X105.022 Y-121.151 Z-3.406
G1 X105.115 Y-121.369 Z-3.409
G1 X105.215 Y-121.583 Z-3.411
G1 X105.323 Y-121.793 Z-3.414
G1 X105.438 Y-122 Z-3.417
G1 X105.559 Y-122.203 Z-3.419
G1 X105.688 Y-122.401 Z-3.422
G1 X105.823 Y-122.595 Z-3.425
G1 X105.965 Y-122.785 Z-3.427
G1 X106.112 Y-122.969 Z-3.43
G1 X106.266 Y-123.149 Z-3.433
G1 X106.426 Y-123.323 Z-3.435
G1 X106.592 Y-123.491 Z-3.438
G1 X106.764 Y-123.654 Z-3.441
G1 X106.94 Y-123.811 Z-3.444
G1 X107.122 Y-123.962 Z-3.446
G1 X107.309 Y-124.107 Z-3.449
G1 X107.501 Y-124.245 Z-3.452
G1 X107.697 Y-124.377 Z-3.454
G1 X107.898 Y-124.502 Z-3.457
G1 X108.103 Y-124.62 Z-3.46
G1 X108.312 Y-124.732 Z-3.462
G1 X108.524 Y-124.836 Z-3.465
G1 X108.74 Y-124.933 Z-3.468
G1 X108.958 Y-125.022 Z-3.47
G1 X109.18 Y-125.104 Z-3.473
G1 X109.404 Y-125.179 Z-3.476
G1 X109.631 Y-125.246 Z-3.478
G1 X109.86 Y-125.305 Z-3.481
G1 X110.091 Y-125.357 Z-3.484
G1 X110.323 Y-125.4 Z-3.487
G1 X110.557 Y-125.436 Z-3.489
G1 X110.792 Y-125.464 Z-3.492
G1 X111.027 Y-125.484 Z-3.495
G1 X111.264 Y-125.496 Z-3.497
G1 X111.5 Y-125.5 Z-3.5
G1 X111.736 Y-125.496 Z-3.503
G1 X111.973 Y-125.484 Z-3.505
G1 X112.208 Y-125.464 Z-3.508
G1 X112.443 Y-125.436 Z-3.511
G1 X112.677 Y-125.4 Z-3.513
G1 X112.909 Y-125.357 Z-3.516
G1 X113.14 Y-125.305 Z-3.519
G1 X113.369 Y-125.246 Z-3.522
G1 X113.596 Y-125.179 Z-3.524
G1 X113.82 Y-125.104 Z-3.527
G1 X114.042 Y-125.022 Z-3.53
G1 X114.26 Y-124.933 Z-3.532
G1 X114.476 Y-124.836 Z-3.535
G1 X114.688 Y-124.732 Z-3.538
G1 X114.897 Y-124.62 Z-3.54
G1 X115.102 Y-124.502 Z-3.543
G1 X115.303 Y-124.377 Z-3.546
G1 X115.499 Y-124.245 Z-3.548
G1 X115.691 Y-124.107 Z-3.551
G1 X115.878 Y-123.962 Z-3.554
G1 X116.06 Y-123.811 Z-3.556
G1 X116.236 Y-123.654 Z-3.559
G1 X116.408 Y-123.491 Z-3.562
G1 X116.574 Y-123.323 Z-3.565
G1 X116.734 Y-123.149 Z-3.567
G1 X116.888 Y-122.969 Z-3.57
G1 X117.035 Y-122.785 Z-3.573
G1 X117.177 Y-122.595 Z-3.575
G1 X117.312 Y-122.401 Z-3.578
G1 X117.441 Y-122.203 Z-3.581
G1 X117.562 Y-122 Z-3.583
G1 X117.677 Y-121.793 Z-3.586
G1 X117.785 Y-121.583 Z-3.589
G1 X117.885 Y-121.369 Z-3.591
G1 X117.978 Y-121.151 Z-3.594
G1 X118.064 Y-120.931 Z-3.597
G1 X118.143 Y-120.708 Z-3.599
G1 X118.213 Y-120.482 Z-3.602
G1 X118.277 Y-120.255 Z-3.605
G1 X118.332 Y-120.025 Z-3.608
G1 X118.38 Y-119.793 Z-3.61
G1 X118.419 Y-119.56 Z-3.613
G1 X118.451 Y-119.326 Z-3.616
G1 X118.475 Y-119.09 Z-3.618
G1 X118.491 Y-118.855 Z-3.621
G1 X118.499 Y-118.618 Z-3.624
G1 Y-118.382 Z-3.626
G1 X118.491 Y-118.145 Z-3.629
G1 X118.475 Y-117.91 Z-3.632
G1 X118.451 Y-117.674 Z-3.634
G1 X118.419 Y-117.44 Z-3.637
G1 X118.38 Y-117.207 Z-3.64
G1 X118.332 Y-116.975 Z-3.642
G1 X118.277 Y-116.745 Z-3.645
G1 X118.213 Y-116.518 Z-3.648
G1 X118.143 Y-116.292 Z-3.651
G1 X118.064 Y-116.069 Z-3.653
G1 X117.978 Y-115.849 Z-3.656
G1 X117.885 Y-115.631 Z-3.659
G1 X117.785 Y-115.417 Z-3.661
G1 X117.677 Y-115.207 Z-3.664
G1 X117.562 Y-115 Z-3.667
G1 X117.441 Y-114.797 Z-3.669
G1 X117.312 Y-114.599 Z-3.672
G1 X117.177 Y-114.405 Z-3.675
G1 X117.035 Y-114.215 Z-3.677
G1 X116.888 Y-114.031 Z-3.68
G1 X116.734 Y-113.851 Z-3.683
G1 X116.574 Y-113.677 Z-3.685
G1 X116.408 Y-113.509 Z-3.688
G1 X116.236 Y-113.346 Z-3.691
G1 X116.06 Y-113.189 Z-3.694
G1 X115.878 Y-113.038 Z-3.696
G1 X115.691 Y-112.893 Z-3.699
G1 X115.499 Y-112.755 Z-3.702
G1 X115.303 Y-112.623 Z-3.704
G1 X115.102 Y-112.498 Z-3.707
G1 X114.897 Y-112.38 Z-3.71
G1 X114.688 Y-112.268 Z-3.712
G1 X114.476 Y-112.164 Z-3.715
G1 X114.26 Y-112.067 Z-3.718
G1 X114.042 Y-111.978 Z-3.72
G1 X113.82 Y-111.896 Z-3.723
G1 X113.596 Y-111.821 Z-3.726
G1 X113.369 Y-111.754 Z-3.728
G1 X113.14 Y-111.695 Z-3.731
G1 X112.909 Y-111.643 Z-3.734
G1 X112.677 Y-111.6 Z-3.737
G1 X112.443 Y-111.564 Z-3.739
G1 X112.208 Y-111.536 Z-3.742
G1 X111.973 Y-111.516 Z-3.745
G1 X111.736 Y-111.504 Z-3.747
G1 X111.5 Y-111.5 Z-3.75
G1 X111.264 Y-111.504 Z-3.753
G1 X111.027 Y-111.516 Z-3.755
G1 X110.792 Y-111.536 Z-3.758
G1 X110.557 Y-111.564 Z-3.761
G1 X110.323 Y-111.6 Z-3.763
G1 X110.091 Y-111.643 Z-3.766
G1 X109.86 Y-111.695 Z-3.769
G1 X109.631 Y-111.754 Z-3.772
G1 X109.404 Y-111.821 Z-3.774
G1 X109.18 Y-111.896 Z-3.777
G1 X108.958 Y-111.978 Z-3.78
G1 X108.74 Y-112.067 Z-3.782
G1 X108.524 Y-112.164 Z-3.785
G1 X108.312 Y-112.268 Z-3.788
G1 X108.103 Y-112.38 Z-3.79
G1 X107.898 Y-112.498 Z-3.793
G1 X107.697 Y-112.623 Z-3.796
G1 X107.501 Y-112.755 Z-3.798
G1 X107.309 Y-112.893 Z-3.801
G1 X107.122 Y-113.038 Z-3.804
G1 X106.94 Y-113.189 Z-3.806
G1 X106.764 Y-113.346 Z-3.809
G1 X106.592 Y-113.509 Z-3.812
G1 X106.426 Y-113.677 Z-3.815
G1 X106.266 Y-113.851 Z-3.817
G1 X106.112 Y-114.031 Z-3.82
G1 X105.965 Y-114.215 Z-3.823
G1 X105.823 Y-114.405 Z-3.825
G1 X105.688 Y-114.599 Z-3.828
G1 X105.559 Y-114.797 Z-3.831
G1 X105.438 Y-115 Z-3.833
G1 X105.323 Y-115.207 Z-3.836
G1 X105.215 Y-115.417 Z-3.839
G1 X105.115 Y-115.631 Z-3.841
G1 X105.022 Y-115.849 Z-3.844
G1 X104.936 Y-116.069 Z-3.847
G1 X104.857 Y-116.292 Z-3.849
G1 X104.787 Y-116.518 Z-3.852
G1 X104.723 Y-116.745 Z-3.855
G1 X104.668 Y-116.975 Z-3.858
G1 X104.62 Y-117.207 Z-3.86
G1 X104.581 Y-117.44 Z-3.863
G1 X104.549 Y-117.674 Z-3.866
G1 X104.525 Y-117.91 Z-3.868
G1 X104.509 Y-118.145 Z-3.871
G1 X104.501 Y-118.382 Z-3.874
G1 Y-118.618 Z-3.876
G1 X104.509 Y-118.855 Z-3.879
G1 X104.525 Y-119.09 Z-3.882
G1 X104.549 Y-119.326 Z-3.884
G1 X104.581 Y-119.56 Z-3.887
G1 X104.62 Y-119.793 Z-3.89
G1 X104.668 Y-120.025 Z-3.892
G1 X104.723 Y-120.255 Z-3.895
G1 X104.787 Y-120.482 Z-3.898
G1 X104.857 Y-120.708 Z-3.901
G1 X104.936 Y-120.931 Z-3.903
G1 X105.022 Y-121.151 Z-3.906
G1 X105.115 Y-121.369 Z-3.909
G1 X105.215 Y-121.583 Z-3.911
G1 X105.323 Y-121.793 Z-3.914
G1 X105.438 Y-122 Z-3.917
G1 X105.559 Y-122.203 Z-3.919
G1 X105.688 Y-122.401 Z-3.922
G1 X105.823 Y-122.595 Z-3.925
G1 X105.965 Y-122.785 Z-3.927
G1 X106.112 Y-122.969 Z-3.93
G1 X106.266 Y-123.149 Z-3.933
G1 X106.426 Y-123.323 Z-3.935
G1 X106.592 Y-123.491 Z-3.938
G1 X106.764 Y-123.654 Z-3.941
G1 X106.94 Y-123.811 Z-3.944
G1 X107.122 Y-123.962 Z-3.946
G1 X107.309 Y-124.107 Z-3.949
G1 X107.501 Y-124.245 Z-3.952
G1 X107.697 Y-124.377 Z-3.954
G1 X107.898 Y-124.502 Z-3.957
G1 X108.103 Y-124.62 Z-3.96
G1 X108.312 Y-124.732 Z-3.962
G1 X108.524 Y-124.836 Z-3.965
G1 X108.74 Y-124.933 Z-3.968
G1 X108.958 Y-125.022 Z-3.97
G1 X109.18 Y-125.104 Z-3.973
G1 X109.404 Y-125.179 Z-3.976
G1 X109.631 Y-125.246 Z-3.978
G1 X109.86 Y-125.305 Z-3.981
G1 X110.091 Y-125.357 Z-3.984
G1 X110.323 Y-125.4 Z-3.987
G1 X110.557 Y-125.436 Z-3.989
G1 X110.792 Y-125.464 Z-3.992
G1 X111.027 Y-125.484 Z-3.995
G1 X111.264 Y-125.496 Z-3.997
G1 X111.5 Y-125.5 Z-4
G1 X111.736 Y-125.496 Z-4.003
G1 X111.973 Y-125.484 Z-4.005
G1 X112.208 Y-125.464 Z-4.008
G1 X112.443 Y-125.436 Z-4.011
G1 X112.677 Y-125.4 Z-4.013
G1 X112.909 Y-125.357 Z-4.016
G1 X113.14 Y-125.305 Z-4.019
G1 X113.369 Y-125.246 Z-4.022
G1 X113.596 Y-125.179 Z-4.024
G1 X113.82 Y-125.104 Z-4.027
G1 X114.042 Y-125.022 Z-4.03
G1 X114.26 Y-124.933 Z-4.032
G1 X114.476 Y-124.836 Z-4.035
G1 X114.688 Y-124.732 Z-4.038
G1 X114.897 Y-124.62 Z-4.04
G1 X115.102 Y-124.502 Z-4.043
G1 X115.303 Y-124.377 Z-4.046
G1 X115.499 Y-124.245 Z-4.048
G1 X115.691 Y-124.107 Z-4.051
G1 X115.878 Y-123.962 Z-4.054
G1 X116.06 Y-123.811 Z-4.056
G1 X116.236 Y-123.654 Z-4.059
G1 X116.408 Y-123.491 Z-4.062
G1 X116.574 Y-123.323 Z-4.065
G1 X116.734 Y-123.149 Z-4.067
G1 X116.888 Y-122.969 Z-4.07
G1 X117.035 Y-122.785 Z-4.073
G1 X117.177 Y-122.595 Z-4.075
G1 X117.312 Y-122.401 Z-4.078
G1 X117.441 Y-122.203 Z-4.081
G1 X117.562 Y-122 Z-4.083
G1 X117.677 Y-121.793 Z-4.086
G1 X117.785 Y-121.583 Z-4.089
G1 X117.885 Y-121.369 Z-4.091
G1 X117.978 Y-121.151 Z-4.094
G1 X118.064 Y-120.931 Z-4.097
G1 X118.143 Y-120.708 Z-4.099
G1 X118.213 Y-120.482 Z-4.102
G1 X118.277 Y-120.255 Z-4.105
G1 X118.332 Y-120.025 Z-4.108
G1 X118.38 Y-119.793 Z-4.11
G1 X118.419 Y-119.56 Z-4.113
G1 X118.451 Y-119.326 Z-4.116
G1 X118.475 Y-119.09 Z-4.118
G1 X118.491 Y-118.855 Z-4.121
G1 X118.499 Y-118.618 Z-4.124
G1 Y-118.382 Z-4.126
G1 X118.491 Y-118.145 Z-4.129
G1 X118.475 Y-117.91 Z-4.132
G1 X118.451 Y-117.674 Z-4.134
G1 X118.419 Y-117.44 Z-4.137
G1 X118.38 Y-117.207 Z-4.14
G1 X118.332 Y-116.975 Z-4.142
G1 X118.277 Y-116.745 Z-4.145
G1 X118.213 Y-116.518 Z-4.148
G1 X118.143 Y-116.292 Z-4.151
G1 X118.064 Y-116.069 Z-4.153
G1 X117.978 Y-115.849 Z-4.156
G1 X117.885 Y-115.631 Z-4.159
G1 X117.785 Y-115.417 Z-4.161
G1 X117.677 Y-115.207 Z-4.164
G1 X117.562 Y-115 Z-4.167
G1 X117.441 Y-114.797 Z-4.169
G1 X117.312 Y-114.599 Z-4.172
G1 X117.177 Y-114.405 Z-4.175
G1 X117.035 Y-114.215 Z-4.177
G1 X116.888 Y-114.031 Z-4.18
G1 X116.734 Y-113.851 Z-4.183
G1 X116.574 Y-113.677 Z-4.185
G1 X116.408 Y-113.509 Z-4.188
G1 X116.236 Y-113.346 Z-4.191
G1 X116.06 Y-113.189 Z-4.194
G1 X115.878 Y-113.038 Z-4.196
G1 X115.691 Y-112.893 Z-4.199
G1 X115.499 Y-112.755 Z-4.202
G1 X115.303 Y-112.623 Z-4.204
G1 X115.102 Y-112.498 Z-4.207
G1 X114.897 Y-112.38 Z-4.21
G1 X114.688 Y-112.268 Z-4.212
G1 X114.476 Y-112.164 Z-4.215
G1 X114.26 Y-112.067 Z-4.218
G1 X114.042 Y-111.978 Z-4.22
G1 X113.82 Y-111.896 Z-4.223
G1 X113.596 Y-111.821 Z-4.226
G1 X113.369 Y-111.754 Z-4.228
G1 X113.14 Y-111.695 Z-4.231
G1 X112.909 Y-111.643 Z-4.234
G1 X112.677 Y-111.6 Z-4.237
G1 X112.443 Y-111.564 Z-4.239
G1 X112.208 Y-111.536 Z-4.242
G1 X111.973 Y-111.516 Z-4.245
G1 X111.736 Y-111.504 Z-4.247
G1 X111.5 Y-111.5 Z-4.25
G1 X111.264 Y-111.504 Z-4.253
G1 X111.027 Y-111.516 Z-4.255
G1 X110.792 Y-111.536 Z-4.258
G1 X110.557 Y-111.564 Z-4.261
G1 X110.323 Y-111.6 Z-4.263
G1 X110.091 Y-111.643 Z-4.266
G1 X109.86 Y-111.695 Z-4.269
G1 X109.631 Y-111.754 Z-4.272
G1 X109.404 Y-111.821 Z-4.274
G1 X109.18 Y-111.896 Z-4.277
G1 X108.958 Y-111.978 Z-4.28
G1 X108.74 Y-112.067 Z-4.282
G1 X108.524 Y-112.164 Z-4.285
G1 X108.312 Y-112.268 Z-4.288
G1 X108.103 Y-112.38 Z-4.29
G1 X107.898 Y-112.498 Z-4.293
G1 X107.697 Y-112.623 Z-4.296
G1 X107.501 Y-112.755 Z-4.298
G1 X107.309 Y-112.893 Z-4.301
G1 X107.122 Y-113.038 Z-4.304
G1 X106.94 Y-113.189 Z-4.306
G1 X106.764 Y-113.346 Z-4.309
G1 X106.592 Y-113.509 Z-4.312
G1 X106.426 Y-113.677 Z-4.315
G1 X106.266 Y-113.851 Z-4.317
G1 X106.112 Y-114.031 Z-4.32
G1 X105.965 Y-114.215 Z-4.323
G1 X105.823 Y-114.405 Z-4.325
G1 X105.688 Y-114.599 Z-4.328
G1 X105.559 Y-114.797 Z-4.331
G1 X105.438 Y-115 Z-4.333
G1 X105.323 Y-115.207 Z-4.336
G1 X105.215 Y-115.417 Z-4.339
G1 X105.115 Y-115.631 Z-4.341
G1 X105.022 Y-115.849 Z-4.344
G1 X104.936 Y-116.069 Z-4.347
G1 X104.857 Y-116.292 Z-4.349
G1 X104.787 Y-116.518 Z-4.352
G1 X104.723 Y-116.745 Z-4.355
G1 X104.668 Y-116.975 Z-4.358
G1 X104.62 Y-117.207 Z-4.36
G1 X104.581 Y-117.44 Z-4.363
G1 X104.549 Y-117.674 Z-4.366
G1 X104.525 Y-117.91 Z-4.368
G1 X104.509 Y-118.145 Z-4.371
G1 X104.501 Y-118.382 Z-4.374
G1 Y-118.618 Z-4.376
G1 X104.509 Y-118.855 Z-4.379
G1 X104.525 Y-119.09 Z-4.382
G1 X104.549 Y-119.326 Z-4.384
G1 X104.581 Y-119.56 Z-4.387
G1 X104.62 Y-119.793 Z-4.39
G1 X104.668 Y-120.025 Z-4.392
G1 X104.723 Y-120.255 Z-4.395
G1 X104.787 Y-120.482 Z-4.398
G1 X104.857 Y-120.708 Z-4.401
G1 X104.936 Y-120.931 Z-4.403
G1 X105.022 Y-121.151 Z-4.406
G1 X105.115 Y-121.369 Z-4.409
G1 X105.215 Y-121.583 Z-4.411
G1 X105.323 Y-121.793 Z-4.414
G1 X105.438 Y-122 Z-4.417
G1 X105.559 Y-122.203 Z-4.419
G1 X105.688 Y-122.401 Z-4.422
G1 X105.823 Y-122.595 Z-4.425
G1 X105.965 Y-122.785 Z-4.427
G1 X106.112 Y-122.969 Z-4.43
G1 X106.266 Y-123.149 Z-4.433
G1 X106.426 Y-123.323 Z-4.435
G1 X106.592 Y-123.491 Z-4.438
G1 X106.764 Y-123.654 Z-4.441
G1 X106.94 Y-123.811 Z-4.444
G1 X107.122 Y-123.962 Z-4.446
G1 X107.309 Y-124.107 Z-4.449
G1 X107.501 Y-124.245 Z-4.452
G1 X107.697 Y-124.377 Z-4.454
G1 X107.898 Y-124.502 Z-4.457
G1 X108.103 Y-124.62 Z-4.46
G1 X108.312 Y-124.732 Z-4.462
G1 X108.524 Y-124.836 Z-4.465
G1 X108.74 Y-124.933 Z-4.468
G1 X108.958 Y-125.022 Z-4.47
G1 X109.18 Y-125.104 Z-4.473
G1 X109.404 Y-125.179 Z-4.476
G1 X109.631 Y-125.246 Z-4.478
G1 X109.86 Y-125.305 Z-4.481
G1 X110.091 Y-125.357 Z-4.484
G1 X110.323 Y-125.4 Z-4.487
G1 X110.557 Y-125.436 Z-4.489
G1 X110.792 Y-125.464 Z-4.492
G1 X111.027 Y-125.484 Z-4.495
G1 X111.264 Y-125.496 Z-4.497
G1 X111.5 Y-125.5 Z-4.5
G1 X111.736 Y-125.496 Z-4.503
G1 X111.973 Y-125.484 Z-4.505
G1 X112.208 Y-125.464 Z-4.508
G1 X112.443 Y-125.436 Z-4.511
G1 X112.677 Y-125.4 Z-4.513
G1 X112.909 Y-125.357 Z-4.516
G1 X113.14 Y-125.305 Z-4.519
G1 X113.369 Y-125.246 Z-4.522
G1 X113.596 Y-125.179 Z-4.524
G1 X113.82 Y-125.104 Z-4.527
G1 X114.042 Y-125.022 Z-4.53
G1 X114.26 Y-124.933 Z-4.532
G1 X114.476 Y-124.836 Z-4.535
G1 X114.688 Y-124.732 Z-4.538
G1 X114.897 Y-124.62 Z-4.54
G1 X115.102 Y-124.502 Z-4.543
G1 X115.303 Y-124.377 Z-4.546
G1 X115.499 Y-124.245 Z-4.548
G1 X115.691 Y-124.107 Z-4.551
G1 X115.878 Y-123.962 Z-4.554
G1 X116.06 Y-123.811 Z-4.556
G1 X116.236 Y-123.654 Z-4.559
G1 X116.408 Y-123.491 Z-4.562
G1 X116.574 Y-123.323 Z-4.565
G1 X116.734 Y-123.149 Z-4.567
G1 X116.888 Y-122.969 Z-4.57
G1 X117.035 Y-122.785 Z-4.573
G1 X117.177 Y-122.595 Z-4.575
G1 X117.312 Y-122.401 Z-4.578
G1 X117.441 Y-122.203 Z-4.581
G1 X117.562 Y-122 Z-4.583
G1 X117.677 Y-121.793 Z-4.586
G1 X117.785 Y-121.583 Z-4.589
G1 X117.885 Y-121.369 Z-4.591
G1 X117.978 Y-121.151 Z-4.594
G1 X118.064 Y-120.931 Z-4.597
G1 X118.143 Y-120.708 Z-4.599
G1 X118.213 Y-120.482 Z-4.602
G1 X118.277 Y-120.255 Z-4.605
G1 X118.332 Y-120.025 Z-4.608
G1 X118.38 Y-119.793 Z-4.61
G1 X118.419 Y-119.56 Z-4.613
G1 X118.451 Y-119.326 Z-4.616
G1 X118.475 Y-119.09 Z-4.618
G1 X118.491 Y-118.855 Z-4.621
G1 X118.499 Y-118.618 Z-4.624
G1 Y-118.382 Z-4.626
G1 X118.491 Y-118.145 Z-4.629
G1 X118.475 Y-117.91 Z-4.632
G1 X118.451 Y-117.674 Z-4.634
G1 X118.419 Y-117.44 Z-4.637
G1 X118.38 Y-117.207 Z-4.64
G1 X118.332 Y-116.975 Z-4.642
G1 X118.277 Y-116.745 Z-4.645
G1 X118.213 Y-116.518 Z-4.648
G1 X118.143 Y-116.292 Z-4.651
G1 X118.064 Y-116.069 Z-4.653
G1 X117.978 Y-115.849 Z-4.656
G1 X117.885 Y-115.631 Z-4.659
G1 X117.785 Y-115.417 Z-4.661
G1 X117.677 Y-115.207 Z-4.664
G1 X117.562 Y-115 Z-4.667
G1 X117.441 Y-114.797 Z-4.669
G1 X117.312 Y-114.599 Z-4.672
G1 X117.177 Y-114.405 Z-4.675
G1 X117.035 Y-114.215 Z-4.677
G1 X116.888 Y-114.031 Z-4.68
G1 X116.734 Y-113.851 Z-4.683
G1 X116.574 Y-113.677 Z-4.685
G1 X116.408 Y-113.509 Z-4.688
G1 X116.236 Y-113.346 Z-4.691
G1 X116.06 Y-113.189 Z-4.694
G1 X115.878 Y-113.038 Z-4.696
G1 X115.691 Y-112.893 Z-4.699
G1 X115.499 Y-112.755 Z-4.702
G1 X115.303 Y-112.623 Z-4.704
G1 X115.102 Y-112.498 Z-4.707
G1 X114.897 Y-112.38 Z-4.71
G1 X114.688 Y-112.268 Z-4.712
G1 X114.476 Y-112.164 Z-4.715
G1 X114.26 Y-112.067 Z-4.718
G1 X114.042 Y-111.978 Z-4.72
G1 X113.82 Y-111.896 Z-4.723
G1 X113.596 Y-111.821 Z-4.726
G1 X113.369 Y-111.754 Z-4.728
G1 X113.14 Y-111.695 Z-4.731
G1 X112.909 Y-111.643 Z-4.734
G1 X112.677 Y-111.6 Z-4.737
G1 X112.443 Y-111.564 Z-4.739
G1 X112.208 Y-111.536 Z-4.742
G1 X111.973 Y-111.516 Z-4.745
G1 X111.736 Y-111.504 Z-4.747
G1 X111.5 Y-111.5 Z-4.75
G1 X111.264 Y-111.504 Z-4.753
G1 X111.027 Y-111.516 Z-4.755
G1 X110.792 Y-111.536 Z-4.758
G1 X110.557 Y-111.564 Z-4.761
G1 X110.323 Y-111.6 Z-4.763
G1 X110.091 Y-111.643 Z-4.766
G1 X109.86 Y-111.695 Z-4.769
G1 X109.631 Y-111.754 Z-4.772
G1 X109.404 Y-111.821 Z-4.774
G1 X109.18 Y-111.896 Z-4.777
G1 X108.958 Y-111.978 Z-4.78
G1 X108.74 Y-112.067 Z-4.782
G1 X108.524 Y-112.164 Z-4.785
G1 X108.312 Y-112.268 Z-4.788
G1 X108.103 Y-112.38 Z-4.79
G1 X107.898 Y-112.498 Z-4.793
G1 X107.697 Y-112.623 Z-4.796
G1 X107.501 Y-112.755 Z-4.798
G1 X107.309 Y-112.893 Z-4.801
G1 X107.122 Y-113.038 Z-4.804
G1 X106.94 Y-113.189 Z-4.806
G1 X106.764 Y-113.346 Z-4.809
G1 X106.592 Y-113.509 Z-4.812
G1 X106.426 Y-113.677 Z-4.815
G1 X106.266 Y-113.851 Z-4.817
G1 X106.112 Y-114.031 Z-4.82
G1 X105.965 Y-114.215 Z-4.823
G1 X105.823 Y-114.405 Z-4.825
G1 X105.688 Y-114.599 Z-4.828
G1 X105.559 Y-114.797 Z-4.831
G1 X105.438 Y-115 Z-4.833
G1 X105.323 Y-115.207 Z-4.836
G1 X105.215 Y-115.417 Z-4.839
G1 X105.115 Y-115.631 Z-4.841
G1 X105.022 Y-115.849 Z-4.844
G1 X104.936 Y-116.069 Z-4.847
G1 X104.857 Y-116.292 Z-4.849
G1 X104.787 Y-116.518 Z-4.852
G1 X104.723 Y-116.745 Z-4.855
G1 X104.668 Y-116.975 Z-4.858
G1 X104.62 Y-117.207 Z-4.86
G1 X104.581 Y-117.44 Z-4.863
G1 X104.549 Y-117.674 Z-4.866
G1 X104.525 Y-117.91 Z-4.868
G1 X104.509 Y-118.145 Z-4.871
G1 X104.501 Y-118.382 Z-4.874
G1 Y-118.618 Z-4.876
G1 X104.509 Y-118.855 Z-4.879
G1 X104.525 Y-119.09 Z-4.882
G1 X104.549 Y-119.326 Z-4.884
G1 X104.581 Y-119.56 Z-4.887
G1 X104.62 Y-119.793 Z-4.89
G1 X104.668 Y-120.025 Z-4.892
G1 X104.723 Y-120.255 Z-4.895
G1 X104.787 Y-120.482 Z-4.898
G1 X104.857 Y-120.708 Z-4.901
G1 X104.936 Y-120.931 Z-4.903
G1 X105.022 Y-121.151 Z-4.906
G1 X105.115 Y-121.369 Z-4.909
G1 X105.215 Y-121.583 Z-4.911
G1 X105.323 Y-121.793 Z-4.914
G1 X105.438 Y-122 Z-4.917
G1 X105.559 Y-122.203 Z-4.919
G1 X105.688 Y-122.401 Z-4.922
G1 X105.823 Y-122.595 Z-4.925
G1 X105.965 Y-122.785 Z-4.927
G1 X106.112 Y-122.969 Z-4.93
G1 X106.266 Y-123.149 Z-4.933
G1 X106.426 Y-123.323 Z-4.935
G1 X106.592 Y-123.491 Z-4.938
G1 X106.764 Y-123.654 Z-4.941
G1 X106.94 Y-123.811 Z-4.944
G1 X107.122 Y-123.962 Z-4.946
G1 X107.309 Y-124.107 Z-4.949
G1 X107.501 Y-124.245 Z-4.952
G1 X107.697 Y-124.377 Z-4.954
G1 X107.898 Y-124.502 Z-4.957
G1 X108.103 Y-124.62 Z-4.96
G1 X108.312 Y-124.732 Z-4.962
G1 X108.524 Y-124.836 Z-4.965
G1 X108.74 Y-124.933 Z-4.968
G1 X108.958 Y-125.022 Z-4.97
G1 X109.18 Y-125.104 Z-4.973
G1 X109.404 Y-125.179 Z-4.976
G1 X109.631 Y-125.246 Z-4.978
G1 X109.86 Y-125.305 Z-4.981
G1 X110.091 Y-125.357 Z-4.984
G1 X110.323 Y-125.4 Z-4.987
G1 X110.557 Y-125.436 Z-4.989
G1 X110.792 Y-125.464 Z-4.992
G1 X111.027 Y-125.484 Z-4.995
G1 X111.264 Y-125.496 Z-4.997
G1 X111.5 Y-125.5 Z-5
G1 X111.736 Y-125.496 Z-5.003
G1 X111.973 Y-125.484 Z-5.005
G1 X112.208 Y-125.464 Z-5.008
G1 X112.443 Y-125.436 Z-5.011
G1 X112.677 Y-125.4 Z-5.013
G1 X112.909 Y-125.357 Z-5.016
G1 X113.14 Y-125.305 Z-5.019
G1 X113.369 Y-125.246 Z-5.022
G1 X113.596 Y-125.179 Z-5.024
G1 X113.82 Y-125.104 Z-5.027
G1 X114.042 Y-125.022 Z-5.03
G1 X114.26 Y-124.933 Z-5.032
G1 X114.476 Y-124.836 Z-5.035
G1 X114.688 Y-124.732 Z-5.038
G1 X114.897 Y-124.62 Z-5.04
G1 X115.102 Y-124.502 Z-5.043
G1 X115.303 Y-124.377 Z-5.046
G1 X115.499 Y-124.245 Z-5.048
G1 X115.691 Y-124.107 Z-5.051
G1 X115.878 Y-123.962 Z-5.054
G1 X116.06 Y-123.811 Z-5.056
G1 X116.236 Y-123.654 Z-5.059
G1 X116.408 Y-123.491 Z-5.062
G1 X116.574 Y-123.323 Z-5.065
G1 X116.734 Y-123.149 Z-5.067
G1 X116.888 Y-122.969 Z-5.07
G1 X117.035 Y-122.785 Z-5.073
G1 X117.177 Y-122.595 Z-5.075
G1 X117.312 Y-122.401 Z-5.078
G1 X117.441 Y-122.203 Z-5.081
G1 X117.562 Y-122 Z-5.083
G1 X117.677 Y-121.793 Z-5.086
G1 X117.785 Y-121.583 Z-5.089
G1 X117.885 Y-121.369 Z-5.091
G1 X117.978 Y-121.151 Z-5.094
G1 X118.064 Y-120.931 Z-5.097
G1 X118.143 Y-120.708 Z-5.099
G1 X118.213 Y-120.482 Z-5.102
G1 X118.277 Y-120.255 Z-5.105
G1 X118.332 Y-120.025 Z-5.108
G1 X118.38 Y-119.793 Z-5.11
G1 X118.419 Y-119.56 Z-5.113
G1 X118.451 Y-119.326 Z-5.116
G1 X118.475 Y-119.09 Z-5.118
G1 X118.491 Y-118.855 Z-5.121
G1 X118.499 Y-118.618 Z-5.124
G1 Y-118.382 Z-5.126
G1 X118.491 Y-118.145 Z-5.129
G1 X118.475 Y-117.91 Z-5.132
G1 X118.451 Y-117.674 Z-5.134
G1 X118.419 Y-117.44 Z-5.137
G1 X118.38 Y-117.207 Z-5.14
G1 X118.332 Y-116.975 Z-5.142
G1 X118.277 Y-116.745 Z-5.145
G1 X118.213 Y-116.518 Z-5.148
G1 X118.143 Y-116.292 Z-5.151
G1 X118.064 Y-116.069 Z-5.153
G1 X117.978 Y-115.849 Z-5.156
G1 X117.885 Y-115.631 Z-5.159
G1 X117.785 Y-115.417 Z-5.161
G1 X117.677 Y-115.207 Z-5.164
G1 X117.562 Y-115 Z-5.167
G1 X117.441 Y-114.797 Z-5.169
G1 X117.312 Y-114.599 Z-5.172
G1 X117.177 Y-114.405 Z-5.175
G1 X117.035 Y-114.215 Z-5.177
G1 X116.888 Y-114.031 Z-5.18
G1 X116.734 Y-113.851 Z-5.183
G1 X116.574 Y-113.677 Z-5.185
G1 X116.408 Y-113.509 Z-5.188
G1 X116.236 Y-113.346 Z-5.191
G1 X116.06 Y-113.189 Z-5.194
G1 X115.878 Y-113.038 Z-5.196
G1 X115.691 Y-112.893 Z-5.199
G1 X115.499 Y-112.755 Z-5.202
G1 X115.303 Y-112.623 Z-5.204
G1 X115.102 Y-112.498 Z-5.207
G1 X114.897 Y-112.38 Z-5.21
G1 X114.688 Y-112.268 Z-5.212
G1 X114.476 Y-112.164 Z-5.215
G1 X114.26 Y-112.067 Z-5.218
G1 X114.042 Y-111.978 Z-5.22
G1 X113.82 Y-111.896 Z-5.223
G1 X113.596 Y-111.821 Z-5.226
G1 X113.369 Y-111.754 Z-5.228
G1 X113.14 Y-111.695 Z-5.231
G1 X112.909 Y-111.643 Z-5.234
G1 X112.677 Y-111.6 Z-5.237
G1 X112.443 Y-111.564 Z-5.239
G1 X112.208 Y-111.536 Z-5.242
G1 X111.973 Y-111.516 Z-5.245
G1 X111.736 Y-111.504 Z-5.247
G1 X111.5 Y-111.5 Z-5.25
G1 X111.264 Y-111.504 Z-5.253
G1 X111.027 Y-111.516 Z-5.255
G1 X110.792 Y-111.536 Z-5.258
G1 X110.557 Y-111.564 Z-5.261
G1 X110.323 Y-111.6 Z-5.263
G1 X110.091 Y-111.643 Z-5.266
G1 X109.86 Y-111.695 Z-5.269
G1 X109.631 Y-111.754 Z-5.272
G1 X109.404 Y-111.821 Z-5.274
G1 X109.18 Y-111.896 Z-5.277
G1 X108.958 Y-111.978 Z-5.28
G1 X108.74 Y-112.067 Z-5.282
G1 X108.524 Y-112.164 Z-5.285
G1 X108.312 Y-112.268 Z-5.288
G1 X108.103 Y-112.38 Z-5.29
G1 X107.898 Y-112.498 Z-5.293
G1 X107.697 Y-112.623 Z-5.296
G1 X107.501 Y-112.755 Z-5.298
G1 X107.309 Y-112.893 Z-5.301
G1 X107.122 Y-113.038 Z-5.304
G1 X106.94 Y-113.189 Z-5.306
G1 X106.764 Y-113.346 Z-5.309
G1 X106.592 Y-113.509 Z-5.312
G1 X106.426 Y-113.677 Z-5.315
G1 X106.266 Y-113.851 Z-5.317
G1 X106.112 Y-114.031 Z-5.32
G1 X105.965 Y-114.215 Z-5.323
G1 X105.823 Y-114.405 Z-5.325
G1 X105.688 Y-114.599 Z-5.328
G1 X105.559 Y-114.797 Z-5.331
G1 X105.438 Y-115 Z-5.333
G1 X105.323 Y-115.207 Z-5.336
G1 X105.215 Y-115.417 Z-5.339
G1 X105.115 Y-115.631 Z-5.341
G1 X105.022 Y-115.849 Z-5.344
G1 X104.936 Y-116.069 Z-5.347
G1 X104.857 Y-116.292 Z-5.349
G1 X104.787 Y-116.518 Z-5.352
G1 X104.723 Y-116.745 Z-5.355
G1 X104.668 Y-116.975 Z-5.358
G1 X104.62 Y-117.207 Z-5.36
G1 X104.581 Y-117.44 Z-5.363
G1 X104.549 Y-117.674 Z-5.366
G1 X104.525 Y-117.91 Z-5.368
G1 X104.509 Y-118.145 Z-5.371
G1 X104.501 Y-118.382 Z-5.374
G1 Y-118.618 Z-5.376
G1 X104.509 Y-118.855 Z-5.379
G1 X104.525 Y-119.09 Z-5.382
G1 X104.549 Y-119.326 Z-5.384
G1 X104.581 Y-119.56 Z-5.387
G1 X104.62 Y-119.793 Z-5.39
G1 X104.668 Y-120.025 Z-5.392
G1 X104.723 Y-120.255 Z-5.395
G1 X104.787 Y-120.482 Z-5.398
G1 X104.857 Y-120.708 Z-5.401
G1 X104.936 Y-120.931 Z-5.403
G1 X105.022 Y-121.151 Z-5.406
G1 X105.115 Y-121.369 Z-5.409
G1 X105.215 Y-121.583 Z-5.411
G1 X105.323 Y-121.793 Z-5.414
G1 X105.438 Y-122 Z-5.417
G1 X105.559 Y-122.203 Z-5.419
G1 X105.688 Y-122.401 Z-5.422
G1 X105.823 Y-122.595 Z-5.425
G1 X105.965 Y-122.785 Z-5.427
G1 X106.112 Y-122.969 Z-5.43
G1 X106.266 Y-123.149 Z-5.433
G1 X106.426 Y-123.323 Z-5.435
G1 X106.592 Y-123.491 Z-5.438
G1 X106.764 Y-123.654 Z-5.441
G1 X106.94 Y-123.811 Z-5.444
G1 X107.122 Y-123.962 Z-5.446
G1 X107.309 Y-124.107 Z-5.449
G1 X107.501 Y-124.245 Z-5.452
G1 X107.697 Y-124.377 Z-5.454
G1 X107.898 Y-124.502 Z-5.457
G1 X108.103 Y-124.62 Z-5.46
G1 X108.312 Y-124.732 Z-5.462
G1 X108.524 Y-124.836 Z-5.465
G1 X108.74 Y-124.933 Z-5.468
G1 X108.958 Y-125.022 Z-5.47
G1 X109.18 Y-125.104 Z-5.473
G1 X109.404 Y-125.179 Z-5.476
G1 X109.631 Y-125.246 Z-5.478
G1 X109.86 Y-125.305 Z-5.481
G1 X110.091 Y-125.357 Z-5.484
G1 X110.323 Y-125.4 Z-5.487
G1 X110.557 Y-125.436 Z-5.489
G1 X110.792 Y-125.464 Z-5.492
G1 X111.027 Y-125.484 Z-5.495
G1 X111.264 Y-125.496 Z-5.497
G1 X111.5 Y-125.5 Z-5.5
G1 X111.736 Y-125.496 Z-5.503
G1 X111.973 Y-125.484 Z-5.505
G1 X112.208 Y-125.464 Z-5.508
G1 X112.443 Y-125.436 Z-5.511
G1 X112.677 Y-125.4 Z-5.513
G1 X112.909 Y-125.357 Z-5.516
G1 X113.14 Y-125.305 Z-5.519
G1 X113.369 Y-125.246 Z-5.522
G1 X113.596 Y-125.179 Z-5.524
G1 X113.82 Y-125.104 Z-5.527
G1 X114.042 Y-125.022 Z-5.53
G1 X114.26 Y-124.933 Z-5.532
G1 X114.476 Y-124.836 Z-5.535
G1 X114.688 Y-124.732 Z-5.538
G1 X114.897 Y-124.62 Z-5.54
G1 X115.102 Y-124.502 Z-5.543
G1 X115.303 Y-124.377 Z-5.546
G1 X115.499 Y-124.245 Z-5.548
G1 X115.691 Y-124.107 Z-5.551
G1 X115.878 Y-123.962 Z-5.554
G1 X116.06 Y-123.811 Z-5.556
G1 X116.236 Y-123.654 Z-5.559
G1 X116.408 Y-123.491 Z-5.562
G1 X116.574 Y-123.323 Z-5.565
G1 X116.734 Y-123.149 Z-5.567
G1 X116.888 Y-122.969 Z-5.57
G1 X117.035 Y-122.785 Z-5.573
G1 X117.177 Y-122.595 Z-5.575
G1 X117.312 Y-122.401 Z-5.578
G1 X117.441 Y-122.203 Z-5.581
G1 X117.562 Y-122 Z-5.583
G1 X117.677 Y-121.793 Z-5.586
G1 X117.785 Y-121.583 Z-5.589
G1 X117.885 Y-121.369 Z-5.591
G1 X117.978 Y-121.151 Z-5.594
G1 X118.064 Y-120.931 Z-5.597
G1 X118.143 Y-120.708 Z-5.599
G1 X118.213 Y-120.482 Z-5.602
G1 X118.277 Y-120.255 Z-5.605
G1 X118.332 Y-120.025 Z-5.608
G1 X118.38 Y-119.793 Z-5.61
G1 X118.419 Y-119.56 Z-5.613
G1 X118.451 Y-119.326 Z-5.616
G1 X118.475 Y-119.09 Z-5.618
G1 X118.491 Y-118.855 Z-5.621
G1 X118.499 Y-118.618 Z-5.624
G1 Y-118.382 Z-5.626
G1 X118.491 Y-118.145 Z-5.629
G1 X118.475 Y-117.91 Z-5.632
G1 X118.451 Y-117.674 Z-5.634
G1 X118.419 Y-117.44 Z-5.637
G1 X118.38 Y-117.207 Z-5.64
G1 X118.332 Y-116.975 Z-5.642
G1 X118.277 Y-116.745 Z-5.645
G1 X118.213 Y-116.518 Z-5.648
G1 X118.143 Y-116.292 Z-5.651
G1 X118.064 Y-116.069 Z-5.653
G1 X117.978 Y-115.849 Z-5.656
G1 X117.885 Y-115.631 Z-5.659
G1 X117.785 Y-115.417 Z-5.661
G1 X117.677 Y-115.207 Z-5.664
G1 X117.562 Y-115 Z-5.667
G1 X117.441 Y-114.797 Z-5.669
G1 X117.312 Y-114.599 Z-5.672
G1 X117.177 Y-114.405 Z-5.675
G1 X117.035 Y-114.215 Z-5.677
G1 X116.888 Y-114.031 Z-5.68
G1 X116.734 Y-113.851 Z-5.683
G1 X116.574 Y-113.677 Z-5.685
G1 X116.408 Y-113.509 Z-5.688
G1 X116.236 Y-113.346 Z-5.691
G1 X116.06 Y-113.189 Z-5.694
G1 X115.878 Y-113.038 Z-5.696
G1 X115.691 Y-112.893 Z-5.699
G1 X115.499 Y-112.755 Z-5.702
G1 X115.303 Y-112.623 Z-5.704
G1 X115.102 Y-112.498 Z-5.707
G1 X114.897 Y-112.38 Z-5.71
G1 X114.688 Y-112.268 Z-5.712
G1 X114.476 Y-112.164 Z-5.715
G1 X114.26 Y-112.067 Z-5.718
G1 X114.042 Y-111.978 Z-5.72
G1 X113.82 Y-111.896 Z-5.723
G1 X113.596 Y-111.821 Z-5.726
G1 X113.369 Y-111.754 Z-5.728
G1 X113.14 Y-111.695 Z-5.731
G1 X112.909 Y-111.643 Z-5.734
G1 X112.677 Y-111.6 Z-5.737
G1 X112.443 Y-111.564 Z-5.739
G1 X112.208 Y-111.536 Z-5.742
G1 X111.973 Y-111.516 Z-5.745
G1 X111.736 Y-111.504 Z-5.747
G1 X111.5 Y-111.5 Z-5.75
G1 X111.264 Y-111.504 Z-5.753
G1 X111.027 Y-111.516 Z-5.755
G1 X110.792 Y-111.536 Z-5.758
G1 X110.557 Y-111.564 Z-5.761
G1 X110.323 Y-111.6 Z-5.763
G1 X110.091 Y-111.643 Z-5.766
G1 X109.86 Y-111.695 Z-5.769
G1 X109.631 Y-111.754 Z-5.772
G1 X109.404 Y-111.821 Z-5.774
G1 X109.18 Y-111.896 Z-5.777
G1 X108.958 Y-111.978 Z-5.78
G1 X108.74 Y-112.067 Z-5.782
G1 X108.524 Y-112.164 Z-5.785
G1 X108.312 Y-112.268 Z-5.788
G1 X108.103 Y-112.38 Z-5.79
G1 X107.898 Y-112.498 Z-5.793
G1 X107.697 Y-112.623 Z-5.796
G1 X107.501 Y-112.755 Z-5.798
G1 X107.309 Y-112.893 Z-5.801
G1 X107.122 Y-113.038 Z-5.804
G1 X106.94 Y-113.189 Z-5.806
G1 X106.764 Y-113.346 Z-5.809
G1 X106.592 Y-113.509 Z-5.812
G1 X106.426 Y-113.677 Z-5.815
G1 X106.266 Y-113.851 Z-5.817
G1 X106.112 Y-114.031 Z-5.82
G1 X105.965 Y-114.215 Z-5.823
G1 X105.823 Y-114.405 Z-5.825
G1 X105.688 Y-114.599 Z-5.828
G1 X105.559 Y-114.797 Z-5.831
G1 X105.438 Y-115 Z-5.833
G1 X105.323 Y-115.207 Z-5.836
G1 X105.215 Y-115.417 Z-5.839
G1 X105.115 Y-115.631 Z-5.841
G1 X105.022 Y-115.849 Z-5.844
G1 X104.936 Y-116.069 Z-5.847
G1 X104.857 Y-116.292 Z-5.849
G1 X104.787 Y-116.518 Z-5.852
G1 X104.723 Y-116.745 Z-5.855
G1 X104.668 Y-116.975 Z-5.858
G1 X104.62 Y-117.207 Z-5.86
G1 X104.581 Y-117.44 Z-5.863
G1 X104.549 Y-117.674 Z-5.866
G1 X104.525 Y-117.91 Z-5.868
G1 X104.509 Y-118.145 Z-5.871
G1 X104.501 Y-118.382 Z-5.874
G1 Y-118.618 Z-5.876
G1 X104.509 Y-118.855 Z-5.879
G1 X104.525 Y-119.09 Z-5.882
G1 X104.549 Y-119.326 Z-5.884
G1 X104.581 Y-119.56 Z-5.887
G1 X104.62 Y-119.793 Z-5.89
G1 X104.668 Y-120.025 Z-5.892
G1 X104.723 Y-120.255 Z-5.895
G1 X104.787 Y-120.482 Z-5.898
G1 X104.857 Y-120.708 Z-5.901
G1 X104.936 Y-120.931 Z-5.903
G1 X105.022 Y-121.151 Z-5.906
G1 X105.115 Y-121.369 Z-5.909
G1 X105.215 Y-121.583 Z-5.911
G1 X105.323 Y-121.793 Z-5.914
G1 X105.438 Y-122 Z-5.917
G1 X105.559 Y-122.203 Z-5.919
G1 X105.688 Y-122.401 Z-5.922
G1 X105.823 Y-122.595 Z-5.925
G1 X105.965 Y-122.785 Z-5.927
G1 X106.112 Y-122.969 Z-5.93
G1 X106.266 Y-123.149 Z-5.933
G1 X106.426 Y-123.323 Z-5.935
G1 X106.592 Y-123.491 Z-5.938
G1 X106.764 Y-123.654 Z-5.941
G1 X106.94 Y-123.811 Z-5.944
G1 X107.122 Y-123.962 Z-5.946
G1 X107.309 Y-124.107 Z-5.949
G1 X107.501 Y-124.245 Z-5.952
G1 X107.697 Y-124.377 Z-5.954
G1 X107.898 Y-124.502 Z-5.957
G1 X108.103 Y-124.62 Z-5.96
G1 X108.312 Y-124.732 Z-5.962
G1 X108.524 Y-124.836 Z-5.965
G1 X108.74 Y-124.933 Z-5.968
G1 X108.958 Y-125.022 Z-5.97
G1 X109.18 Y-125.104 Z-5.973
G1 X109.404 Y-125.179 Z-5.976
G1 X109.631 Y-125.246 Z-5.978
G1 X109.86 Y-125.305 Z-5.981
G1 X110.091 Y-125.357 Z-5.984
G1 X110.323 Y-125.4 Z-5.987
G1 X110.557 Y-125.436 Z-5.989
G1 X110.792 Y-125.464 Z-5.992
G1 X111.027 Y-125.484 Z-5.995
G1 X111.264 Y-125.496 Z-5.997
G1 X111.5 Y-125.5 Z-6
G3 Y-111.5 J7
G3 Y-125.5 J-7
G3 X112 Y-125 J0.5 F466
G1 Y-124.75
G1 Y-124.69 Z-5.996
G1 Y-124.63 Z-5.985
G1 Y-124.573 Z-5.968
G1 Y-124.518 Z-5.943
G1 Y-124.466 Z-5.911
G1 Y-124.418 Z-5.874
G1 Y-124.376 Z-5.832
G1 Y-124.339 Z-5.784
G1 Y-124.307 Z-5.732
G1 Y-124.282 Z-5.677
G1 Y-124.265 Z-5.62
G1 Y-124.254 Z-5.56
G1 Y-124.25 Z-5.5
G1 Z5 F300
G1 X111 Y-124.75 F2500
G1 Z-4 F300
G1 Z-5.5 F466
G1 Y-124.754 Z-5.56
G1 Y-124.765 Z-5.62
G1 Y-124.782 Z-5.677
G1 Y-124.807 Z-5.732
G1 Y-124.839 Z-5.784
G1 Y-124.876 Z-5.832
G1 Y-124.918 Z-5.874
G1 Y-124.966 Z-5.911
G1 Y-125.018 Z-5.943
G1 Y-125.073 Z-5.968
G1 Y-125.13 Z-5.985
G1 Y-125.19 Z-5.996
G1 Y-125.25 Z-6
G1 Y-125.5
G3 X111.5 Y-126 I0.5
G3 Y-111 J7.5 F300
G3 Y-126 J-7.5
G3 X112 Y-125.5 J0.5 F466
G1 Y-125.25
G1 Y-125.19 Z-5.996
G1 Y-125.13 Z-5.985
G1 Y-125.073 Z-5.968
G1 Y-125.018 Z-5.943
G1 Y-124.966 Z-5.911
G1 Y-124.918 Z-5.874
G1 Y-124.876 Z-5.832
G1 Y-124.839 Z-5.784
G1 Y-124.807 Z-5.732
G1 Y-124.782 Z-5.677
G1 Y-124.765 Z-5.62
G1 Y-124.754 Z-5.56
G1 Y-124.75 Z-5.5
G1 Z5 F300
G1 X111 F2500
G1 Z-4 F300
G1 Z-5.5 F466
G1 Y-124.754 Z-5.56
G1 Y-124.765 Z-5.62
G1 Y-124.782 Z-5.677
G1 Y-124.807 Z-5.732
G1 Y-124.839 Z-5.784
G1 Y-124.876 Z-5.832
G1 Y-124.918 Z-5.874
G1 Y-124.966 Z-5.911
G1 Y-125.018 Z-5.943
G1 Y-125.073 Z-5.968
G1 Y-125.13 Z-5.985
G1 Y-125.19 Z-5.996
G1 Y-125.25 Z-6
G1 Y-125.5
G3 X111.5 Y-126 I0.5
G3 Y-111 J7.5 F300
G3 Y-126 J-7.5
G3 X112 Y-125.5 J0.5 F466
G1 Y-125.25
G1 Y-125.19 Z-5.996
G1 Y-125.13 Z-5.985
G1 Y-125.073 Z-5.968
G1 Y-125.018 Z-5.943
G1 Y-124.966 Z-5.911
G1 Y-124.918 Z-5.874
G1 Y-124.876 Z-5.832
G1 Y-124.839 Z-5.784
G1 Y-124.807 Z-5.732
G1 Y-124.782 Z-5.677
G1 Y-124.765 Z-5.62
G1 Y-124.754 Z-5.56
G1 Y-124.75 Z-5.5
G1 Z15 F300

;2D Contour3 - Milling - Tool: 1 - flat end mill
;X Min: 17.5 - X Max: 139
;Y Min: -197.5 - Y Max: -17.5
;Z Min: -6 - Z Max: 15
M400
M117 2D Contour3
G1 Z15 F300
G1 X139 Y-19.5 F2500
G1 Z5 F300
G1 Z2 F100
G1 Z-0.5
G1 X138.996 Z-0.56
G1 X138.985 Z-0.62
G1 X138.968 Z-0.677
G1 X138.943 Z-0.732
G1 X138.911 Z-0.784
G1 X138.874 Z-0.832
G1 X138.832 Z-0.874
G1 X138.784 Z-0.911
G1 X138.732 Z-0.943
G1 X138.677 Z-0.968
G1 X138.62 Z-0.985
G1 X138.56 Z-0.996
G1 X138.5 Z-1
G1 X138 F466
G3 X137.5 Y-20 J-0.5
G1 Y-195 F300
G2 X135 Y-197.5 I-2.5
G1 X30
G2 X17.5 Y-185 J12.5
G1 Y-30
G2 X30 Y-17.5 I12.5
G1 X135
G2 X137.5 Y-20 J-2.5
G3 X138 Y-20.5 I0.5 F466
G1 X138.5
G1 X138.56 Z-0.996
G1 X138.62 Z-0.985
G1 X138.677 Z-0.968
G1 X138.732 Z-0.943
G1 X138.784 Z-0.911
G1 X138.832 Z-0.874
G1 X138.874 Z-0.832
G1 X138.911 Z-0.784
G1 X138.943 Z-0.732
G1 X138.968 Z-0.677
G1 X138.985 Z-0.62
G1 X138.996 Z-0.56
G1 X139 Z-0.5
G1 Z5 F300
G1 Y-19.5 F2500
G1 Z1 F100
G1 Z-1.5
G1 X138.996 Z-1.56
G1 X138.985 Z-1.62
G1 X138.968 Z-1.677
G1 X138.943 Z-1.732
G1 X138.911 Z-1.784
G1 X138.874 Z-1.832
G1 X138.832 Z-1.874
G1 X138.784 Z-1.911
G1 X138.732 Z-1.943
G1 X138.677 Z-1.968
G1 X138.62 Z-1.985
G1 X138.56 Z-1.996
G1 X138.5 Z-2
G1 X138 F466
G3 X137.5 Y-20 J-0.5
G1 Y-195 F300
G2 X135 Y-197.5 I-2.5
G1 X30
G2 X17.5 Y-185 J12.5
G1 Y-30
G2 X30 Y-17.5 I12.5
G1 X135
G2 X137.5 Y-20 J-2.5
G3 X138 Y-20.5 I0.5 F466
G1 X138.5
G1 X138.56 Z-1.996
G1 X138.62 Z-1.985
G1 X138.677 Z-1.968
G1 X138.732 Z-1.943
G1 X138.784 Z-1.911
G1 X138.832 Z-1.874
G1 X138.874 Z-1.832
G1 X138.911 Z-1.784
G1 X138.943 Z-1.732
G1 X138.968 Z-1.677
G1 X138.985 Z-1.62
G1 X138.996 Z-1.56
G1 X139 Z-1.5
G1 Z5 F300
G1 Y-19.5 F2500
G1 Z0 F100
G1 Z-2.5
G1 X138.996 Z-2.56
G1 X138.985 Z-2.62
G1 X138.968 Z-2.677
G1 X138.943 Z-2.732
G1 X138.911 Z-2.784
G1 X138.874 Z-2.832
G1 X138.832 Z-2.874
G1 X138.784 Z-2.911
G1 X138.732 Z-2.943
G1 X138.677 Z-2.968
G1 X138.62 Z-2.985
G1 X138.56 Z-2.996
G1 X138.5 Z-3
G1 X138 F466
G3 X137.5 Y-20 J-0.5
G1 Y-195 F300
G2 X135 Y-197.5 I-2.5
G1 X30
G2 X17.5 Y-185 J12.5
G1 Y-30
G2 X30 Y-17.5 I12.5
G1 X135
G2 X137.5 Y-20 J-2.5
G3 X138 Y-20.5 I0.5 F466
G1 X138.5
G1 X138.56 Z-2.996
G1 X138.62 Z-2.985
G1 X138.677 Z-2.968
G1 X138.732 Z-2.943
G1 X138.784 Z-2.911
G1 X138.832 Z-2.874
G1 X138.874 Z-2.832
G1 X138.911 Z-2.784
G1 X138.943 Z-2.732
G1 X138.968 Z-2.677
G1 X138.985 Z-2.62
G1 X138.996 Z-2.56
G1 X139 Z-2.5
G1 Z5 F300
G1 Y-19.5 F2500
G1 Z-1 F100
G1 Z-3.5
G1 X138.996 Z-3.56
G1 X138.985 Z-3.62
G1 X138.968 Z-3.677
G1 X138.943 Z-3.732
G1 X138.911 Z-3.784
G1 X138.874 Z-3.832
G1 X138.832 Z-3.874
G1 X138.784 Z-3.911
G1 X138.732 Z-3.943
G1 X138.677 Z-3.968
G1 X138.62 Z-3.985
G1 X138.56 Z-3.996
G1 X138.5 Z-4
G1 X138 F466
G3 X137.5 Y-20 J-0.5
G1 Y-58.75 F300
G1 Z-3
G1 Y-68.75
G1 Z-4 F100
G1 Y-146.25 F300
G1 Z-3
G1 Y-156.25
G1 Z-4 F100
G1 Y-195 F300
G2 X135 Y-197.5 I-2.5
G1 X87.5
G1 Z-3
G1 X77.5
G1 Z-4 F100
G1 X30 F300
G2 X17.5 Y-185 J12.5
G1 Y-112.5
G1 Z-3
G1 Y-102.5
G1 Z-4 F100
G1 Y-30 F300
G2 X30 Y-17.5 I12.5
G1 X77.5
G1 Z-3
G1 X87.5
G1 Z-4 F100
G1 X135 F300
G2 X137.5 Y-20 J-2.5
G3 X138 Y-20.5 I0.5 F466
G1 X138.5
G1 X138.56 Z-3.996
G1 X138.62 Z-3.985
G1 X138.677 Z-3.968
G1 X138.732 Z-3.943
G1 X138.784 Z-3.911
G1 X138.832 Z-3.874
G1 X138.874 Z-3.832
G1 X138.911 Z-3.784
G1 X138.943 Z-3.732
G1 X138.968 Z-3.677
G1 X138.985 Z-3.62
G1 X138.996 Z-3.56
G1 X139 Z-3.5
G1 Z5 F300
G1 Y-19.5 F2500
G1 Z-2 F100
G1 Z-4.5
G1 X138.996 Z-4.56
G1 X138.985 Z-4.62
G1 X138.968 Z-4.677
G1 X138.943 Z-4.732
G1 X138.911 Z-4.784
G1 X138.874 Z-4.832
G1 X138.832 Z-4.874
G1 X138.784 Z-4.911
G1 X138.732 Z-4.943
G1 X138.677 Z-4.968
G1 X138.62 Z-4.985
G1 X138.56 Z-4.996
G1 X138.5 Z-5
G1 X138 F466
G3 X137.5 Y-20 J-0.5
G1 Y-58.75 F300
G1 Z-3
G1 Y-68.75
G1 Z-5 F100
G1 Y-146.25 F300
G1 Z-3
G1 Y-156.25
G1 Z-5 F100
G1 Y-195 F300
G2 X135 Y-197.5 I-2.5
G1 X87.5
G1 Z-3
G1 X77.5
G1 Z-5 F100
G1 X30 F300
G2 X17.5 Y-185 J12.5
G1 Y-112.5
G1 Z-3
G1 Y-102.5
G1 Z-5 F100
G1 Y-30 F300
G2 X30 Y-17.5 I12.5
G1 X77.5
G1 Z-3
G1 X87.5
G1 Z-5 F100
G1 X135 F300
G2 X137.5 Y-20 J-2.5
G3 X138 Y-20.5 I0.5 F466
G1 X138.5
G1 X138.56 Z-4.996
G1 X138.62 Z-4.985
G1 X138.677 Z-4.968
G1 X138.732 Z-4.943
G1 X138.784 Z-4.911
G1 X138.832 Z-4.874
G1 X138.874 Z-4.832
G1 X138.911 Z-4.784
G1 X138.943 Z-4.732
G1 X138.968 Z-4.677
G1 X138.985 Z-4.62
G1 X138.996 Z-4.56
G1 X139 Z-4.5
G1 Z5 F300
G1 Y-19.5 F2500
G1 Z-3 F100
G1 Z-5.5
G1 X138.996 Z-5.56
G1 X138.985 Z-5.62
G1 X138.968 Z-5.677
G1 X138.943 Z-5.732
G1 X138.911 Z-5.784
G1 X138.874 Z-5.832
G1 X138.832 Z-5.874
G1 X138.784 Z-5.911
G1 X138.732 Z-5.943
G1 X138.677 Z-5.968
G1 X138.62 Z-5.985
G1 X138.56 Z-5.996
G1 X138.5 Z-6
G1 X138 F466
G3 X137.5 Y-20 J-0.5
G1 Y-58.75 F300
G1 Z-3
G1 Y-68.75
G1 Z-6 F100
G1 Y-146.25 F300
G1 Z-3
G1 Y-156.25
G1 Z-6 F100
G1 Y-195 F300
G2 X135 Y-197.5 I-2.5
G1 X87.5
G1 Z-3
G1 X77.5
G1 Z-6 F100
G1 X30 F300
G2 X17.5 Y-185 J12.5
G1 Y-112.5
G1 Z-3
G1 Y-102.5
G1 Z-6 F100
G1 Y-30 F300
G2 X30 Y-17.5 I12.5
G1 X77.5
G1 Z-3
G1 X87.5
G1 Z-6 F100
G1 X135 F300
G2 X137.5 Y-20 J-2.5
G3 X138 Y-20.5 I0.5 F466
G1 X138.5
G1 X138.56 Z-5.996
G1 X138.62 Z-5.985
G1 X138.677 Z-5.968
G1 X138.732 Z-5.943
G1 X138.784 Z-5.911
G1 X138.832 Z-5.874
G1 X138.874 Z-5.832
G1 X138.911 Z-5.784
G1 X138.943 Z-5.732
G1 X138.968 Z-5.677
G1 X138.985 Z-5.62
G1 X138.996 Z-5.56
G1 X139 Z-5.5
G1 Z15 F300

M400
M117 Job end
G1 X0 Y0 F2500
G1 Z0 F300
