;Fusion 360 CAM 2.0.6258
;Posts processor: MPCNC_Mill_Laser.cps
;Gcode generated: Monday, September 02, 2019 6:04:53 PM GMT
;Document: Binario intermedio v3
;Setup: Setup1

G90
G21
M84 S0
G92 X0 Y0 Z0

;Probe tool - Not yet implemented

;2D Contour1 - Milling - Tool: 2 - flat end mill
;X Min: -10.5 - X Max: 76.297
;Y Min: -180.5 - Y Max: 10.5
;Z Min: -6 - Z Max: 15
M400
M117 2D Contour1
G1 Z15 F300
G1 X0.272 Y-85.143 F2500
G1 Z5 F300
G1 Z2.5 F30
G1 Z-1
G1 Y-85.147 Z-1.06
G1 Y-85.157 Z-1.12
G1 Y-85.175 Z-1.177
G1 Y-85.2 Z-1.232
G1 Y-85.231 Z-1.284
G1 Y-85.269 Z-1.332
G1 Y-85.311 Z-1.374
G1 Y-85.359 Z-1.411
G1 Y-85.411 Z-1.443
G1 Y-85.466 Z-1.468
G1 Y-85.523 Z-1.485
G1 Y-85.583 Z-1.496
G1 Y-85.643 Z-1.5
G1 Y-86.143 F213
G3 X0.772 Y-86.643 I0.5
G1 X65.796
G2 X76.297 Y-97.143 J-10.5
G2 X65.796 Y-107.643 I-10.5
G1 X0
G2 X-0.063 I-0.032 J10.5
G2 X-10.5 Y-97.143 I0.064 J10.5
G2 X0 Y-86.643 I10.5
G1 X0.772
G3 X1.272 Y-86.143 J0.5
G1 Y-85.643
G1 Y-85.583 Z-1.496
G1 Y-85.523 Z-1.485
G1 Y-85.466 Z-1.468
G1 Y-85.411 Z-1.443
G1 Y-85.359 Z-1.411
G1 Y-85.311 Z-1.374
G1 Y-85.269 Z-1.332
G1 Y-85.231 Z-1.284
G1 Y-85.2 Z-1.232
G1 Y-85.175 Z-1.177
G1 Y-85.157 Z-1.12
G1 Y-85.147 Z-1.06
G1 Y-85.143 Z-1
G1 Z5 F300
G1 X-0.5 Y-60.857 F2500
G1 Z2.5 F30
G1 Z-1
G1 Y-60.861 Z-1.06
G1 Y-60.872 Z-1.12
G1 Y-60.89 Z-1.177
G1 Y-60.914 Z-1.232
G1 Y-60.946 Z-1.284
G1 Y-60.983 Z-1.332
G1 Y-61.026 Z-1.374
G1 Y-61.073 Z-1.411
G1 Y-61.125 Z-1.443
G1 Y-61.18 Z-1.468
G1 Y-61.237 Z-1.485
G1 Y-61.297 Z-1.496
G1 Y-61.357 Z-1.5
G1 Y-61.857 F213
G3 X0 Y-62.357 I0.5
G1 X65.797
G2 Y-83.357 J-10.5
G1 X0
G2 X-0.063 I-0.032 J10.5
G2 X-10.5 Y-72.857 I0.064 J10.5
G2 X0 Y-62.357 I10.5
G3 X0.5 Y-61.857 J0.5
G1 Y-61.357
G1 Y-61.297 Z-1.496
G1 Y-61.237 Z-1.485
G1 Y-61.18 Z-1.468
G1 Y-61.125 Z-1.443
G1 Y-61.073 Z-1.411
G1 Y-61.026 Z-1.374
G1 Y-60.983 Z-1.332
G1 Y-60.946 Z-1.284
G1 Y-60.914 Z-1.232
G1 Y-60.89 Z-1.177
G1 Y-60.872 Z-1.12
G1 Y-60.861 Z-1.06
G1 Y-60.857 Z-1
G1 Z5 F300
G1 X0.427 Y-60.574 F2500
G1 Z2.5 F30
G1 Z-1
G1 Y-60.571 Z-1.06
G1 X0.428 Y-60.56 Z-1.12
G1 Y-60.542 Z-1.177
G1 Y-60.517 Z-1.232
G1 Y-60.486 Z-1.284
G1 Y-60.449 Z-1.332
G1 Y-60.406 Z-1.374
G1 X0.429 Y-60.358 Z-1.411
G1 Y-60.307 Z-1.443
G1 Y-60.252 Z-1.468
G1 X0.43 Y-60.194 Z-1.485
G1 Y-60.135 Z-1.496
G1 Y-60.074 Z-1.5
G1 X0.433 Y-59.574 F213
G3 X-0.063 Y-59.071 I-0.5 J0.003
G2 X-10.5 Y-48.571 I0.064 J10.5
G2 X0 Y-38.071 I10.5
G1 X65.797
G2 Y-59.071 J-10.5
G1 X0
G2 X-0.063 I-0.032 J10.5
G3 X-0.565 Y-59.57 I-0.002 J-0.5
G1 X-0.566 Y-60.07
G1 X-0.567 Y-60.13 Z-1.496
G1 Y-60.19 Z-1.485
G1 Y-60.247 Z-1.468
G1 Y-60.302 Z-1.443
G1 Y-60.354 Z-1.411
G1 Y-60.401 Z-1.374
G1 X-0.568 Y-60.444 Z-1.332
G1 Y-60.481 Z-1.284
G1 Y-60.513 Z-1.232
G1 Y-60.537 Z-1.177
G1 Y-60.555 Z-1.12
G1 Y-60.566 Z-1.06
G1 Y-60.57 Z-1
G1 Z5 F300
G1 X-0.563 Y-60.86 F2500
G1 Z1 F30
G1 Z-2.5
G1 Y-60.864 Z-2.56
G1 Y-60.874 Z-2.62
G1 Y-60.892 Z-2.677
G1 X-0.562 Y-60.917 Z-2.732
G1 Y-60.948 Z-2.784
G1 Y-60.986 Z-2.832
G1 Y-61.028 Z-2.874
G1 Y-61.076 Z-2.911
G1 X-0.561 Y-61.128 Z-2.943
G1 Y-61.183 Z-2.968
G1 Y-61.24 Z-2.985
G1 X-0.56 Y-61.3 Z-2.996
G1 Y-61.36 Z-3
G1 X-0.557 Y-61.86 F213
G3 X-0.055 Y-62.357 I0.5 J0.003
G2 X0 I0.055 J-10.5
G1 X65.797
G2 Y-83.357 J-10.5
G1 X0
G2 X-0.063 I-0.032 J10.5
G2 X-10.5 Y-72.857 I0.064 J10.5
G2 X-0.055 Y-62.357 I10.5
G3 X0.443 Y-61.855 I-0.003 J0.5
G1 X0.44 Y-61.355
G1 Y-61.294 Z-2.996
G1 X0.439 Y-61.235 Z-2.985
G1 Y-61.177 Z-2.968
G1 Y-61.122 Z-2.943
G1 X0.438 Y-61.071 Z-2.911
G1 Y-61.023 Z-2.874
G1 Y-60.98 Z-2.832
G1 Y-60.943 Z-2.784
G1 Y-60.912 Z-2.732
G1 X0.437 Y-60.887 Z-2.677
G1 Y-60.869 Z-2.62
G1 Y-60.858 Z-2.56
G1 Y-60.855 Z-2.5
G1 Z5 F300
G1 X0.5 Y-36.286 F2500
G1 Z2.5 F30
G1 Z-1
G1 Y-36.282 Z-1.06
G1 Y-36.271 Z-1.12
G1 Y-36.253 Z-1.177
G1 Y-36.228 Z-1.232
G1 Y-36.197 Z-1.284
G1 Y-36.16 Z-1.332
G1 Y-36.117 Z-1.374
G1 Y-36.07 Z-1.411
G1 Y-36.018 Z-1.443
G1 Y-35.963 Z-1.468
G1 Y-35.905 Z-1.485
G1 Y-35.846 Z-1.496
G1 Y-35.786 Z-1.5
G1 Y-35.286 F213
G3 X0 Y-34.786 I-0.5
G2 Y-13.786 J10.5
G1 X65.797
G2 Y-34.786 J-10.5
G1 X0
G3 X-0.5 Y-35.286 J-0.5
G1 Y-35.786
G1 Y-35.846 Z-1.496
G1 Y-35.905 Z-1.485
G1 Y-35.963 Z-1.468
G1 Y-36.018 Z-1.443
G1 Y-36.07 Z-1.411
G1 Y-36.117 Z-1.374
G1 Y-36.16 Z-1.332
G1 Y-36.197 Z-1.284
G1 Y-36.228 Z-1.232
G1 Y-36.253 Z-1.177
G1 Y-36.271 Z-1.12
G1 Y-36.282 Z-1.06
G1 Y-36.286 Z-1
G1 Z5 F300
G1 X-0.563 Y-36.574 F2500
G1 Z1 F30
G1 Z-2.5
G1 Y-36.578 Z-2.56
G1 Y-36.589 Z-2.62
G1 Y-36.607 Z-2.677
G1 X-0.562 Y-36.631 Z-2.732
G1 Y-36.663 Z-2.784
G1 Y-36.7 Z-2.832
G1 Y-36.743 Z-2.874
G1 Y-36.79 Z-2.911
G1 X-0.561 Y-36.842 Z-2.943
G1 Y-36.897 Z-2.968
G1 Y-36.955 Z-2.985
G1 X-0.56 Y-37.014 Z-2.996
G1 Y-37.074 Z-3
G1 X-0.557 Y-37.574 F213
G3 X-0.055 Y-38.072 I0.5 J0.003
G2 X0 Y-38.071 I0.055 J-10.5
G1 X65.797
G2 Y-59.071 J-10.5
G1 X0
G2 X-0.063 I-0.032 J10.5
G2 X-10.5 Y-48.571 I0.064 J10.5
G2 X-0.055 Y-38.072 I10.5
G3 X0.443 Y-37.569 I-0.003 J0.5
G1 X0.44 Y-37.069
G1 Y-37.009 Z-2.996
G1 X0.439 Y-36.949 Z-2.985
G1 Y-36.892 Z-2.968
G1 Y-36.837 Z-2.943
G1 X0.438 Y-36.785 Z-2.911
G1 Y-36.737 Z-2.874
G1 Y-36.695 Z-2.832
G1 Y-36.657 Z-2.784
G1 Y-36.626 Z-2.732
G1 X0.437 Y-36.601 Z-2.677
G1 Y-36.583 Z-2.62
G1 Y-36.573 Z-2.56
G1 Y-36.569 Z-2.5
G1 Z5 F300
G1 X0.427 Y-12.003 F2500
G1 Z2.5 F30
G1 Z-1
G1 Y-11.999 Z-1.06
G1 X0.428 Y-11.988 Z-1.12
G1 Y-11.971 Z-1.177
G1 Y-11.946 Z-1.232
G1 Y-11.914 Z-1.284
G1 Y-11.877 Z-1.332
G1 Y-11.835 Z-1.374
G1 X0.429 Y-11.787 Z-1.411
G1 Y-11.735 Z-1.443
G1 Y-11.68 Z-1.468
G1 X0.43 Y-11.623 Z-1.485
G1 Y-11.563 Z-1.496
G1 Y-11.503 Z-1.5
G1 X0.433 Y-11.003 F213
G3 X-0.063 Y-10.5 I-0.5 J0.003
G2 X-10.5 Y0 I0.064 J10.5
G2 X0 Y10.5 I10.5
G1 X65.797
G2 Y-10.5 J-10.5
G1 X0
G2 X-0.063 I-0.032 J10.5
G3 X-0.565 Y-10.998 I-0.002 J-0.5
G1 X-0.566 Y-11.498
G1 X-0.567 Y-11.559 Z-1.496
G1 Y-11.618 Z-1.485
G1 Y-11.676 Z-1.468
G1 Y-11.731 Z-1.443
G1 Y-11.783 Z-1.411
G1 Y-11.83 Z-1.374
G1 X-0.568 Y-11.873 Z-1.332
G1 Y-11.91 Z-1.284
G1 Y-11.941 Z-1.232
G1 Y-11.966 Z-1.177
G1 Y-11.984 Z-1.12
G1 Y-11.995 Z-1.06
G1 Y-11.998 Z-1
G1 Z5 F300
G1 X0.427 Y-12.003 F2500
G1 Z1 F30
G1 Z-2.5
G1 Y-11.999 Z-2.56
G1 X0.428 Y-11.988 Z-2.62
G1 Y-11.971 Z-2.677
G1 Y-11.946 Z-2.732
G1 Y-11.914 Z-2.784
G1 Y-11.877 Z-2.832
G1 Y-11.835 Z-2.874
G1 X0.429 Y-11.787 Z-2.911
G1 Y-11.735 Z-2.943
G1 Y-11.68 Z-2.968
G1 X0.43 Y-11.623 Z-2.985
G1 Y-11.563 Z-2.996
G1 Y-11.503 Z-3
G1 X0.433 Y-11.003 F213
G3 X-0.063 Y-10.5 I-0.5 J0.003
G2 X-10.5 Y0 I0.064 J10.5
G2 X0 Y10.5 I10.5
G1 X65.797
G2 Y-10.5 J-10.5
G1 X0
G2 X-0.063 I-0.032 J10.5
G3 X-0.565 Y-10.998 I-0.002 J-0.5
G1 X-0.566 Y-11.498
G1 X-0.567 Y-11.559 Z-2.996
G1 Y-11.618 Z-2.985
G1 Y-11.676 Z-2.968
G1 Y-11.731 Z-2.943
G1 Y-11.783 Z-2.911
G1 Y-11.83 Z-2.874
G1 X-0.568 Y-11.873 Z-2.832
G1 Y-11.91 Z-2.784
G1 Y-11.941 Z-2.732
G1 Y-11.966 Z-2.677
G1 Y-11.984 Z-2.62
G1 Y-11.995 Z-2.56
G1 Y-11.998 Z-2.5
G1 Z5 F300
G1 X-0.563 Y-12.288 F2500
G1 Z1 F30
G1 Z-2.5
G1 Y-12.292 Z-2.56
G1 Y-12.303 Z-2.62
G1 Y-12.321 Z-2.677
G1 X-0.562 Y-12.346 Z-2.732
G1 Y-12.377 Z-2.784
G1 Y-12.414 Z-2.832
G1 Y-12.457 Z-2.874
G1 Y-12.504 Z-2.911
G1 X-0.561 Y-12.556 Z-2.943
G1 Y-12.611 Z-2.968
G1 Y-12.669 Z-2.985
G1 X-0.56 Y-12.728 Z-2.996
G1 Y-12.788 Z-3
G1 X-0.557 Y-13.288 F213
G3 X-0.055 Y-13.786 I0.5 J0.003
G2 X0 I0.055 J-10.5
G1 X65.797
G2 Y-34.786 J-10.5
G1 X0
G2 X-0.055 Y-13.786 J10.5
G3 X0.443 Y-13.283 I-0.003 J0.5
G1 X0.44 Y-12.783
G1 Y-12.723 Z-2.996
G1 X0.439 Y-12.664 Z-2.985
G1 Y-12.606 Z-2.968
G1 Y-12.551 Z-2.943
G1 X0.438 Y-12.499 Z-2.911
G1 Y-12.452 Z-2.874
G1 Y-12.409 Z-2.832
G1 Y-12.372 Z-2.784
G1 Y-12.341 Z-2.732
G1 X0.437 Y-12.316 Z-2.677
G1 Y-12.298 Z-2.62
G1 Y-12.287 Z-2.56
G1 Y-12.283 Z-2.5
G1 Z5 F300
G1 X0.272 Y-12.286 F2500
G1 Z-0.5 F30
G1 Z-4
G1 Y-12.289 Z-4.06
G1 Y-12.3 Z-4.12
G1 Y-12.318 Z-4.177
G1 Y-12.343 Z-4.232
G1 Y-12.374 Z-4.284
G1 Y-12.411 Z-4.332
G1 Y-12.454 Z-4.374
G1 Y-12.502 Z-4.411
G1 Y-12.553 Z-4.443
G1 Y-12.608 Z-4.468
G1 Y-12.666 Z-4.485
G1 Y-12.725 Z-4.496
G1 Y-12.786 Z-4.5
G1 Y-13.286 F213
G3 X0.772 Y-13.786 I0.5
G1 X65.797
G2 Y-34.786 J-10.5
G1 X0
G2 Y-13.786 J10.5
G1 X0.772
G3 X1.272 Y-13.286 J0.5
G1 Y-12.786
G1 Y-12.725 Z-4.496
G1 Y-12.666 Z-4.485
G1 Y-12.608 Z-4.468
G1 Y-12.553 Z-4.443
G1 Y-12.502 Z-4.411
G1 Y-12.454 Z-4.374
G1 Y-12.411 Z-4.332
G1 Y-12.374 Z-4.284
G1 Y-12.343 Z-4.232
G1 Y-12.318 Z-4.177
G1 Y-12.3 Z-4.12
G1 Y-12.289 Z-4.06
G1 Y-12.286 Z-4
G1 Z5 F300
G1 X0.427 Y-12.003 F2500
G1 Z-0.5 F30
G1 Z-4
G1 Y-11.999 Z-4.06
G1 X0.428 Y-11.988 Z-4.12
G1 Y-11.971 Z-4.177
G1 Y-11.946 Z-4.232
G1 Y-11.914 Z-4.284
G1 Y-11.877 Z-4.332
G1 Y-11.835 Z-4.374
G1 X0.429 Y-11.787 Z-4.411
G1 Y-11.735 Z-4.443
G1 Y-11.68 Z-4.468
G1 X0.43 Y-11.623 Z-4.485
G1 Y-11.563 Z-4.496
G1 Y-11.503 Z-4.5
G1 X0.433 Y-11.003 F213
G3 X-0.063 Y-10.5 I-0.5 J0.003
G2 X-10.5 Y0 I0.064 J10.5
G2 X0 Y10.5 I10.5
G1 X65.797
G2 Y-10.5 J-10.5
G1 X0
G2 X-0.063 I-0.032 J10.5
G3 X-0.565 Y-10.998 I-0.002 J-0.5
G1 X-0.566 Y-11.498
G1 X-0.567 Y-11.559 Z-4.496
G1 Y-11.618 Z-4.485
G1 Y-11.676 Z-4.468
G1 Y-11.731 Z-4.443
G1 Y-11.783 Z-4.411
G1 Y-11.83 Z-4.374
G1 X-0.568 Y-11.873 Z-4.332
G1 Y-11.91 Z-4.284
G1 Y-11.941 Z-4.232
G1 Y-11.966 Z-4.177
G1 Y-11.984 Z-4.12
G1 Y-11.995 Z-4.06
G1 Y-11.998 Z-4
G1 Z5 F300
G1 X0.427 Y-12.003 F2500
G1 Z-2 F30
G1 Z-5.5
G1 Y-11.999 Z-5.56
G1 X0.428 Y-11.988 Z-5.62
G1 Y-11.971 Z-5.677
G1 Y-11.946 Z-5.732
G1 Y-11.914 Z-5.784
G1 Y-11.877 Z-5.832
G1 Y-11.835 Z-5.874
G1 X0.429 Y-11.787 Z-5.911
G1 Y-11.735 Z-5.943
G1 Y-11.68 Z-5.968
G1 X0.43 Y-11.623 Z-5.985
G1 Y-11.563 Z-5.996
G1 Y-11.503 Z-6
G1 X0.433 Y-11.003 F213
G3 X-0.063 Y-10.5 I-0.5 J0.003
G2 X-10.5 Y0 I0.064 J10.5
G2 X0 Y10.5 I10.5
G1 X11.449
G1 Z-4.75
G1 X21.449
G1 Z-6 F30
G1 X44.347 F213
G1 Z-4.75
G1 X54.347
G1 Z-6 F30
G1 X65.797 F213
G2 Y-10.5 J-10.5
G1 X54.347
G1 Z-4.75
G1 X44.347
G1 Z-6 F30
G1 X21.449 F213
G1 Z-4.75
G1 X11.449
G1 Z-6 F30
G1 X0 F213
G2 X-0.063 I-0.032 J10.5
G3 X-0.565 Y-10.998 I-0.002 J-0.5
G1 X-0.566 Y-11.498
G1 X-0.567 Y-11.559 Z-5.996
G1 Y-11.618 Z-5.985
G1 Y-11.676 Z-5.968
G1 Y-11.731 Z-5.943
G1 Y-11.783 Z-5.911
G1 Y-11.83 Z-5.874
G1 X-0.568 Y-11.873 Z-5.832
G1 Y-11.91 Z-5.784
G1 Y-11.941 Z-5.732
G1 Y-11.966 Z-5.677
G1 Y-11.984 Z-5.62
G1 Y-11.995 Z-5.56
G1 Y-11.998 Z-5.5
G1 Z5 F300
G1 X-0.563 Y-36.574 F2500
G1 Z-0.5 F30
G1 Z-4
G1 Y-36.578 Z-4.06
G1 Y-36.589 Z-4.12
G1 Y-36.607 Z-4.177
G1 X-0.562 Y-36.631 Z-4.232
G1 Y-36.663 Z-4.284
G1 Y-36.7 Z-4.332
G1 Y-36.743 Z-4.374
G1 Y-36.79 Z-4.411
G1 X-0.561 Y-36.842 Z-4.443
G1 Y-36.897 Z-4.468
G1 Y-36.955 Z-4.485
G1 X-0.56 Y-37.014 Z-4.496
G1 Y-37.074 Z-4.5
G1 X-0.557 Y-37.574 F213
G3 X-0.055 Y-38.072 I0.5 J0.003
G2 X0 Y-38.071 I0.055 J-10.5
G1 X65.797
G2 Y-59.071 J-10.5
G1 X0
G2 X-0.063 I-0.032 J10.5
G2 X-10.5 Y-48.571 I0.064 J10.5
G2 X-0.055 Y-38.072 I10.5
G3 X0.443 Y-37.569 I-0.003 J0.5
G1 X0.44 Y-37.069
G1 Y-37.009 Z-4.496
G1 X0.439 Y-36.949 Z-4.485
G1 Y-36.892 Z-4.468
G1 Y-36.837 Z-4.443
G1 X0.438 Y-36.785 Z-4.411
G1 Y-36.737 Z-4.374
G1 Y-36.695 Z-4.332
G1 Y-36.657 Z-4.284
G1 Y-36.626 Z-4.232
G1 X0.437 Y-36.601 Z-4.177
G1 Y-36.583 Z-4.12
G1 Y-36.573 Z-4.06
G1 Y-36.569 Z-4
G1 Z5 F300
G1 X0.5 Y-36.286 F2500
G1 Z-2 F30
G1 Z-5.5
G1 Y-36.282 Z-5.56
G1 Y-36.271 Z-5.62
G1 Y-36.253 Z-5.677
G1 Y-36.228 Z-5.732
G1 Y-36.197 Z-5.784
G1 Y-36.16 Z-5.832
G1 Y-36.117 Z-5.874
G1 Y-36.07 Z-5.911
G1 Y-36.018 Z-5.943
G1 Y-35.963 Z-5.968
G1 Y-35.905 Z-5.985
G1 Y-35.846 Z-5.996
G1 Y-35.786 Z-6
G1 Y-35.286 F213
G3 X0 Y-34.786 I-0.5
G2 Y-13.786 J10.5
G1 X11.449
G1 Z-4.75
G1 X21.449
G1 Z-6 F30
G1 X44.347 F213
G1 Z-4.75
G1 X54.347
G1 Z-6 F30
G1 X65.797 F213
G2 Y-34.786 J-10.5
G1 X54.347
G1 Z-4.75
G1 X44.347
G1 Z-6 F30
G1 X21.449 F213
G1 Z-4.75
G1 X11.449
G1 Z-6 F30
G1 X0 F213
G3 X-0.5 Y-35.286 J-0.5
G1 Y-35.786
G1 Y-35.846 Z-5.996
G1 Y-35.905 Z-5.985
G1 Y-35.963 Z-5.968
G1 Y-36.018 Z-5.943
G1 Y-36.07 Z-5.911
G1 Y-36.117 Z-5.874
G1 Y-36.16 Z-5.832
G1 Y-36.197 Z-5.784
G1 Y-36.228 Z-5.732
G1 Y-36.253 Z-5.677
G1 Y-36.271 Z-5.62
G1 Y-36.282 Z-5.56
G1 Y-36.286 Z-5.5
G1 Z5 F300
G1 Y-109.429 F2500
G1 Z2.5 F30
G1 Z-1
G1 Y-109.433 Z-1.06
G1 Y-109.444 Z-1.12
G1 Y-109.461 Z-1.177
G1 Y-109.486 Z-1.232
G1 Y-109.518 Z-1.284
G1 Y-109.555 Z-1.332
G1 Y-109.597 Z-1.374
G1 Y-109.645 Z-1.411
G1 Y-109.697 Z-1.443
G1 Y-109.752 Z-1.468
G1 Y-109.809 Z-1.485
G1 Y-109.869 Z-1.496
G1 Y-109.929 Z-1.5
G1 Y-110.429 F213
G3 X0 Y-110.929 I0.5
G1 X65.797
G2 Y-131.929 J-10.5
G1 X0
G2 Y-110.929 J10.5
G3 X0.5 Y-110.429 J0.5
G1 Y-109.929
G1 Y-109.869 Z-1.496
G1 Y-109.809 Z-1.485
G1 Y-109.752 Z-1.468
G1 Y-109.697 Z-1.443
G1 Y-109.645 Z-1.411
G1 Y-109.597 Z-1.374
G1 Y-109.555 Z-1.332
G1 Y-109.518 Z-1.284
G1 Y-109.486 Z-1.232
G1 Y-109.461 Z-1.177
G1 Y-109.444 Z-1.12
G1 Y-109.433 Z-1.06
G1 Y-109.429 Z-1
G1 Z5 F300
G1 X0.427 Y-109.146 F2500
G1 Z1 F30
G1 Z-2.5
G1 Y-109.142 Z-2.56
G1 X0.428 Y-109.131 Z-2.62
G1 Y-109.114 Z-2.677
G1 Y-109.089 Z-2.732
G1 Y-109.057 Z-2.784
G1 Y-109.02 Z-2.832
G1 Y-108.978 Z-2.874
G1 X0.429 Y-108.93 Z-2.911
G1 Y-108.878 Z-2.943
G1 Y-108.823 Z-2.968
G1 X0.43 Y-108.766 Z-2.985
G1 Y-108.706 Z-2.996
G1 Y-108.646 Z-3
G1 X0.433 Y-108.146 F213
G3 X-0.063 Y-107.643 I-0.5 J0.003
G2 X-10.5 Y-97.143 I0.064 J10.5
G2 X0 Y-86.643 I10.5
G1 X65.796
G2 X76.297 Y-97.143 J-10.5
G2 X65.796 Y-107.643 I-10.5
G1 X0
G2 X-0.063 I-0.032 J10.5
G3 X-0.565 Y-108.141 I-0.002 J-0.5
G1 X-0.566 Y-108.641
G1 X-0.567 Y-108.702 Z-2.996
G1 Y-108.761 Z-2.985
G1 Y-108.819 Z-2.968
G1 Y-108.874 Z-2.943
G1 Y-108.926 Z-2.911
G1 Y-108.973 Z-2.874
G1 X-0.568 Y-109.016 Z-2.832
G1 Y-109.053 Z-2.784
G1 Y-109.084 Z-2.732
G1 Y-109.109 Z-2.677
G1 Y-109.127 Z-2.62
G1 Y-109.138 Z-2.56
G1 Y-109.141 Z-2.5
G1 Z5 F300
G1 X-0.563 Y-133.717 F2500
G1 Z2.5 F30
G1 Z-1
G1 Y-133.72 Z-1.06
G1 Y-133.731 Z-1.12
G1 Y-133.749 Z-1.177
G1 X-0.562 Y-133.774 Z-1.232
G1 Y-133.805 Z-1.284
G1 Y-133.843 Z-1.332
G1 Y-133.885 Z-1.374
G1 Y-133.933 Z-1.411
G1 X-0.561 Y-133.984 Z-1.443
G1 Y-134.039 Z-1.468
G1 Y-134.097 Z-1.485
G1 X-0.56 Y-134.156 Z-1.496
G1 Y-134.217 Z-1.5
G1 X-0.557 Y-134.717 F213
G3 X-0.055 Y-135.214 I0.5 J0.003
G2 X0 I0.055 J-10.5
G1 X65.797
G2 Y-156.214 J-10.5
G1 X0
G2 X-0.055 Y-135.214 J10.5
G3 X0.442 Y-134.712 I-0.003 J0.5
G1 X0.44 Y-134.212
G1 Y-134.151 Z-1.496
G1 X0.439 Y-134.092 Z-1.485
G1 Y-134.034 Z-1.468
G1 Y-133.979 Z-1.443
G1 X0.438 Y-133.928 Z-1.411
G1 Y-133.88 Z-1.374
G1 Y-133.837 Z-1.332
G1 Y-133.8 Z-1.284
G1 Y-133.769 Z-1.232
G1 X0.437 Y-133.744 Z-1.177
G1 Y-133.726 Z-1.12
G1 Y-133.715 Z-1.06
G1 Y-133.712 Z-1
G1 Z5 F300
G1 X0.5 Y-133.429 F2500
G1 Z1 F30
G1 Z-2.5
G1 Y-133.425 Z-2.56
G1 Y-133.414 Z-2.62
G1 Y-133.397 Z-2.677
G1 Y-133.372 Z-2.732
G1 Y-133.34 Z-2.784
G1 Y-133.303 Z-2.832
G1 Y-133.261 Z-2.874
G1 Y-133.213 Z-2.911
G1 Y-133.161 Z-2.943
G1 Y-133.106 Z-2.968
G1 Y-133.049 Z-2.985
G1 Y-132.989 Z-2.996
G1 Y-132.929 Z-3
G1 Y-132.429 F213
G3 X0 Y-131.929 I-0.5
G2 Y-110.929 J10.5
G1 X65.797
G2 Y-131.929 J-10.5
G1 X0
G3 X-0.5 Y-132.429 J-0.5
G1 Y-132.929
G1 Y-132.989 Z-2.996
G1 Y-133.049 Z-2.985
G1 Y-133.106 Z-2.968
G1 Y-133.161 Z-2.943
G1 Y-133.213 Z-2.911
G1 Y-133.261 Z-2.874
G1 Y-133.303 Z-2.832
G1 Y-133.34 Z-2.784
G1 Y-133.372 Z-2.732
G1 Y-133.397 Z-2.677
G1 Y-133.414 Z-2.62
G1 Y-133.425 Z-2.56
G1 Y-133.429 Z-2.5
G1 Z5 F300
G1 X-0.563 Y-158.003 F2500
G1 Z2.5 F30
G1 Z-1
G1 Y-158.006 Z-1.06
G1 Y-158.017 Z-1.12
G1 Y-158.035 Z-1.177
G1 X-0.562 Y-158.06 Z-1.232
G1 Y-158.091 Z-1.284
G1 Y-158.129 Z-1.332
G1 Y-158.171 Z-1.374
G1 Y-158.219 Z-1.411
G1 X-0.561 Y-158.27 Z-1.443
G1 Y-158.325 Z-1.468
G1 Y-158.383 Z-1.485
G1 X-0.56 Y-158.443 Z-1.496
G1 Y-158.503 Z-1.5
G1 X-0.557 Y-159.003 F213
G3 X-0.055 Y-159.5 I0.5 J0.003
G2 X0 I0.055 J-10.5
G1 X65.797
G2 Y-180.5 J-10.5
G1 X0
G2 X-4.876 Y-179.299 J10.5
G2 X-10.5 Y-170 I4.876 J9.299
G2 X-0.055 Y-159.5 I10.5
G3 X0.443 Y-158.998 I-0.003 J0.5
G1 X0.44 Y-158.498
G1 Y-158.437 Z-1.496
G1 X0.439 Y-158.378 Z-1.485
G1 Y-158.32 Z-1.468
G1 Y-158.265 Z-1.443
G1 X0.438 Y-158.214 Z-1.411
G1 Y-158.166 Z-1.374
G1 Y-158.123 Z-1.332
G1 Y-158.086 Z-1.284
G1 Y-158.055 Z-1.232
G1 X0.437 Y-158.03 Z-1.177
G1 Y-158.012 Z-1.12
G1 Y-158.001 Z-1.06
G1 Y-157.998 Z-1
G1 Z5 F300
G1 X-0.5 Y-158 F2500
G1 Z1 F30
G1 Z-2.5
G1 Y-158.004 Z-2.56
G1 Y-158.015 Z-2.62
G1 Y-158.032 Z-2.677
G1 Y-158.057 Z-2.732
G1 Y-158.089 Z-2.784
G1 Y-158.126 Z-2.832
G1 Y-158.168 Z-2.874
G1 Y-158.216 Z-2.911
G1 Y-158.268 Z-2.943
G1 Y-158.323 Z-2.968
G1 Y-158.38 Z-2.985
G1 Y-158.44 Z-2.996
G1 Y-158.5 Z-3
G1 Y-159 F213
G3 X0 Y-159.5 I0.5
G1 X65.797
G2 Y-180.5 J-10.5
G1 X0
G2 X-4.876 Y-179.299 J10.5
G2 X-10.5 Y-170 I4.876 J9.299
G2 X0 Y-159.5 I10.5
G3 X0.5 Y-159 J0.5
G1 Y-158.5
G1 Y-158.44 Z-2.996
G1 Y-158.38 Z-2.985
G1 Y-158.323 Z-2.968
G1 Y-158.268 Z-2.943
G1 Y-158.216 Z-2.911
G1 Y-158.168 Z-2.874
G1 Y-158.126 Z-2.832
G1 Y-158.089 Z-2.784
G1 Y-158.057 Z-2.732
G1 Y-158.032 Z-2.677
G1 Y-158.015 Z-2.62
G1 Y-158.004 Z-2.56
G1 Y-158 Z-2.5
G1 Z5 F300
G1 Y-157.714 F2500
G1 Z1 F30
G1 Z-2.5
G1 Y-157.71 Z-2.56
G1 Y-157.699 Z-2.62
G1 Y-157.682 Z-2.677
G1 Y-157.657 Z-2.732
G1 Y-157.625 Z-2.784
G1 Y-157.588 Z-2.832
G1 Y-157.546 Z-2.874
G1 Y-157.498 Z-2.911
G1 Y-157.446 Z-2.943
G1 Y-157.391 Z-2.968
G1 Y-157.334 Z-2.985
G1 Y-157.274 Z-2.996
G1 Y-157.214 Z-3
G1 Y-156.714 F213
G3 X0 Y-156.214 I-0.5
G2 Y-135.214 J10.5
G1 X65.797
G2 Y-156.214 J-10.5
G1 X0
G3 X-0.5 Y-156.714 J-0.5
G1 Y-157.214
G1 Y-157.274 Z-2.996
G1 Y-157.334 Z-2.985
G1 Y-157.391 Z-2.968
G1 Y-157.446 Z-2.943
G1 Y-157.498 Z-2.911
G1 Y-157.546 Z-2.874
G1 Y-157.588 Z-2.832
G1 Y-157.625 Z-2.784
G1 Y-157.657 Z-2.732
G1 Y-157.682 Z-2.677
G1 Y-157.699 Z-2.62
G1 Y-157.71 Z-2.56
G1 Y-157.714 Z-2.5
G1 Z5 F300
G1 X0.5 F2500
G1 Z-0.5 F30
G1 Z-4
G1 Y-157.71 Z-4.06
G1 Y-157.699 Z-4.12
G1 Y-157.682 Z-4.177
G1 Y-157.657 Z-4.232
G1 Y-157.625 Z-4.284
G1 Y-157.588 Z-4.332
G1 Y-157.546 Z-4.374
G1 Y-157.498 Z-4.411
G1 Y-157.446 Z-4.443
G1 Y-157.391 Z-4.468
G1 Y-157.334 Z-4.485
G1 Y-157.274 Z-4.496
G1 Y-157.214 Z-4.5
G1 Y-156.714 F213
G3 X0 Y-156.214 I-0.5
G2 Y-135.214 J10.5
G1 X65.797
G2 Y-156.214 J-10.5
G1 X0
G3 X-0.5 Y-156.714 J-0.5
G1 Y-157.214
G1 Y-157.274 Z-4.496
G1 Y-157.334 Z-4.485
G1 Y-157.391 Z-4.468
G1 Y-157.446 Z-4.443
G1 Y-157.498 Z-4.411
G1 Y-157.546 Z-4.374
G1 Y-157.588 Z-4.332
G1 Y-157.625 Z-4.284
G1 Y-157.657 Z-4.232
G1 Y-157.682 Z-4.177
G1 Y-157.699 Z-4.12
G1 Y-157.71 Z-4.06
G1 Y-157.714 Z-4
G1 Z5 F300
G1 X-0.563 Y-158.003 F2500
G1 Z-0.5 F30
G1 Z-4
G1 Y-158.006 Z-4.06
G1 Y-158.017 Z-4.12
G1 Y-158.035 Z-4.177
G1 X-0.562 Y-158.06 Z-4.232
G1 Y-158.091 Z-4.284
G1 Y-158.129 Z-4.332
G1 Y-158.171 Z-4.374
G1 Y-158.219 Z-4.411
G1 X-0.561 Y-158.27 Z-4.443
G1 Y-158.325 Z-4.468
G1 Y-158.383 Z-4.485
G1 X-0.56 Y-158.443 Z-4.496
G1 Y-158.503 Z-4.5
G1 X-0.557 Y-159.003 F213
G3 X-0.055 Y-159.5 I0.5 J0.003
G2 X0 I0.055 J-10.5
G1 X65.797
G2 Y-180.5 J-10.5
G1 X0
G2 X-4.876 Y-179.299 J10.5
G2 X-10.5 Y-170 I4.876 J9.299
G2 X-0.055 Y-159.5 I10.5
G3 X0.443 Y-158.998 I-0.003 J0.5
G1 X0.44 Y-158.498
G1 Y-158.437 Z-4.496
G1 X0.439 Y-158.378 Z-4.485
G1 Y-158.32 Z-4.468
G1 Y-158.265 Z-4.443
G1 X0.438 Y-158.214 Z-4.411
G1 Y-158.166 Z-4.374
G1 Y-158.123 Z-4.332
G1 Y-158.086 Z-4.284
G1 Y-158.055 Z-4.232
G1 X0.437 Y-158.03 Z-4.177
G1 Y-158.012 Z-4.12
G1 Y-158.001 Z-4.06
G1 Y-157.998 Z-4
G1 Z5 F300
G1 X-0.5 Y-158 F2500
G1 Z-2 F30
G1 Z-5.5
G1 Y-158.004 Z-5.56
G1 Y-158.015 Z-5.62
G1 Y-158.032 Z-5.677
G1 Y-158.057 Z-5.732
G1 Y-158.089 Z-5.784
G1 Y-158.126 Z-5.832
G1 Y-158.168 Z-5.874
G1 Y-158.216 Z-5.911
G1 Y-158.268 Z-5.943
G1 Y-158.323 Z-5.968
G1 Y-158.38 Z-5.985
G1 Y-158.44 Z-5.996
G1 Y-158.5 Z-6
G1 Y-159 F213
G3 X0 Y-159.5 I0.5
G1 X11.449
G1 Z-4.75
G1 X21.449
G1 Z-6 F30
G1 X44.347 F213
G1 Z-4.75
G1 X54.347
G1 Z-6 F30
G1 X65.797 F213
G2 Y-180.5 J-10.5
G1 X54.347
G1 Z-4.75
G1 X44.347
G1 Z-6 F30
G1 X21.449 F213
G1 Z-4.75
G1 X11.449
G1 Z-6 F30
G1 X0 F213
G2 X-4.876 Y-179.299 J10.5
G2 X-10.5 Y-170 I4.876 J9.299
G2 X0 Y-159.5 I10.5
G3 X0.5 Y-159 J0.5
G1 Y-158.5
G1 Y-158.44 Z-5.996
G1 Y-158.38 Z-5.985
G1 Y-158.323 Z-5.968
G1 Y-158.268 Z-5.943
G1 Y-158.216 Z-5.911
G1 Y-158.168 Z-5.874
G1 Y-158.126 Z-5.832
G1 Y-158.089 Z-5.784
G1 Y-158.057 Z-5.732
G1 Y-158.032 Z-5.677
G1 Y-158.015 Z-5.62
G1 Y-158.004 Z-5.56
G1 Y-158 Z-5.5
G1 Z5 F300
G1 Y-133.429 F2500
G1 Z-0.5 F30
G1 Z-4
G1 Y-133.425 Z-4.06
G1 Y-133.414 Z-4.12
G1 Y-133.397 Z-4.177
G1 Y-133.372 Z-4.232
G1 Y-133.34 Z-4.284
G1 Y-133.303 Z-4.332
G1 Y-133.261 Z-4.374
G1 Y-133.213 Z-4.411
G1 Y-133.161 Z-4.443
G1 Y-133.106 Z-4.468
G1 Y-133.049 Z-4.485
G1 Y-132.989 Z-4.496
G1 Y-132.929 Z-4.5
G1 Y-132.429 F213
G3 X0 Y-131.929 I-0.5
G2 Y-110.929 J10.5
G1 X65.797
G2 Y-131.929 J-10.5
G1 X0
G3 X-0.5 Y-132.429 J-0.5
G1 Y-132.929
G1 Y-132.989 Z-4.496
G1 Y-133.049 Z-4.485
G1 Y-133.106 Z-4.468
G1 Y-133.161 Z-4.443
G1 Y-133.213 Z-4.411
G1 Y-133.261 Z-4.374
G1 Y-133.303 Z-4.332
G1 Y-133.34 Z-4.284
G1 Y-133.372 Z-4.232
G1 Y-133.397 Z-4.177
G1 Y-133.414 Z-4.12
G1 Y-133.425 Z-4.06
G1 Y-133.429 Z-4
G1 Z5 F300
G1 X-0.563 Y-133.717 F2500
G1 Z-2 F30
G1 Z-5.5
G1 Y-133.72 Z-5.56
G1 Y-133.731 Z-5.62
G1 Y-133.749 Z-5.677
G1 X-0.562 Y-133.774 Z-5.732
G1 Y-133.805 Z-5.784
G1 Y-133.843 Z-5.832
G1 Y-133.885 Z-5.874
G1 Y-133.933 Z-5.911
G1 X-0.561 Y-133.984 Z-5.943
G1 Y-134.039 Z-5.968
G1 Y-134.097 Z-5.985
G1 X-0.56 Y-134.156 Z-5.996
G1 Y-134.217 Z-6
G1 X-0.557 Y-134.717 F213
G3 X-0.055 Y-135.214 I0.5 J0.003
G2 X0 I0.055 J-10.5
G1 X11.449
G1 Z-4.75
G1 X21.449
G1 Z-6 F30
G1 X44.347 F213
G1 Z-4.75
G1 X54.347
G1 Z-6 F30
G1 X65.797 F213
G2 Y-156.214 J-10.5
G1 X54.347
G1 Z-4.75
G1 X44.347
G1 Z-6 F30
G1 X21.449 F213
G1 Z-4.75
G1 X11.449
G1 Z-6 F30
G1 X0 F213
G2 X-0.055 Y-135.214 J10.5
G3 X0.442 Y-134.712 I-0.003 J0.5
G1 X0.44 Y-134.212
G1 Y-134.151 Z-5.996
G1 X0.439 Y-134.092 Z-5.985
G1 Y-134.034 Z-5.968
G1 Y-133.979 Z-5.943
G1 X0.438 Y-133.928 Z-5.911
G1 Y-133.88 Z-5.874
G1 Y-133.837 Z-5.832
G1 Y-133.8 Z-5.784
G1 Y-133.769 Z-5.732
G1 X0.437 Y-133.744 Z-5.677
G1 Y-133.726 Z-5.62
G1 Y-133.715 Z-5.56
G1 Y-133.712 Z-5.5
G1 Z5 F300
G1 X0.427 Y-109.146 F2500
G1 Z-0.5 F30
G1 Z-4
G1 Y-109.142 Z-4.06
G1 X0.428 Y-109.131 Z-4.12
G1 Y-109.114 Z-4.177
G1 Y-109.089 Z-4.232
G1 Y-109.057 Z-4.284
G1 Y-109.02 Z-4.332
G1 Y-108.978 Z-4.374
G1 X0.429 Y-108.93 Z-4.411
G1 Y-108.878 Z-4.443
G1 Y-108.823 Z-4.468
G1 X0.43 Y-108.766 Z-4.485
G1 Y-108.706 Z-4.496
G1 Y-108.646 Z-4.5
G1 X0.433 Y-108.146 F213
G3 X-0.063 Y-107.643 I-0.5 J0.003
G2 X-10.5 Y-97.143 I0.064 J10.5
G2 X0 Y-86.643 I10.5
G1 X65.796
G2 X76.297 Y-97.143 J-10.5
G2 X65.796 Y-107.643 I-10.5
G1 X0
G2 X-0.063 I-0.032 J10.5
G3 X-0.565 Y-108.141 I-0.002 J-0.5
G1 X-0.566 Y-108.641
G1 X-0.567 Y-108.702 Z-4.496
G1 Y-108.761 Z-4.485
G1 Y-108.819 Z-4.468
G1 Y-108.874 Z-4.443
G1 Y-108.926 Z-4.411
G1 Y-108.973 Z-4.374
G1 X-0.568 Y-109.016 Z-4.332
G1 Y-109.053 Z-4.284
G1 Y-109.084 Z-4.232
G1 Y-109.109 Z-4.177
G1 Y-109.127 Z-4.12
G1 Y-109.138 Z-4.06
G1 Y-109.141 Z-4
G1 Z5 F300
G1 X-0.5 Y-109.429 F2500
G1 Z-2 F30
G1 Z-5.5
G1 Y-109.433 Z-5.56
G1 Y-109.444 Z-5.62
G1 Y-109.461 Z-5.677
G1 Y-109.486 Z-5.732
G1 Y-109.518 Z-5.784
G1 Y-109.555 Z-5.832
G1 Y-109.597 Z-5.874
G1 Y-109.645 Z-5.911
G1 Y-109.697 Z-5.943
G1 Y-109.752 Z-5.968
G1 Y-109.809 Z-5.985
G1 Y-109.869 Z-5.996
G1 Y-109.929 Z-6
G1 Y-110.429 F213
G3 X0 Y-110.929 I0.5
G1 X11.449
G1 Z-4.75
G1 X21.449
G1 Z-6 F30
G1 X44.347 F213
G1 Z-4.75
G1 X54.347
G1 Z-6 F30
G1 X65.797 F213
G2 Y-131.929 J-10.5
G1 X54.347
G1 Z-4.75
G1 X44.347
G1 Z-6 F30
G1 X21.449 F213
G1 Z-4.75
G1 X11.449
G1 Z-6 F30
G1 X0 F213
G2 Y-110.929 J10.5
G3 X0.5 Y-110.429 J0.5
G1 Y-109.929
G1 Y-109.869 Z-5.996
G1 Y-109.809 Z-5.985
G1 Y-109.752 Z-5.968
G1 Y-109.697 Z-5.943
G1 Y-109.645 Z-5.911
G1 Y-109.597 Z-5.874
G1 Y-109.555 Z-5.832
G1 Y-109.518 Z-5.784
G1 Y-109.486 Z-5.732
G1 Y-109.461 Z-5.677
G1 Y-109.444 Z-5.62
G1 Y-109.433 Z-5.56
G1 Y-109.429 Z-5.5
G1 Z5 F300
G1 X-0.5 Y-60.857 F2500
G1 Z-0.5 F30
G1 Z-4
G1 Y-60.861 Z-4.06
G1 Y-60.872 Z-4.12
G1 Y-60.89 Z-4.177
G1 Y-60.914 Z-4.232
G1 Y-60.946 Z-4.284
G1 Y-60.983 Z-4.332
G1 Y-61.026 Z-4.374
G1 Y-61.073 Z-4.411
G1 Y-61.125 Z-4.443
G1 Y-61.18 Z-4.468
G1 Y-61.237 Z-4.485
G1 Y-61.297 Z-4.496
G1 Y-61.357 Z-4.5
G1 Y-61.857 F213
G3 X0 Y-62.357 I0.5
G1 X65.797
G2 Y-83.357 J-10.5
G1 X0
G2 X-0.063 I-0.032 J10.5
G2 X-10.5 Y-72.857 I0.064 J10.5
G2 X0 Y-62.357 I10.5
G3 X0.5 Y-61.857 J0.5
G1 Y-61.357
G1 Y-61.297 Z-4.496
G1 Y-61.237 Z-4.485
G1 Y-61.18 Z-4.468
G1 Y-61.125 Z-4.443
G1 Y-61.073 Z-4.411
G1 Y-61.026 Z-4.374
G1 Y-60.983 Z-4.332
G1 Y-60.946 Z-4.284
G1 Y-60.914 Z-4.232
G1 Y-60.89 Z-4.177
G1 Y-60.872 Z-4.12
G1 Y-60.861 Z-4.06
G1 Y-60.857 Z-4
G1 Z5 F300
G1 X-0.5 F2500
G1 Z-2 F30
G1 Z-5.5
G1 Y-60.861 Z-5.56
G1 Y-60.872 Z-5.62
G1 Y-60.89 Z-5.677
G1 Y-60.914 Z-5.732
G1 Y-60.946 Z-5.784
G1 Y-60.983 Z-5.832
G1 Y-61.026 Z-5.874
G1 Y-61.073 Z-5.911
G1 Y-61.125 Z-5.943
G1 Y-61.18 Z-5.968
G1 Y-61.237 Z-5.985
G1 Y-61.297 Z-5.996
G1 Y-61.357 Z-6
G1 Y-61.857 F213
G3 X0 Y-62.357 I0.5
G1 X11.449
G1 Z-4.75
G1 X21.449
G1 Z-6 F30
G1 X44.347 F213
G1 Z-4.75
G1 X54.347
G1 Z-6 F30
G1 X65.797 F213
G2 Y-83.357 J-10.5
G1 X54.347
G1 Z-4.75
G1 X44.347
G1 Z-6 F30
G1 X21.449 F213
G1 Z-4.75
G1 X11.449
G1 Z-6 F30
G1 X0 F213
G2 X-0.063 I-0.032 J10.5
G2 X-10.5 Y-72.857 I0.064 J10.5
G2 X0 Y-62.357 I10.5
G3 X0.5 Y-61.857 J0.5
G1 Y-61.357
G1 Y-61.297 Z-5.996
G1 Y-61.237 Z-5.985
G1 Y-61.18 Z-5.968
G1 Y-61.125 Z-5.943
G1 Y-61.073 Z-5.911
G1 Y-61.026 Z-5.874
G1 Y-60.983 Z-5.832
G1 Y-60.946 Z-5.784
G1 Y-60.914 Z-5.732
G1 Y-60.89 Z-5.677
G1 Y-60.872 Z-5.62
G1 Y-60.861 Z-5.56
G1 Y-60.857 Z-5.5
G1 Z5 F300
G1 X0.427 Y-60.574 F2500
G1 Z-2 F30
G1 Z-5.5
G1 Y-60.571 Z-5.56
G1 X0.428 Y-60.56 Z-5.62
G1 Y-60.542 Z-5.677
G1 Y-60.517 Z-5.732
G1 Y-60.486 Z-5.784
G1 Y-60.449 Z-5.832
G1 Y-60.406 Z-5.874
G1 X0.429 Y-60.358 Z-5.911
G1 Y-60.307 Z-5.943
G1 Y-60.252 Z-5.968
G1 X0.43 Y-60.194 Z-5.985
G1 Y-60.135 Z-5.996
G1 Y-60.074 Z-6
G1 X0.433 Y-59.574 F213
G3 X-0.063 Y-59.071 I-0.5 J0.003
G2 X-10.5 Y-48.571 I0.064 J10.5
G2 X0 Y-38.071 I10.5
G1 X11.449
G1 Z-4.75
G1 X21.449
G1 Z-6 F30
G1 X44.347 F213
G1 Z-4.75
G1 X54.347
G1 Z-6 F30
G1 X65.797 F213
G2 Y-59.071 J-10.5
G1 X54.347
G1 Z-4.75
G1 X44.347
G1 Z-6 F30
G1 X21.449 F213
G1 Z-4.75
G1 X11.449
G1 Z-6 F30
G1 X0 F213
G2 X-0.063 I-0.032 J10.5
G3 X-0.565 Y-59.57 I-0.002 J-0.5
G1 X-0.566 Y-60.07
G1 X-0.567 Y-60.13 Z-5.996
G1 Y-60.19 Z-5.985
G1 Y-60.247 Z-5.968
G1 Y-60.302 Z-5.943
G1 Y-60.354 Z-5.911
G1 Y-60.401 Z-5.874
G1 X-0.568 Y-60.444 Z-5.832
G1 Y-60.481 Z-5.784
G1 Y-60.513 Z-5.732
G1 Y-60.537 Z-5.677
G1 Y-60.555 Z-5.62
G1 Y-60.566 Z-5.56
G1 Y-60.57 Z-5.5
G1 Z5 F300
G1 X0.272 Y-85.143 F2500
G1 Z-2 F30
G1 Z-5.5
G1 Y-85.147 Z-5.56
G1 Y-85.157 Z-5.62
G1 Y-85.175 Z-5.677
G1 Y-85.2 Z-5.732
G1 Y-85.231 Z-5.784
G1 Y-85.269 Z-5.832
G1 Y-85.311 Z-5.874
G1 Y-85.359 Z-5.911
G1 Y-85.411 Z-5.943
G1 Y-85.466 Z-5.968
G1 Y-85.523 Z-5.985
G1 Y-85.583 Z-5.996
G1 Y-85.643 Z-6
G1 Y-86.143 F213
G3 X0.772 Y-86.643 I0.5
G1 X11.449
G1 Z-4.75
G1 X21.449
G1 Z-6 F30
G1 X44.347 F213
G1 Z-4.75
G1 X54.347
G1 Z-6 F30
G1 X65.796 F213
G2 X76.297 Y-97.143 J-10.5
G2 X65.796 Y-107.643 I-10.5
G1 X54.347
G1 Z-4.75
G1 X44.347
G1 Z-6 F30
G1 X21.449 F213
G1 Z-4.75
G1 X11.449
G1 Z-6 F30
G1 X0 F213
G2 X-0.063 I-0.032 J10.5
G2 X-10.5 Y-97.143 I0.064 J10.5
G2 X0 Y-86.643 I10.5
G1 X0.772
G3 X1.272 Y-86.143 J0.5
G1 Y-85.643
G1 Y-85.583 Z-5.996
G1 Y-85.523 Z-5.985
G1 Y-85.466 Z-5.968
G1 Y-85.411 Z-5.943
G1 Y-85.359 Z-5.911
G1 Y-85.311 Z-5.874
G1 Y-85.269 Z-5.832
G1 Y-85.231 Z-5.784
G1 Y-85.2 Z-5.732
G1 Y-85.175 Z-5.677
G1 Y-85.157 Z-5.62
G1 Y-85.147 Z-5.56
G1 Y-85.143 Z-5.5
G1 Z15 F300

M400
M117 Job end
G1 X0 Y0 F2500
G1 Z0 F300
