;Fusion 360 CAM 2.0.6258
;Posts processor: MPCNC_Mill_Laser.cps
;Gcode generated: Monday, September 02, 2019 6:04:08 PM GMT
;Document: Binario intermedio v3
;Setup: Setup1

G90
G21
M84 S0
G92 X0 Y0 Z0

;Probe tool - Not yet implemented

;Drill1 - Milling - Tool: 1 - drill
;X Min: 0 - X Max: 65.797
;Y Min: -170 - Y Max: 0
;Z Min: -8.803 - Z Max: 15
M400
M117 Drill1
G1 Z15 F300
G1 X0 Y-170 F2500
G1 Z5 F300
G1 Z2 F300
G1 Z-1.5 F49
G1 Z-1.38 F300
G1 Z-3 F49
G1 Z-2.88 F300
G1 Z-4.5 F49
G1 Z5 F300
G1 Z-2.5 F300
G1 Z-6 F49
G1 Z-5.88 F300
G1 Z-7.5 F49
G1 Z-7.38 F300
G1 Z-8.803 F49
G1 Z5 F300
G1 Y-145.714 F2500
G1 Z2 F300
G1 Z-1.5 F49
G1 Z-1.38 F300
G1 Z-3 F49
G1 Z-2.88 F300
G1 Z-4.5 F49
G1 Z5 F300
G1 Z-2.5 F300
G1 Z-6 F49
G1 Z-5.88 F300
G1 Z-7.5 F49
G1 Z-7.38 F300
G1 Z-8.803 F49
G1 Z5 F300
G1 Y-121.429 F2500
G1 Z2 F300
G1 Z-1.5 F49
G1 Z-1.38 F300
G1 Z-3 F49
G1 Z-2.88 F300
G1 Z-4.5 F49
G1 Z5 F300
G1 Z-2.5 F300
G1 Z-6 F49
G1 Z-5.88 F300
G1 Z-7.5 F49
G1 Z-7.38 F300
G1 Z-8.803 F49
G1 Z5 F300
G1 Y-97.143 F2500
G1 Z2 F300
G1 Z-1.5 F49
G1 Z-1.38 F300
G1 Z-3 F49
G1 Z-2.88 F300
G1 Z-4.5 F49
G1 Z5 F300
G1 Z-2.5 F300
G1 Z-6 F49
G1 Z-5.88 F300
G1 Z-7.5 F49
G1 Z-7.38 F300
G1 Z-8.803 F49
G1 Z5 F300
G1 Y-72.857 F2500
G1 Z2 F300
G1 Z-1.5 F49
G1 Z-1.38 F300
G1 Z-3 F49
G1 Z-2.88 F300
G1 Z-4.5 F49
G1 Z5 F300
G1 Z-2.5 F300
G1 Z-6 F49
G1 Z-5.88 F300
G1 Z-7.5 F49
G1 Z-7.38 F300
G1 Z-8.803 F49
G1 Z5 F300
G1 Y-48.571 F2500
G1 Z2 F300
G1 Z-1.5 F49
G1 Z-1.38 F300
G1 Z-3 F49
G1 Z-2.88 F300
G1 Z-4.5 F49
G1 Z5 F300
G1 Z-2.5 F300
G1 Z-6 F49
G1 Z-5.88 F300
G1 Z-7.5 F49
G1 Z-7.38 F300
G1 Z-8.803 F49
G1 Z5 F300
G1 Y-24.286 F2500
G1 Z2 F300
G1 Z-1.5 F49
G1 Z-1.38 F300
G1 Z-3 F49
G1 Z-2.88 F300
G1 Z-4.5 F49
G1 Z5 F300
G1 Z-2.5 F300
G1 Z-6 F49
G1 Z-5.88 F300
G1 Z-7.5 F49
G1 Z-7.38 F300
G1 Z-8.803 F49
G1 Z5 F300
G1 Y0 F2500
G1 Z2 F300
G1 Z-1.5 F49
G1 Z-1.38 F300
G1 Z-3 F49
G1 Z-2.88 F300
G1 Z-4.5 F49
G1 Z5 F300
G1 Z-2.5 F300
G1 Z-6 F49
G1 Z-5.88 F300
G1 Z-7.5 F49
G1 Z-7.38 F300
G1 Z-8.803 F49
G1 Z5 F300
G1 X65.797 F2500
G1 Z2 F300
G1 Z-1.5 F49
G1 Z-1.38 F300
G1 Z-3 F49
G1 Z-2.88 F300
G1 Z-4.5 F49
G1 Z5 F300
G1 Z-2.5 F300
G1 Z-6 F49
G1 Z-5.88 F300
G1 Z-7.5 F49
G1 Z-7.38 F300
G1 Z-8.803 F49
G1 Z5 F300
G1 Y-24.286 F2500
G1 Z2 F300
G1 Z-1.5 F49
G1 Z-1.38 F300
G1 Z-3 F49
G1 Z-2.88 F300
G1 Z-4.5 F49
G1 Z5 F300
G1 Z-2.5 F300
G1 Z-6 F49
G1 Z-5.88 F300
G1 Z-7.5 F49
G1 Z-7.38 F300
G1 Z-8.803 F49
G1 Z5 F300
G1 Y-48.571 F2500
G1 Z2 F300
G1 Z-1.5 F49
G1 Z-1.38 F300
G1 Z-3 F49
G1 Z-2.88 F300
G1 Z-4.5 F49
G1 Z5 F300
G1 Z-2.5 F300
G1 Z-6 F49
G1 Z-5.88 F300
G1 Z-7.5 F49
G1 Z-7.38 F300
G1 Z-8.803 F49
G1 Z5 F300
G1 Y-72.857 F2500
G1 Z2 F300
G1 Z-1.5 F49
G1 Z-1.38 F300
G1 Z-3 F49
G1 Z-2.88 F300
G1 Z-4.5 F49
G1 Z5 F300
G1 Z-2.5 F300
G1 Z-6 F49
G1 Z-5.88 F300
G1 Z-7.5 F49
G1 Z-7.38 F300
G1 Z-8.803 F49
G1 Z5 F300
G1 Y-97.143 F2500
G1 Z2 F300
G1 Z-1.5 F49
G1 Z-1.38 F300
G1 Z-3 F49
G1 Z-2.88 F300
G1 Z-4.5 F49
G1 Z5 F300
G1 Z-2.5 F300
G1 Z-6 F49
G1 Z-5.88 F300
G1 Z-7.5 F49
G1 Z-7.38 F300
G1 Z-8.803 F49
G1 Z5 F300
G1 Y-121.429 F2500
G1 Z2 F300
G1 Z-1.5 F49
G1 Z-1.38 F300
G1 Z-3 F49
G1 Z-2.88 F300
G1 Z-4.5 F49
G1 Z5 F300
G1 Z-2.5 F300
G1 Z-6 F49
G1 Z-5.88 F300
G1 Z-7.5 F49
G1 Z-7.38 F300
G1 Z-8.803 F49
G1 Z5 F300
G1 Y-145.714 F2500
G1 Z2 F300
G1 Z-1.5 F49
G1 Z-1.38 F300
G1 Z-3 F49
G1 Z-2.88 F300
G1 Z-4.5 F49
G1 Z5 F300
G1 Z-2.5 F300
G1 Z-6 F49
G1 Z-5.88 F300
G1 Z-7.5 F49
G1 Z-7.38 F300
G1 Z-8.803 F49
G1 Z5 F300
G1 Y-170 F2500
G1 Z2 F300
G1 Z-1.5 F49
G1 Z-1.38 F300
G1 Z-3 F49
G1 Z-2.88 F300
G1 Z-4.5 F49
G1 Z5 F300
G1 Z-2.5 F300
G1 Z-6 F49
G1 Z-5.88 F300
G1 Z-7.5 F49
G1 Z-7.38 F300
G1 Z-8.803 F49
G1 Z5 F300
G1 Z15 F300

M400
M117 Job end
G1 X0 Y0 F2500
G1 Z0 F300
