;Fusion 360 CAM 2.0.6258
;Posts processor: MPCNC_Mill_Laser.cps
;Gcode generated: Monday, September 02, 2019 6:42:21 PM GMT
;Document: Ternario superior v7
;Setup: Setup1

G90
G21
M84 S0
G92 X0 Y0 Z0

;Probe tool - Not yet implemented

;2D Contour1 - Milling - Tool: 2 - flat end mill
;X Min: -17.485 - X Max: 102.512
;Y Min: -183.34 - Y Max: 25.853
;Z Min: -6 - Z Max: 15
M400
M117 2D Contour1
G1 Z15 F300
G1 X1.696 Y-86.749 F2500
G1 Z5 F300
G1 Z2.5 F30
G1 Z-1
G1 X1.7 Y-86.75 Z-1.06
G1 X1.71 Y-86.752 Z-1.12
G1 X1.728 Y-86.757 Z-1.177
G1 X1.752 Y-86.763 Z-1.232
G1 X1.782 Y-86.771 Z-1.284
G1 X1.818 Y-86.781 Z-1.332
G1 X1.859 Y-86.792 Z-1.374
G1 X1.905 Y-86.804 Z-1.411
G1 X1.955 Y-86.817 Z-1.443
G1 X2.008 Y-86.831 Z-1.468
G1 X2.064 Y-86.846 Z-1.485
G1 X2.121 Y-86.861 Z-1.496
G1 X2.18 Y-86.876 Z-1.5
G1 X2.663 Y-87.004 F213
G3 X3.274 Y-86.648 I0.128 J0.483
G2 X10.526 Y-81.063 I7.252 J-1.914 F200
G1 X90.766
G2 X98.26 Y-88.86 J-7.5
G1 X95.25 Y-164.666
G2 X82.502 Y-169.721 I-7.494 J0.297
G1 X5.272 Y-93.915
G2 X3.274 Y-86.648 I5.254 J5.352
G3 X2.918 Y-86.037 I-0.483 J0.128 F213
G1 X2.435 Y-85.91
G1 X2.377 Y-85.894 Z-1.496
G1 X2.319 Y-85.879 Z-1.485
G1 X2.263 Y-85.864 Z-1.468
G1 X2.21 Y-85.85 Z-1.443
G1 X2.16 Y-85.837 Z-1.411
G1 X2.114 Y-85.825 Z-1.374
G1 X2.073 Y-85.814 Z-1.332
G1 X2.037 Y-85.804 Z-1.284
G1 X2.007 Y-85.796 Z-1.232
G1 X1.983 Y-85.79 Z-1.177
G1 X1.965 Y-85.786 Z-1.12
G1 X1.955 Y-85.783 Z-1.06
G1 X1.951 Y-85.782 Z-1
G1 Z5 F300
G1 X76.169 Y-182.643 F2500
G1 Z2.5 F30
G1 Z-1
G1 X76.167 Y-182.64 Z-1.06
G1 X76.16 Y-182.631 Z-1.12
G1 X76.149 Y-182.617 Z-1.177
G1 X76.134 Y-182.597 Z-1.232
G1 X76.115 Y-182.573 Z-1.284
G1 X76.092 Y-182.543 Z-1.332
G1 X76.066 Y-182.51 Z-1.374
G1 X76.037 Y-182.472 Z-1.411
G1 X76.005 Y-182.431 Z-1.443
G1 X75.971 Y-182.388 Z-1.468
G1 X75.936 Y-182.342 Z-1.485
G1 X75.9 Y-182.295 Z-1.496
G1 X75.863 Y-182.248 Z-1.5
G1 X75.556 Y-181.853 F213
G3 X74.855 Y-181.764 I-0.395 J-0.307
G2 X70.255 Y-183.34 I-4.599 J5.925 F200
G1 X-9.985
G2 X-17.479 Y-175.542 J7.5
G1 X-14.469 Y-99.736
G2 X-1.721 Y-94.681 I7.494 J-0.297
G1 X75.509 Y-170.487
G2 X74.855 Y-181.764 I-5.254 J-5.353
G3 X74.766 Y-182.466 I0.307 J-0.395 F213
G1 X75.073 Y-182.861
G1 X75.11 Y-182.908 Z-1.496
G1 X75.146 Y-182.955 Z-1.485
G1 X75.182 Y-183.001 Z-1.468
G1 X75.215 Y-183.044 Z-1.443
G1 X75.247 Y-183.085 Z-1.411
G1 X75.276 Y-183.123 Z-1.374
G1 X75.302 Y-183.156 Z-1.332
G1 X75.325 Y-183.186 Z-1.284
G1 X75.344 Y-183.211 Z-1.232
G1 X75.36 Y-183.23 Z-1.177
G1 X75.371 Y-183.244 Z-1.12
G1 X75.377 Y-183.253 Z-1.06
G1 X75.379 Y-183.256 Z-1
G1 Z5 F300
G1 X76.169 Y-182.643 F2500
G1 Z1 F30
G1 Z-2.5
G1 X76.167 Y-182.64 Z-2.56
G1 X76.16 Y-182.631 Z-2.62
G1 X76.149 Y-182.617 Z-2.677
G1 X76.134 Y-182.597 Z-2.732
G1 X76.115 Y-182.573 Z-2.784
G1 X76.092 Y-182.543 Z-2.832
G1 X76.066 Y-182.51 Z-2.874
G1 X76.037 Y-182.472 Z-2.911
G1 X76.005 Y-182.431 Z-2.943
G1 X75.971 Y-182.388 Z-2.968
G1 X75.936 Y-182.342 Z-2.985
G1 X75.9 Y-182.295 Z-2.996
G1 X75.863 Y-182.248 Z-3
G1 X75.556 Y-181.853 F213
G3 X74.855 Y-181.764 I-0.395 J-0.307
G2 X70.255 Y-183.34 I-4.599 J5.925 F200
G1 X-9.985
G2 X-17.479 Y-175.542 J7.5
G1 X-14.469 Y-99.736
G2 X-1.721 Y-94.681 I7.494 J-0.297
G1 X75.509 Y-170.487
G2 X74.855 Y-181.764 I-5.254 J-5.353
G3 X74.766 Y-182.466 I0.307 J-0.395 F213
G1 X75.073 Y-182.861
G1 X75.11 Y-182.908 Z-2.996
G1 X75.146 Y-182.955 Z-2.985
G1 X75.182 Y-183.001 Z-2.968
G1 X75.215 Y-183.044 Z-2.943
G1 X75.247 Y-183.085 Z-2.911
G1 X75.276 Y-183.123 Z-2.874
G1 X75.302 Y-183.156 Z-2.832
G1 X75.325 Y-183.186 Z-2.784
G1 X75.344 Y-183.211 Z-2.732
G1 X75.36 Y-183.23 Z-2.677
G1 X75.371 Y-183.244 Z-2.62
G1 X75.377 Y-183.253 Z-2.56
G1 X75.379 Y-183.256 Z-2.5
G1 Z5 F300
G1 X83.331 Y-70.738 F2500
G1 Z2.5 F30
G1 Z-1
G1 X83.327 Y-70.737 Z-1.06
G1 X83.317 Y-70.734 Z-1.12
G1 X83.299 Y-70.73 Z-1.177
G1 X83.275 Y-70.723 Z-1.232
G1 X83.245 Y-70.715 Z-1.284
G1 X83.209 Y-70.706 Z-1.332
G1 X83.168 Y-70.695 Z-1.374
G1 X83.122 Y-70.683 Z-1.411
G1 X83.072 Y-70.669 Z-1.443
G1 X83.019 Y-70.655 Z-1.468
G1 X82.963 Y-70.641 Z-1.485
G1 X82.905 Y-70.626 Z-1.496
G1 X82.847 Y-70.61 Z-1.5
G1 X82.364 Y-70.483 F213
G3 X81.753 Y-70.838 I-0.128 J-0.483
G2 X74.501 Y-76.424 I-7.252 J1.914 F200
G1 X-5.739
G2 X-13.234 Y-68.626 J7.5
G1 X-10.223 Y7.18
G2 X2.525 Y12.235 I7.494 J-0.298
G1 X79.755 Y-63.572
G2 X81.753 Y-70.838 I-5.254 J-5.352
G3 X82.108 Y-71.449 I0.483 J-0.128 F213
G1 X82.592 Y-71.577
G1 X82.65 Y-71.592 Z-1.496
G1 X82.708 Y-71.608 Z-1.485
G1 X82.763 Y-71.622 Z-1.468
G1 X82.817 Y-71.636 Z-1.443
G1 X82.867 Y-71.65 Z-1.411
G1 X82.912 Y-71.662 Z-1.374
G1 X82.954 Y-71.673 Z-1.332
G1 X82.99 Y-71.682 Z-1.284
G1 X83.02 Y-71.69 Z-1.232
G1 X83.044 Y-71.696 Z-1.177
G1 X83.061 Y-71.701 Z-1.12
G1 X83.072 Y-71.704 Z-1.06
G1 X83.075 Y-71.705 Z-1
G1 Z5 F300
G1 X91.13 Y-66.425 F2500
G1 Z2.5 F30
G1 Z-1
G1 X91.131 Y-66.421 Z-1.06
G1 X91.133 Y-66.411 Z-1.12
G1 X91.135 Y-66.393 Z-1.177
G1 X91.139 Y-66.368 Z-1.232
G1 X91.144 Y-66.337 Z-1.284
G1 X91.149 Y-66.301 Z-1.332
G1 X91.156 Y-66.258 Z-1.374
G1 X91.163 Y-66.211 Z-1.411
G1 X91.171 Y-66.16 Z-1.443
G1 X91.179 Y-66.106 Z-1.468
G1 X91.188 Y-66.049 Z-1.485
G1 X91.197 Y-65.99 Z-1.496
G1 X91.206 Y-65.931 Z-1.5
G1 X91.282 Y-65.437 F213
G3 X90.864 Y-64.866 I-0.494 J0.076
G2 X86.748 Y-62.806 I1.138 J7.413 F200
G1 X9.518 Y13.001
G2 X14.771 Y25.853 I5.254 J5.352
G1 X95.012
G2 X102.506 Y18.056 J-7.5
G1 X99.496 Y-57.751
G2 X90.864 Y-64.866 I-7.494 J0.298
G3 X90.294 Y-65.285 I-0.076 J-0.494 F213
G1 X90.218 Y-65.779
G1 X90.209 Y-65.839 Z-1.496
G1 X90.2 Y-65.897 Z-1.485
G1 X90.191 Y-65.954 Z-1.468
G1 X90.183 Y-66.009 Z-1.443
G1 X90.175 Y-66.06 Z-1.411
G1 X90.168 Y-66.107 Z-1.374
G1 X90.161 Y-66.149 Z-1.332
G1 X90.155 Y-66.186 Z-1.284
G1 X90.151 Y-66.217 Z-1.232
G1 X90.147 Y-66.241 Z-1.177
G1 X90.144 Y-66.259 Z-1.12
G1 X90.143 Y-66.27 Z-1.06
G1 X90.142 Y-66.273 Z-1
G1 Z5 F300
G1 X91.13 Y-66.425 F2500
G1 Z1 F30
G1 Z-2.5
G1 X91.131 Y-66.421 Z-2.56
G1 X91.133 Y-66.411 Z-2.62
G1 X91.135 Y-66.393 Z-2.677
G1 X91.139 Y-66.368 Z-2.732
G1 X91.144 Y-66.337 Z-2.784
G1 X91.149 Y-66.301 Z-2.832
G1 X91.156 Y-66.258 Z-2.874
G1 X91.163 Y-66.211 Z-2.911
G1 X91.171 Y-66.16 Z-2.943
G1 X91.179 Y-66.106 Z-2.968
G1 X91.188 Y-66.049 Z-2.985
G1 X91.197 Y-65.99 Z-2.996
G1 X91.206 Y-65.931 Z-3
G1 X91.282 Y-65.437 F213
G3 X90.864 Y-64.866 I-0.494 J0.076
G2 X86.748 Y-62.806 I1.138 J7.413 F200
G1 X9.518 Y13.001
G2 X14.771 Y25.853 I5.254 J5.352
G1 X95.012
G2 X102.506 Y18.056 J-7.5
G1 X99.496 Y-57.751
G2 X90.864 Y-64.866 I-7.494 J0.298
G3 X90.294 Y-65.285 I-0.076 J-0.494 F213
G1 X90.218 Y-65.779
G1 X90.209 Y-65.839 Z-2.996
G1 X90.2 Y-65.897 Z-2.985
G1 X90.191 Y-65.954 Z-2.968
G1 X90.183 Y-66.009 Z-2.943
G1 X90.175 Y-66.06 Z-2.911
G1 X90.168 Y-66.107 Z-2.874
G1 X90.161 Y-66.149 Z-2.832
G1 X90.155 Y-66.186 Z-2.784
G1 X90.151 Y-66.217 Z-2.732
G1 X90.147 Y-66.241 Z-2.677
G1 X90.144 Y-66.259 Z-2.62
G1 X90.143 Y-66.27 Z-2.56
G1 X90.142 Y-66.273 Z-2.5
G1 Z5 F300
G1 X83.331 Y-70.738 F2500
G1 Z1 F30
G1 Z-2.5
G1 X83.327 Y-70.737 Z-2.56
G1 X83.317 Y-70.734 Z-2.62
G1 X83.299 Y-70.73 Z-2.677
G1 X83.275 Y-70.723 Z-2.732
G1 X83.245 Y-70.715 Z-2.784
G1 X83.209 Y-70.706 Z-2.832
G1 X83.168 Y-70.695 Z-2.874
G1 X83.122 Y-70.683 Z-2.911
G1 X83.072 Y-70.669 Z-2.943
G1 X83.019 Y-70.655 Z-2.968
G1 X82.963 Y-70.641 Z-2.985
G1 X82.905 Y-70.626 Z-2.996
G1 X82.847 Y-70.61 Z-3
G1 X82.364 Y-70.483 F213
G3 X81.753 Y-70.838 I-0.128 J-0.483
G2 X74.501 Y-76.424 I-7.252 J1.914 F200
G1 X-5.739
G2 X-13.234 Y-68.626 J7.5
G1 X-10.223 Y7.18
G2 X2.525 Y12.235 I7.494 J-0.298
G1 X79.755 Y-63.572
G2 X81.753 Y-70.838 I-5.254 J-5.352
G3 X82.108 Y-71.449 I0.483 J-0.128 F213
G1 X82.592 Y-71.577
G1 X82.65 Y-71.592 Z-2.996
G1 X82.708 Y-71.608 Z-2.985
G1 X82.763 Y-71.622 Z-2.968
G1 X82.817 Y-71.636 Z-2.943
G1 X82.867 Y-71.65 Z-2.911
G1 X82.912 Y-71.662 Z-2.874
G1 X82.954 Y-71.673 Z-2.832
G1 X82.99 Y-71.682 Z-2.784
G1 X83.02 Y-71.69 Z-2.732
G1 X83.044 Y-71.696 Z-2.677
G1 X83.061 Y-71.701 Z-2.62
G1 X83.072 Y-71.704 Z-2.56
G1 X83.075 Y-71.705 Z-2.5
G1 Z5 F300
G1 X89.128 Y-79.563 F2500
G1 Z1 F30
G1 Z-2.5
G1 Y-79.566 Z-2.56
G1 Y-79.577 Z-2.62
G1 Y-79.595 Z-2.677
G1 Y-79.62 Z-2.732
G1 Y-79.651 Z-2.784
G1 Y-79.688 Z-2.832
G1 Y-79.731 Z-2.874
G1 Y-79.779 Z-2.911
G1 Y-79.83 Z-2.943
G1 Y-79.885 Z-2.968
G1 Y-79.943 Z-2.985
G1 Y-80.002 Z-2.996
G1 Y-80.063 Z-3
G1 Y-80.563 F213
G3 X89.628 Y-81.063 I0.5
G1 X90.766 F200
G2 X98.26 Y-88.86 J-7.5
G1 X95.25 Y-164.666
G2 X82.502 Y-169.721 I-7.494 J0.297
G1 X5.272 Y-93.915
G2 X10.526 Y-81.063 I5.254 J5.352
G1 X89.628
G3 X90.128 Y-80.563 J0.5 F213
G1 Y-80.063
G1 Y-80.002 Z-2.996
G1 Y-79.943 Z-2.985
G1 Y-79.885 Z-2.968
G1 Y-79.83 Z-2.943
G1 Y-79.779 Z-2.911
G1 Y-79.731 Z-2.874
G1 Y-79.688 Z-2.832
G1 Y-79.651 Z-2.784
G1 Y-79.62 Z-2.732
G1 Y-79.595 Z-2.677
G1 Y-79.577 Z-2.62
G1 Y-79.566 Z-2.56
G1 Y-79.563 Z-2.5
G1 Z5 F300
G1 X89.128 F2500
G1 Z-0.5 F30
G1 Z-4
G1 Y-79.566 Z-4.06
G1 Y-79.577 Z-4.12
G1 Y-79.595 Z-4.177
G1 Y-79.62 Z-4.232
G1 Y-79.651 Z-4.284
G1 Y-79.688 Z-4.332
G1 Y-79.731 Z-4.374
G1 Y-79.779 Z-4.411
G1 Y-79.83 Z-4.443
G1 Y-79.885 Z-4.468
G1 Y-79.943 Z-4.485
G1 Y-80.002 Z-4.496
G1 Y-80.063 Z-4.5
G1 Y-80.563 F213
G3 X89.628 Y-81.063 I0.5
G1 X90.766 F200
G2 X98.26 Y-88.86 J-7.5
G1 X95.25 Y-164.666
G2 X82.502 Y-169.721 I-7.494 J0.297
G1 X5.272 Y-93.915
G2 X10.526 Y-81.063 I5.254 J5.352
G1 X89.628
G3 X90.128 Y-80.563 J0.5 F213
G1 Y-80.063
G1 Y-80.002 Z-4.496
G1 Y-79.943 Z-4.485
G1 Y-79.885 Z-4.468
G1 Y-79.83 Z-4.443
G1 Y-79.779 Z-4.411
G1 Y-79.731 Z-4.374
G1 Y-79.688 Z-4.332
G1 Y-79.651 Z-4.284
G1 Y-79.62 Z-4.232
G1 Y-79.595 Z-4.177
G1 Y-79.577 Z-4.12
G1 Y-79.566 Z-4.06
G1 Y-79.563 Z-4
G1 Z5 F300
G1 X83.331 Y-70.738 F2500
G1 Z-0.5 F30
G1 Z-4
G1 X83.327 Y-70.737 Z-4.06
G1 X83.317 Y-70.734 Z-4.12
G1 X83.299 Y-70.73 Z-4.177
G1 X83.275 Y-70.723 Z-4.232
G1 X83.245 Y-70.715 Z-4.284
G1 X83.209 Y-70.706 Z-4.332
G1 X83.168 Y-70.695 Z-4.374
G1 X83.122 Y-70.683 Z-4.411
G1 X83.072 Y-70.669 Z-4.443
G1 X83.019 Y-70.655 Z-4.468
G1 X82.963 Y-70.641 Z-4.485
G1 X82.905 Y-70.626 Z-4.496
G1 X82.847 Y-70.61 Z-4.5
G1 X82.364 Y-70.483 F213
G3 X81.753 Y-70.838 I-0.128 J-0.483
G2 X74.501 Y-76.424 I-7.252 J1.914 F200
G1 X-5.739
G2 X-13.234 Y-68.626 J7.5
G1 X-10.223 Y7.18
G2 X2.525 Y12.235 I7.494 J-0.298
G1 X79.755 Y-63.572
G2 X81.753 Y-70.838 I-5.254 J-5.352
G3 X82.108 Y-71.449 I0.483 J-0.128 F213
G1 X82.592 Y-71.577
G1 X82.65 Y-71.592 Z-4.496
G1 X82.708 Y-71.608 Z-4.485
G1 X82.763 Y-71.622 Z-4.468
G1 X82.817 Y-71.636 Z-4.443
G1 X82.867 Y-71.65 Z-4.411
G1 X82.912 Y-71.662 Z-4.374
G1 X82.954 Y-71.673 Z-4.332
G1 X82.99 Y-71.682 Z-4.284
G1 X83.02 Y-71.69 Z-4.232
G1 X83.044 Y-71.696 Z-4.177
G1 X83.061 Y-71.701 Z-4.12
G1 X83.072 Y-71.704 Z-4.06
G1 X83.075 Y-71.705 Z-4
G1 Z5 F300
G1 X91.13 Y-66.425 F2500
G1 Z-0.5 F30
G1 Z-4
G1 X91.131 Y-66.421 Z-4.06
G1 X91.133 Y-66.411 Z-4.12
G1 X91.135 Y-66.393 Z-4.177
G1 X91.139 Y-66.368 Z-4.232
G1 X91.144 Y-66.337 Z-4.284
G1 X91.149 Y-66.301 Z-4.332
G1 X91.156 Y-66.258 Z-4.374
G1 X91.163 Y-66.211 Z-4.411
G1 X91.171 Y-66.16 Z-4.443
G1 X91.179 Y-66.106 Z-4.468
G1 X91.188 Y-66.049 Z-4.485
G1 X91.197 Y-65.99 Z-4.496
G1 X91.206 Y-65.931 Z-4.5
G1 X91.282 Y-65.437 F213
G3 X90.864 Y-64.866 I-0.494 J0.076
G2 X86.748 Y-62.806 I1.138 J7.413 F200
G1 X9.518 Y13.001
G2 X14.771 Y25.853 I5.254 J5.352
G1 X95.012
G2 X102.506 Y18.056 J-7.5
G1 X99.496 Y-57.751
G2 X90.864 Y-64.866 I-7.494 J0.298
G3 X90.294 Y-65.285 I-0.076 J-0.494 F213
G1 X90.218 Y-65.779
G1 X90.209 Y-65.839 Z-4.496
G1 X90.2 Y-65.897 Z-4.485
G1 X90.191 Y-65.954 Z-4.468
G1 X90.183 Y-66.009 Z-4.443
G1 X90.175 Y-66.06 Z-4.411
G1 X90.168 Y-66.107 Z-4.374
G1 X90.161 Y-66.149 Z-4.332
G1 X90.155 Y-66.186 Z-4.284
G1 X90.151 Y-66.217 Z-4.232
G1 X90.147 Y-66.241 Z-4.177
G1 X90.144 Y-66.259 Z-4.12
G1 X90.143 Y-66.27 Z-4.06
G1 X90.142 Y-66.273 Z-4
G1 Z5 F300
G1 X91.13 Y-66.425 F2500
G1 Z-2 F30
G1 Z-5.5
G1 X91.131 Y-66.421 Z-5.56
G1 X91.133 Y-66.411 Z-5.62
G1 X91.135 Y-66.393 Z-5.677
G1 X91.139 Y-66.368 Z-5.732
G1 X91.144 Y-66.337 Z-5.784
G1 X91.149 Y-66.301 Z-5.832
G1 X91.156 Y-66.258 Z-5.874
G1 X91.163 Y-66.211 Z-5.911
G1 X91.171 Y-66.16 Z-5.943
G1 X91.179 Y-66.106 Z-5.968
G1 X91.188 Y-66.049 Z-5.985
G1 X91.197 Y-65.99 Z-5.996
G1 X91.206 Y-65.931 Z-6
G1 X91.282 Y-65.437 F213
G3 X90.864 Y-64.866 I-0.494 J0.076
G2 X86.748 Y-62.806 I1.138 J7.413 F200
G1 X71.806 Y-48.139
G1 Z-4.75
G1 X64.67 Y-41.134
G1 Z-6 F30
G1 X24.639 Y-1.842 F200
G1 Z-4.75
G1 X17.502 Y5.163
G1 Z-6 F30
G1 X9.518 Y13.001 F200
G2 X14.771 Y25.853 I5.254 J5.352
G1 X23.778
G1 Z-4.75
G1 X33.778
G1 Z-6 F30
G1 X80.082 F200
G1 Z-4.75
G1 X90.082
G1 Z-6 F30
G1 X95.012 F200
G2 X102.506 Y18.056 J-7.5
G1 X102.12 Y8.337
G1 Z-4.75
G1 X101.723 Y-1.655
G1 Z-6 F30
G1 X100.373 Y-35.662 F200
G1 Z-4.75
G1 X99.976 Y-45.654
G1 Z-6 F30
G1 X99.496 Y-57.751 F200
G2 X90.864 Y-64.866 I-7.494 J0.298
G3 X90.294 Y-65.285 I-0.076 J-0.494 F213
G1 X90.218 Y-65.779
G1 X90.209 Y-65.839 Z-5.996
G1 X90.2 Y-65.897 Z-5.985
G1 X90.191 Y-65.954 Z-5.968
G1 X90.183 Y-66.009 Z-5.943
G1 X90.175 Y-66.06 Z-5.911
G1 X90.168 Y-66.107 Z-5.874
G1 X90.161 Y-66.149 Z-5.832
G1 X90.155 Y-66.186 Z-5.784
G1 X90.151 Y-66.217 Z-5.732
G1 X90.147 Y-66.241 Z-5.677
G1 X90.144 Y-66.259 Z-5.62
G1 X90.143 Y-66.27 Z-5.56
G1 X90.142 Y-66.273 Z-5.5
G1 Z5 F300
G1 X83.331 Y-70.738 F2500
G1 Z-2 F30
G1 Z-5.5
G1 X83.327 Y-70.737 Z-5.56
G1 X83.317 Y-70.734 Z-5.62
G1 X83.299 Y-70.73 Z-5.677
G1 X83.275 Y-70.723 Z-5.732
G1 X83.245 Y-70.715 Z-5.784
G1 X83.209 Y-70.706 Z-5.832
G1 X83.168 Y-70.695 Z-5.874
G1 X83.122 Y-70.683 Z-5.911
G1 X83.072 Y-70.669 Z-5.943
G1 X83.019 Y-70.655 Z-5.968
G1 X82.963 Y-70.641 Z-5.985
G1 X82.905 Y-70.626 Z-5.996
G1 X82.847 Y-70.61 Z-6
G1 X82.364 Y-70.483 F213
G3 X81.753 Y-70.838 I-0.128 J-0.483
G2 X74.501 Y-76.424 I-7.252 J1.914 F200
G1 X70.105
G1 Z-4.75
G1 X60.105
G1 Z-6 F30
G1 X23.228 F200
G1 Z-4.75
G1 X13.228
G1 Z-6 F30
G1 X-5.739 F200
G2 X-13.234 Y-68.626 J7.5
G1 X-12.822 Y-58.264
G1 Z-4.75
G1 X-12.425 Y-48.272
G1 Z-6 F30
G1 X-10.978 Y-11.84 F200
G1 Z-4.75
G1 X-10.582 Y-1.848
G1 Z-6 F30
G1 X-10.223 Y7.18 F200
G2 X2.525 Y12.235 I7.494 J-0.298
G1 X13.857 Y1.111
G1 Z-4.75
G1 X20.994 Y-5.894
G1 Z-6 F30
G1 X60.775 Y-44.941 F200
G1 Z-4.75
G1 X67.911 Y-51.946
G1 Z-6 F30
G1 X79.755 Y-63.572 F200
G2 X81.753 Y-70.838 I-5.254 J-5.352
G3 X82.108 Y-71.449 I0.483 J-0.128 F213
G1 X82.592 Y-71.577
G1 X82.65 Y-71.592 Z-5.996
G1 X82.708 Y-71.608 Z-5.985
G1 X82.763 Y-71.622 Z-5.968
G1 X82.817 Y-71.636 Z-5.943
G1 X82.867 Y-71.65 Z-5.911
G1 X82.912 Y-71.662 Z-5.874
G1 X82.954 Y-71.673 Z-5.832
G1 X82.99 Y-71.682 Z-5.784
G1 X83.02 Y-71.69 Z-5.732
G1 X83.044 Y-71.696 Z-5.677
G1 X83.061 Y-71.701 Z-5.62
G1 X83.072 Y-71.704 Z-5.56
G1 X83.075 Y-71.705 Z-5.5
G1 Z5 F300
G1 X76.169 Y-182.643 F2500
G1 Z-0.5 F30
G1 Z-4
G1 X76.167 Y-182.64 Z-4.06
G1 X76.16 Y-182.631 Z-4.12
G1 X76.149 Y-182.617 Z-4.177
G1 X76.134 Y-182.597 Z-4.232
G1 X76.115 Y-182.573 Z-4.284
G1 X76.092 Y-182.543 Z-4.332
G1 X76.066 Y-182.51 Z-4.374
G1 X76.037 Y-182.472 Z-4.411
G1 X76.005 Y-182.431 Z-4.443
G1 X75.971 Y-182.388 Z-4.468
G1 X75.936 Y-182.342 Z-4.485
G1 X75.9 Y-182.295 Z-4.496
G1 X75.863 Y-182.248 Z-4.5
G1 X75.556 Y-181.853 F213
G3 X74.855 Y-181.764 I-0.395 J-0.307
G2 X70.255 Y-183.34 I-4.599 J5.925 F200
G1 X-9.985
G2 X-17.479 Y-175.542 J7.5
G1 X-14.469 Y-99.736
G2 X-1.721 Y-94.681 I7.494 J-0.297
G1 X75.509 Y-170.487
G2 X74.855 Y-181.764 I-5.254 J-5.353
G3 X74.766 Y-182.466 I0.307 J-0.395 F213
G1 X75.073 Y-182.861
G1 X75.11 Y-182.908 Z-4.496
G1 X75.146 Y-182.955 Z-4.485
G1 X75.182 Y-183.001 Z-4.468
G1 X75.215 Y-183.044 Z-4.443
G1 X75.247 Y-183.085 Z-4.411
G1 X75.276 Y-183.123 Z-4.374
G1 X75.302 Y-183.156 Z-4.332
G1 X75.325 Y-183.186 Z-4.284
G1 X75.344 Y-183.211 Z-4.232
G1 X75.36 Y-183.23 Z-4.177
G1 X75.371 Y-183.244 Z-4.12
G1 X75.377 Y-183.253 Z-4.06
G1 X75.379 Y-183.256 Z-4
G1 Z5 F300
G1 X76.169 Y-182.643 F2500
G1 Z-2 F30
G1 Z-5.5
G1 X76.167 Y-182.64 Z-5.56
G1 X76.16 Y-182.631 Z-5.62
G1 X76.149 Y-182.617 Z-5.677
G1 X76.134 Y-182.597 Z-5.732
G1 X76.115 Y-182.573 Z-5.784
G1 X76.092 Y-182.543 Z-5.832
G1 X76.066 Y-182.51 Z-5.874
G1 X76.037 Y-182.472 Z-5.911
G1 X76.005 Y-182.431 Z-5.943
G1 X75.971 Y-182.388 Z-5.968
G1 X75.936 Y-182.342 Z-5.985
G1 X75.9 Y-182.295 Z-5.996
G1 X75.863 Y-182.248 Z-6
G1 X75.556 Y-181.853 F213
G3 X74.855 Y-181.764 I-0.395 J-0.307
G2 X70.255 Y-183.34 I-4.599 J5.925 F200
G1 X59.37
G1 Z-4.75
G1 X49.37
G1 Z-6 F30
G1 X7.771 F200
G1 Z-4.75
G1 X-2.229
G1 Z-6 F30
G1 X-9.985 F200
G2 X-17.479 Y-175.542 J7.5
G1 X-17.077 Y-165.411
G1 Z-4.75
G1 X-16.68 Y-155.419
G1 Z-6 F30
G1 X-15.205 Y-118.259 F200
G1 Z-4.75
G1 X-14.808 Y-108.267
G1 Z-6 F30
G1 X-14.469 Y-99.736 F200
G2 X-1.721 Y-94.681 I7.494 J-0.297
G1 X7.942 Y-104.166
G1 Z-4.75
G1 X15.079 Y-111.171
G1 Z-6 F30
G1 X61.306 Y-156.545 F200
G1 Z-4.75
G1 X68.442 Y-163.55
G1 Z-6 F30
G1 X75.509 Y-170.487 F200
G2 X74.855 Y-181.764 I-5.254 J-5.353
G3 X74.766 Y-182.466 I0.307 J-0.395 F213
G1 X75.073 Y-182.861
G1 X75.11 Y-182.908 Z-5.996
G1 X75.146 Y-182.955 Z-5.985
G1 X75.182 Y-183.001 Z-5.968
G1 X75.215 Y-183.044 Z-5.943
G1 X75.247 Y-183.085 Z-5.911
G1 X75.276 Y-183.123 Z-5.874
G1 X75.302 Y-183.156 Z-5.832
G1 X75.325 Y-183.186 Z-5.784
G1 X75.344 Y-183.211 Z-5.732
G1 X75.36 Y-183.23 Z-5.677
G1 X75.371 Y-183.244 Z-5.62
G1 X75.377 Y-183.253 Z-5.56
G1 X75.379 Y-183.256 Z-5.5
G1 Z5 F300
G1 X89.128 Y-79.563 F2500
G1 Z-2 F30
G1 Z-5.5
G1 Y-79.566 Z-5.56
G1 Y-79.577 Z-5.62
G1 Y-79.595 Z-5.677
G1 Y-79.62 Z-5.732
G1 Y-79.651 Z-5.784
G1 Y-79.688 Z-5.832
G1 Y-79.731 Z-5.874
G1 Y-79.779 Z-5.911
G1 Y-79.83 Z-5.943
G1 Y-79.885 Z-5.968
G1 Y-79.943 Z-5.985
G1 Y-80.002 Z-5.996
G1 Y-80.063 Z-6
G1 Y-80.563 F213
G3 X89.628 Y-81.063 I0.5
G1 X90.766 F200
G2 X98.26 Y-88.86 J-7.5
G1 X97.936 Y-97.031
G1 Z-4.75
G1 X97.539 Y-107.023
G1 Z-6 F30
G1 X96.149 Y-142.035 F200
G1 Z-4.75
G1 X95.752 Y-152.027
G1 Z-6 F30
G1 X95.25 Y-164.666 F200
G2 X82.502 Y-169.721 I-7.494 J0.297
G1 X72.319 Y-159.726
G1 Z-4.75
G1 X65.182 Y-152.721
G1 Z-6 F30
G1 X19.063 Y-107.451 F200
G1 Z-4.75
G1 X11.926 Y-100.446
G1 Z-6 F30
G1 X5.272 Y-93.915 F200
G2 X10.526 Y-81.063 I5.254 J5.352
G1 X13.032
G1 Z-4.75
G1 X23.032
G1 Z-6 F30
G1 X59.88 F200
G1 Z-4.75
G1 X69.88
G1 Z-6 F30
G1 X89.628 F200
G3 X90.128 Y-80.563 J0.5 F213
G1 Y-80.063
G1 Y-80.002 Z-5.996
G1 Y-79.943 Z-5.985
G1 Y-79.885 Z-5.968
G1 Y-79.83 Z-5.943
G1 Y-79.779 Z-5.911
G1 Y-79.731 Z-5.874
G1 Y-79.688 Z-5.832
G1 Y-79.651 Z-5.784
G1 Y-79.62 Z-5.732
G1 Y-79.595 Z-5.677
G1 Y-79.577 Z-5.62
G1 Y-79.566 Z-5.56
G1 Y-79.563 Z-5.5
G1 Z15 F300

M400
M117 Job end
G1 X0 Y0 F2500
G1 Z0 F300
