;Fusion 360 CAM 2.0.6258
;Posts processor: MPCNC_Mill_Laser.cps
;Gcode generated: Monday, September 02, 2019 6:40:25 PM GMT
;Document: Ternario superior v7
;Setup: Setup1

G90
G21
M84 S0
G92 X0 Y0 Z0

;Probe tool - Not yet implemented

;Drill1 - Milling - Tool: 1 - drill
;X Min: -6.864 - X Max: 91.89
;Y Min: -172.84 - Y Max: 15.353
;Z Min: -8.803 - Z Max: 15
M400
M117 Drill1
G1 Z15 F300
G1 X-2.618 Y-65.924 F2500
G1 Z5 F300
G1 Z2 F300
G1 Z-1.5 F49
G1 Z-1.38 F300
G1 Z-3 F49
G1 Z-2.88 F300
G1 Z-4.5 F49
G1 Z5 F300
G1 Z-2.5 F300
G1 Z-6 F49
G1 Z-5.88 F300
G1 Z-7.5 F49
G1 Z-7.38 F300
G1 Z-8.803 F49
G1 Z5 F300
G1 X17.865 Y-91.563 F2500
G1 Z2 F300
G1 Z-1.5 F49
G1 Z-1.38 F300
G1 Z-3 F49
G1 Z-2.88 F300
G1 Z-4.5 F49
G1 Z5 F300
G1 Z-2.5 F300
G1 Z-6 F49
G1 Z-5.88 F300
G1 Z-7.5 F49
G1 Z-7.38 F300
G1 Z-8.803 F49
G1 Z5 F300
G1 X-4.246 Y-106.916 F2500
G1 Z2 F300
G1 Z-1.5 F49
G1 Z-1.38 F300
G1 Z-3 F49
G1 Z-2.88 F300
G1 Z-4.5 F49
G1 Z5 F300
G1 Z-2.5 F300
G1 Z-6 F49
G1 Z-5.88 F300
G1 Z-7.5 F49
G1 Z-7.38 F300
G1 Z-8.803 F49
G1 Z5 F300
G1 X-6.864 Y-172.84 F2500
G1 Z2 F300
G1 Z-1.5 F49
G1 Z-1.38 F300
G1 Z-3 F49
G1 Z-2.88 F300
G1 Z-4.5 F49
G1 Z5 F300
G1 Z-2.5 F300
G1 Z-6 F49
G1 Z-5.88 F300
G1 Z-7.5 F49
G1 Z-7.38 F300
G1 Z-8.803 F49
G1 Z5 F300
G1 X62.916 F2500
G1 Z2 F300
G1 Z-1.5 F49
G1 Z-1.38 F300
G1 Z-3 F49
G1 Z-2.88 F300
G1 Z-4.5 F49
G1 Z5 F300
G1 Z-2.5 F300
G1 Z-6 F49
G1 Z-5.88 F300
G1 Z-7.5 F49
G1 Z-7.38 F300
G1 Z-8.803 F49
G1 Z5 F300
G1 X85.027 Y-157.487 F2500
G1 Z2 F300
G1 Z-1.5 F49
G1 Z-1.38 F300
G1 Z-3 F49
G1 Z-2.88 F300
G1 Z-4.5 F49
G1 Z5 F300
G1 Z-2.5 F300
G1 Z-6 F49
G1 Z-5.88 F300
G1 Z-7.5 F49
G1 Z-7.38 F300
G1 Z-8.803 F49
G1 Z5 F300
G1 X87.645 Y-91.563 F2500
G1 Z2 F300
G1 Z-1.5 F49
G1 Z-1.38 F300
G1 Z-3 F49
G1 Z-2.88 F300
G1 Z-4.5 F49
G1 Z5 F300
G1 Z-2.5 F300
G1 Z-6 F49
G1 Z-5.88 F300
G1 Z-7.5 F49
G1 Z-7.38 F300
G1 Z-8.803 F49
G1 Z5 F300
G1 X67.162 Y-65.924 F2500
G1 Z2 F300
G1 Z-1.5 F49
G1 Z-1.38 F300
G1 Z-3 F49
G1 Z-2.88 F300
G1 Z-4.5 F49
G1 Z5 F300
G1 Z-2.5 F300
G1 Z-6 F49
G1 Z-5.88 F300
G1 Z-7.5 F49
G1 Z-7.38 F300
G1 Z-8.803 F49
G1 Z5 F300
G1 X89.272 Y-50.571 F2500
G1 Z2 F300
G1 Z-1.5 F49
G1 Z-1.38 F300
G1 Z-3 F49
G1 Z-2.88 F300
G1 Z-4.5 F49
G1 Z5 F300
G1 Z-2.5 F300
G1 Z-6 F49
G1 Z-5.88 F300
G1 Z-7.5 F49
G1 Z-7.38 F300
G1 Z-8.803 F49
G1 Z5 F300
G1 X91.89 Y15.353 F2500
G1 Z2 F300
G1 Z-1.5 F49
G1 Z-1.38 F300
G1 Z-3 F49
G1 Z-2.88 F300
G1 Z-4.5 F49
G1 Z5 F300
G1 Z-2.5 F300
G1 Z-6 F49
G1 Z-5.88 F300
G1 Z-7.5 F49
G1 Z-7.38 F300
G1 Z-8.803 F49
G1 Z5 F300
G1 X22.11 F2500
G1 Z2 F300
G1 Z-1.5 F49
G1 Z-1.38 F300
G1 Z-3 F49
G1 Z-2.88 F300
G1 Z-4.5 F49
G1 Z5 F300
G1 Z-2.5 F300
G1 Z-6 F49
G1 Z-5.88 F300
G1 Z-7.5 F49
G1 Z-7.38 F300
G1 Z-8.803 F49
G1 Z5 F300
G1 X0 Y0 F2500
G1 Z2 F300
G1 Z-1.5 F49
G1 Z-1.38 F300
G1 Z-3 F49
G1 Z-2.88 F300
G1 Z-4.5 F49
G1 Z5 F300
G1 Z-2.5 F300
G1 Z-6 F49
G1 Z-5.88 F300
G1 Z-7.5 F49
G1 Z-7.38 F300
G1 Z-8.803 F49
G1 Z5 F300
G1 Z15 F300

M400
M117 Job end
G1 X0 Y0 F2500
G1 Z0 F300
