;Fusion 360 CAM 2.0.6263
;Posts processor: MPCNC_Mill_Laser.cps
;Gcode generated: Tuesday, September 10, 2019 9:05:33 PM GMT
;Document: Chasis longitudinal v4
;Setup: Setup1

G90
G21
M84 S0
G92 X0 Y0 Z0

;Probe tool - Not yet implemented

;2D Pocket1 - Milling - Tool: 2 - flat end mill
;X Min: 6.1 - X Max: 19.9
;Y Min: -72.003 - Y Max: -58.204
;Z Min: -7 - Z Max: 15
M400
M117 2D Pocket1
G1 Z15 F300
G1 X13 Y-65.104 F2500
G1 Z5 F300
G1 Z-2 F200
G3 X13.25 Y-65.354 I0.25
G1 X13.65
G3 X13.9 Y-65.104 J0.25
G3 X12.1 I-0.9
G3 X15.9 I1.9
G3 X10.1 I-2.9
G3 X17.9 I3.9
G3 X8.1 I-4.9
G3 X19.9 I5.9
G3 X6.1 I-6.9
G3 X19.9 I6.9
G3 X19.569 Y-64.867 I-0.25
G1 X15.187 Y-66.366
G2 X14.922 Y-66.357 I-0.125 J0.217
G1 X13.14 Y-65.147
G3 X13 Y-65.104 I-0.14 J-0.207
G1 Z-4
G2 X13.08 Y-65.118 J-0.225
G1 X13.595 Y-65.314
G3 X13.9 Y-65.104 I0.08 J0.21
G3 X12.1 I-0.9
G3 X15.9 I1.9
G3 X10.1 I-2.9
G3 X17.9 I3.9
G3 X8.1 I-4.9
G3 X19.9 I5.9
G3 X6.1 I-6.9
G3 X19.9 I6.9
G3 X19.569 Y-64.867 I-0.25
G1 X15.187 Y-66.366
G2 X14.922 Y-66.357 I-0.125 J0.217
G1 X13.14 Y-65.147
G3 X13 Y-65.104 I-0.14 J-0.207
G1 Z-7
G2 X13.08 Y-65.118 J-0.225
G1 X13.595 Y-65.314
G3 X13.9 Y-65.104 I0.08 J0.21
G3 X12.1 I-0.9
G3 X15.9 I1.9
G3 X10.1 I-2.9
G3 X17.9 I3.9
G3 X8.1 I-4.9
G3 X19.9 I5.9
G3 X6.1 I-6.9
G3 X19.9 I6.9
G1 X19.898 Y-65.056 Z-6.99 F213
G1 X19.891 Y-65.008 Z-6.981
G1 X19.88 Y-64.962 Z-6.971
G1 X19.864 Y-64.917 Z-6.962
G1 X19.841 Y-64.868 Z-6.926
G1 X19.813 Y-64.822 Z-6.89
G1 X19.78 Y-64.779 Z-6.854
G1 X19.743 Y-64.739 Z-6.772
G1 X19.701 Y-64.705 Z-6.691
G1 X19.67 Y-64.683 Z-6.5
G1 Z15 F300

;2D Contour3 - Milling - Tool: 2 - flat end mill
;X Min: 5.5 - X Max: 20.5
;Y Min: -72.589 - Y Max: -57.618
;Z Min: -7 - Z Max: 15
M400
M117 2D Contour3
G1 Z15 F300
G1 X7.3 Y-64.604 F2500
G1 Z5 F300
G1 Z1 F30
G1 Z-6.5
G1 X7.296 Z-6.56
G1 X7.285 Z-6.62
G1 X7.268 Z-6.677
G1 X7.243 Z-6.732
G1 X7.211 Z-6.784
G1 X7.174 Z-6.832
G1 X7.132 Z-6.874
G1 X7.084 Z-6.911
G1 X7.032 Z-6.943
G1 X6.977 Z-6.968
G1 X6.92 Z-6.985
G1 X6.86 Z-6.996
G1 X6.8 Z-7
G1 X6.3 F213
G3 X5.8 Y-65.104 J-0.5
G3 X20.2 I7.2 F200
G3 X5.8 I-7.2
G3 X20.5 I7.35
G3 X5.5 I-7.5
G3 X20.5 I7.5
G3 X5.5 I-7.5
G3 X20.5 I7.5
G3 X20 Y-64.604 I-0.5 F213
G1 X19.5
G1 X19.44 Z-6.996
G1 X19.38 Z-6.985
G1 X19.323 Z-6.968
G1 X19.268 Z-6.943
G1 X19.216 Z-6.911
G1 X19.168 Z-6.874
G1 X19.126 Z-6.832
G1 X19.089 Z-6.784
G1 X19.057 Z-6.732
G1 X19.032 Z-6.677
G1 X19.015 Z-6.62
G1 X19.004 Z-6.56
G1 X19 Z-6.5
G1 Z15 F300

;2D Pocket2 - Milling - Tool: 2 - flat end mill
;X Min: 11.5 - X Max: 14.5
;Y Min: -66.601 - Y Max: -63.606
;Z Min: -10 - Z Max: 7
M400
M117 2D Pocket2
G1 Z7 F300
G1 X13 Y-65.104 F2500
G1 Z-5 F300
G1 Z-10 F200
G3 X13.25 Y-65.354 I0.25
G1 X13.65
G3 X13.9 Y-65.104 J0.25
G3 X12.1 I-0.9
G3 X14.2 I1.05
G3 X11.8 I-1.2
G3 X14.5 I1.35
G3 X11.5 I-1.5
G3 X14.5 I1.5
G3 X11.5 I-1.5
G3 X14.5 I1.5
G1 X14.498 Y-65.056 Z-9.99 F213
G1 X14.491 Y-65.008 Z-9.981
G1 X14.48 Y-64.962 Z-9.971
G1 X14.464 Y-64.917 Z-9.962
G1 X14.441 Y-64.868 Z-9.926
G1 X14.413 Y-64.822 Z-9.89
G1 X14.38 Y-64.779 Z-9.854
G1 X14.343 Y-64.739 Z-9.772
G1 X14.301 Y-64.705 Z-9.691
G1 X14.27 Y-64.683 Z-9.5
G1 Z7 F300

;2D Contour1 - Milling - Tool: 2 - flat end mill
;X Min: -15.1 - X Max: 31.126
;Y Min: -143.203 - Y Max: 12.997
;Z Min: -10 - Z Max: 15
M400
M117 2D Contour1
G1 Z15 F300
G1 X30.58 Y-46.172 F2500
G1 Z5 F300
G1 Z3 F30
G1 Z-1.5
G1 X30.577 Y-46.174 Z-1.56
G1 X30.568 Y-46.18 Z-1.62
G1 X30.553 Y-46.19 Z-1.677
G1 X30.532 Y-46.203 Z-1.732
G1 X30.506 Y-46.22 Z-1.784
G1 X30.475 Y-46.241 Z-1.832
G1 X30.439 Y-46.264 Z-1.874
G1 X30.399 Y-46.29 Z-1.911
G1 X30.356 Y-46.318 Z-1.943
G1 X30.31 Y-46.348 Z-1.968
G1 X30.261 Y-46.38 Z-1.985
G1 X30.212 Y-46.412 Z-1.996
G1 X30.161 Y-46.445 Z-2
G1 X29.742 Y-46.718 F213
G3 X29.597 Y-47.41 I0.273 J-0.419
G2 X30.1 Y-49.104 I-2.597 J-1.693 F200
G1 Y-81.104
G2 X29.192 Y-83.296 I-3.1
G1 X15.1 Y-97.388
G1 Y-110.103
G2 X12 Y-113.203 I-3.1
G1 X9.1
G1 Y-135.103
G2 X1 Y-143.203 I-8.1
G1 X-1
G2 X-9.1 Y-135.103 J8.1
G1 Y-113.203
G1 X-12
G2 X-15.1 Y-110.103 J3.1
G1 Y-20.104
G2 X-12 Y-17.003 I3.1
G1 X-9.1
G1 Y4.897
G2 X-1 Y12.997 I8.1
G1 X1
G2 X9.1 Y4.897 J-8.1
G1 Y-17.003
G1 X12
G2 X15.1 Y-20.104 J-3.1
G1 Y-32.819
G1 X29.192 Y-46.911
G2 X29.597 Y-47.41 I-2.192 J-2.192
G3 X30.289 Y-47.556 I0.419 J0.273 F213
G1 X30.707 Y-47.283
G1 X30.758 Y-47.25 Z-1.996
G1 X30.808 Y-47.217 Z-1.985
G1 X30.856 Y-47.186 Z-1.968
G1 X30.902 Y-47.156 Z-1.943
G1 X30.945 Y-47.128 Z-1.911
G1 X30.985 Y-47.102 Z-1.874
G1 X31.021 Y-47.078 Z-1.832
G1 X31.052 Y-47.058 Z-1.784
G1 X31.078 Y-47.041 Z-1.732
G1 X31.099 Y-47.027 Z-1.677
G1 X31.114 Y-47.018 Z-1.62
G1 X31.123 Y-47.012 Z-1.56
G1 X31.126 Y-47.01 Z-1.5
G1 Z5 F300
G1 X30.58 Y-46.172 F2500
G1 Z1 F30
G1 Z-3.5
G1 X30.577 Y-46.174 Z-3.56
G1 X30.568 Y-46.18 Z-3.62
G1 X30.553 Y-46.19 Z-3.677
G1 X30.532 Y-46.203 Z-3.732
G1 X30.506 Y-46.22 Z-3.784
G1 X30.475 Y-46.241 Z-3.832
G1 X30.439 Y-46.264 Z-3.874
G1 X30.399 Y-46.29 Z-3.911
G1 X30.356 Y-46.318 Z-3.943
G1 X30.31 Y-46.348 Z-3.968
G1 X30.261 Y-46.38 Z-3.985
G1 X30.212 Y-46.412 Z-3.996
G1 X30.161 Y-46.445 Z-4
G1 X29.742 Y-46.718 F213
G3 X29.597 Y-47.41 I0.273 J-0.419
G2 X30.1 Y-49.104 I-2.597 J-1.693 F200
G1 Y-81.104
G2 X29.192 Y-83.296 I-3.1
G1 X15.1 Y-97.388
G1 Y-110.103
G2 X12 Y-113.203 I-3.1
G1 X9.1
G1 Y-135.103
G2 X1 Y-143.203 I-8.1
G1 X-1
G2 X-9.1 Y-135.103 J8.1
G1 Y-113.203
G1 X-12
G2 X-15.1 Y-110.103 J3.1
G1 Y-20.104
G2 X-12 Y-17.003 I3.1
G1 X-9.1
G1 Y4.897
G2 X-1 Y12.997 I8.1
G1 X1
G2 X9.1 Y4.897 J-8.1
G1 Y-17.003
G1 X12
G2 X15.1 Y-20.104 J-3.1
G1 Y-32.819
G1 X29.192 Y-46.911
G2 X29.597 Y-47.41 I-2.192 J-2.192
G3 X30.289 Y-47.556 I0.419 J0.273 F213
G1 X30.707 Y-47.283
G1 X30.758 Y-47.25 Z-3.996
G1 X30.808 Y-47.217 Z-3.985
G1 X30.856 Y-47.186 Z-3.968
G1 X30.902 Y-47.156 Z-3.943
G1 X30.945 Y-47.128 Z-3.911
G1 X30.985 Y-47.102 Z-3.874
G1 X31.021 Y-47.078 Z-3.832
G1 X31.052 Y-47.058 Z-3.784
G1 X31.078 Y-47.041 Z-3.732
G1 X31.099 Y-47.027 Z-3.677
G1 X31.114 Y-47.018 Z-3.62
G1 X31.123 Y-47.012 Z-3.56
G1 X31.126 Y-47.01 Z-3.5
G1 Z5 F300
G1 X30.58 Y-46.172 F2500
G1 Z-1 F30
G1 Z-5.5
G1 X30.577 Y-46.174 Z-5.56
G1 X30.568 Y-46.18 Z-5.62
G1 X30.553 Y-46.19 Z-5.677
G1 X30.532 Y-46.203 Z-5.732
G1 X30.506 Y-46.22 Z-5.784
G1 X30.475 Y-46.241 Z-5.832
G1 X30.439 Y-46.264 Z-5.874
G1 X30.399 Y-46.29 Z-5.911
G1 X30.356 Y-46.318 Z-5.943
G1 X30.31 Y-46.348 Z-5.968
G1 X30.261 Y-46.38 Z-5.985
G1 X30.212 Y-46.412 Z-5.996
G1 X30.161 Y-46.445 Z-6
G1 X29.742 Y-46.718 F213
G3 X29.597 Y-47.41 I0.273 J-0.419
G2 X30.1 Y-49.104 I-2.597 J-1.693 F200
G1 Y-81.104
G2 X29.192 Y-83.296 I-3.1
G1 X15.1 Y-97.388
G1 Y-110.103
G2 X12 Y-113.203 I-3.1
G1 X9.1
G1 Y-135.103
G2 X1 Y-143.203 I-8.1
G1 X-1
G2 X-9.1 Y-135.103 J8.1
G1 Y-113.203
G1 X-12
G2 X-15.1 Y-110.103 J3.1
G1 Y-20.104
G2 X-12 Y-17.003 I3.1
G1 X-9.1
G1 Y4.897
G2 X-1 Y12.997 I8.1
G1 X1
G2 X9.1 Y4.897 J-8.1
G1 Y-17.003
G1 X12
G2 X15.1 Y-20.104 J-3.1
G1 Y-32.819
G1 X29.192 Y-46.911
G2 X29.597 Y-47.41 I-2.192 J-2.192
G3 X30.289 Y-47.556 I0.419 J0.273 F213
G1 X30.707 Y-47.283
G1 X30.758 Y-47.25 Z-5.996
G1 X30.808 Y-47.217 Z-5.985
G1 X30.856 Y-47.186 Z-5.968
G1 X30.902 Y-47.156 Z-5.943
G1 X30.945 Y-47.128 Z-5.911
G1 X30.985 Y-47.102 Z-5.874
G1 X31.021 Y-47.078 Z-5.832
G1 X31.052 Y-47.058 Z-5.784
G1 X31.078 Y-47.041 Z-5.732
G1 X31.099 Y-47.027 Z-5.677
G1 X31.114 Y-47.018 Z-5.62
G1 X31.123 Y-47.012 Z-5.56
G1 X31.126 Y-47.01 Z-5.5
G1 Z5 F300
G1 X30.58 Y-46.172 F2500
G1 Z-3 F30
G1 Z-7.5
G1 X30.577 Y-46.174 Z-7.56
G1 X30.568 Y-46.18 Z-7.62
G1 X30.553 Y-46.19 Z-7.677
G1 X30.532 Y-46.203 Z-7.732
G1 X30.506 Y-46.22 Z-7.784
G1 X30.475 Y-46.241 Z-7.832
G1 X30.439 Y-46.264 Z-7.874
G1 X30.399 Y-46.29 Z-7.911
G1 X30.356 Y-46.318 Z-7.943
G1 X30.31 Y-46.348 Z-7.968
G1 X30.261 Y-46.38 Z-7.985
G1 X30.212 Y-46.412 Z-7.996
G1 X30.161 Y-46.445 Z-8
G1 X29.742 Y-46.718 F213
G3 X29.597 Y-47.41 I0.273 J-0.419
G2 X30.1 Y-49.104 I-2.597 J-1.693 F200
G1 Y-81.104
G2 X29.192 Y-83.296 I-3.1
G1 X15.1 Y-97.388
G1 Y-110.103
G2 X12 Y-113.203 I-3.1
G1 X9.1
G1 Y-135.103
G2 X1 Y-143.203 I-8.1
G1 X-1
G2 X-9.1 Y-135.103 J8.1
G1 Y-113.203
G1 X-12
G2 X-15.1 Y-110.103 J3.1
G1 Y-20.104
G2 X-12 Y-17.003 I3.1
G1 X-9.1
G1 Y4.897
G2 X-1 Y12.997 I8.1
G1 X1
G2 X9.1 Y4.897 J-8.1
G1 Y-17.003
G1 X12
G2 X15.1 Y-20.104 J-3.1
G1 Y-32.819
G1 X29.192 Y-46.911
G2 X29.597 Y-47.41 I-2.192 J-2.192
G3 X30.289 Y-47.556 I0.419 J0.273 F213
G1 X30.707 Y-47.283
G1 X30.758 Y-47.25 Z-7.996
G1 X30.808 Y-47.217 Z-7.985
G1 X30.856 Y-47.186 Z-7.968
G1 X30.902 Y-47.156 Z-7.943
G1 X30.945 Y-47.128 Z-7.911
G1 X30.985 Y-47.102 Z-7.874
G1 X31.021 Y-47.078 Z-7.832
G1 X31.052 Y-47.058 Z-7.784
G1 X31.078 Y-47.041 Z-7.732
G1 X31.099 Y-47.027 Z-7.677
G1 X31.114 Y-47.018 Z-7.62
G1 X31.123 Y-47.012 Z-7.56
G1 X31.126 Y-47.01 Z-7.5
G1 Z5 F300
G1 X30.58 Y-46.172 F2500
G1 Z-5 F30
G1 Z-9.5
G1 X30.577 Y-46.174 Z-9.56
G1 X30.568 Y-46.18 Z-9.62
G1 X30.553 Y-46.19 Z-9.677
G1 X30.532 Y-46.203 Z-9.732
G1 X30.506 Y-46.22 Z-9.784
G1 X30.475 Y-46.241 Z-9.832
G1 X30.439 Y-46.264 Z-9.874
G1 X30.399 Y-46.29 Z-9.911
G1 X30.356 Y-46.318 Z-9.943
G1 X30.31 Y-46.348 Z-9.968
G1 X30.261 Y-46.38 Z-9.985
G1 X30.212 Y-46.412 Z-9.996
G1 X30.161 Y-46.445 Z-10
G1 X29.742 Y-46.718 F213
G3 X29.597 Y-47.41 I0.273 J-0.419
G2 X30.1 Y-49.104 I-2.597 J-1.693 F200
G1 Y-60.532
G1 Z-8.75
G1 Y-70.532
G1 Z-10 F30
G1 Y-81.104 F200
G2 X29.192 Y-83.296 I-3.1
G1 X15.1 Y-97.388
G1 Y-97.762
G1 Z-8.75
G1 Y-107.762
G1 Z-10 F30
G1 Y-110.103 F200
G2 X12 Y-113.203 I-3.1
G1 X9.1
G1 Y-125.602
G1 Z-8.75
G1 Y-135.103
G2 X9.085 Y-135.602 I-8.1
G1 Z-10 F30
G2 X1 Y-143.203 I-8.085 J0.499 F200
G1 X-1
G2 X-9.1 Y-135.103 J8.1
G1 Y-130.87
G1 Z-8.75
G1 Y-120.87
G1 Z-10 F30
G1 Y-113.203 F200
G1 X-12
G2 X-15.1 Y-110.103 J3.1
G1 Y-70.555
G1 Z-8.75
G1 Y-60.555
G1 Z-10 F30
G1 Y-20.104 F200
G2 X-12 Y-17.003 I3.1
G1 X-9.1
G1 Y-10.693
G1 Z-8.75
G1 Y-0.693
G1 Z-10 F30
G1 Y4.897 F200
G2 X-1 Y12.997 I8.1
G1 X1
G2 X8.948 Y6.459 J-8.1
G1 Z-8.75
G2 X9.1 Y4.897 I-7.948 J-1.563
G1 Y-3.541
G1 Z-10 F30
G1 Y-17.003 F200
G1 X12
G2 X15.1 Y-20.104 J-3.1
G1 Y-22.563
G1 Z-8.75
G1 Y-32.563
G1 Z-10 F30
G1 Y-32.819 F200
G1 X29.192 Y-46.911
G2 X29.597 Y-47.41 I-2.192 J-2.192
G3 X30.289 Y-47.556 I0.419 J0.273 F213
G1 X30.707 Y-47.283
G1 X30.758 Y-47.25 Z-9.996
G1 X30.808 Y-47.217 Z-9.985
G1 X30.856 Y-47.186 Z-9.968
G1 X30.902 Y-47.156 Z-9.943
G1 X30.945 Y-47.128 Z-9.911
G1 X30.985 Y-47.102 Z-9.874
G1 X31.021 Y-47.078 Z-9.832
G1 X31.052 Y-47.058 Z-9.784
G1 X31.078 Y-47.041 Z-9.732
G1 X31.099 Y-47.027 Z-9.677
G1 X31.114 Y-47.018 Z-9.62
G1 X31.123 Y-47.012 Z-9.56
G1 X31.126 Y-47.01 Z-9.5
G1 Z15 F300

;2D Contour2 - Milling - Tool: 2 - flat end mill
;X Min: -14.8 - X Max: 30.881
;Y Min: -142.903 - Y Max: 12.697
;Z Min: -10 - Z Max: 15
M400
M117 2D Contour2
G1 Z15 F300
G1 X30.329 Y-46.336 F2500
G1 Z5 F300
G1 Z1 F30
G1 Z-9.5
G1 X30.326 Y-46.338 Z-9.56
G1 X30.317 Y-46.344 Z-9.62
G1 X30.302 Y-46.354 Z-9.677
G1 X30.281 Y-46.367 Z-9.732
G1 X30.255 Y-46.384 Z-9.784
G1 X30.223 Y-46.405 Z-9.832
G1 X30.188 Y-46.428 Z-9.874
G1 X30.148 Y-46.454 Z-9.911
G1 X30.105 Y-46.482 Z-9.943
G1 X30.058 Y-46.512 Z-9.968
G1 X30.01 Y-46.544 Z-9.985
G1 X29.96 Y-46.576 Z-9.996
G1 X29.91 Y-46.609 Z-10
G1 X29.491 Y-46.882 F213
G3 X29.345 Y-47.574 I0.273 J-0.419
G2 X29.8 Y-49.104 I-2.345 J-1.529 F200
G1 Y-60.18
G1 Z-8.75
G1 Y-70.18
G1 Z-10 F30
G1 Y-81.104 F200
G2 X28.98 Y-83.083 I-2.8
G1 X15.615 Y-96.448
G1 Z-8.75
G1 X14.8 Y-97.263
G1 Y-106.448
G1 Z-10 F30
G1 Y-110.103 F200
G2 X12 Y-112.903 I-2.8
G1 X8.8
G1 Y-126.486
G1 Z-8.75
G1 Y-135.103
G2 X8.676 Y-136.486 I-7.8
G1 Z-10 F30
G2 X1 Y-142.903 I-7.676 J1.383 F200
G1 X-1
G2 X-8.8 Y-135.103 J7.8
G1 Y-129.058
G1 Z-8.75
G1 Y-119.058
G1 Z-10 F30
G1 Y-112.903 F200
G1 X-12
G2 X-14.8 Y-110.103 J2.8
G1 Y-71.302
G1 Z-8.75
G1 Y-61.303
G1 Z-10 F30
G1 Y-20.104 F200
G2 X-12 Y-17.303 I2.8
G1 X-8.8
G1 Y-9.689
G1 Z-8.75
G1 Y0.311
G1 Z-10 F30
G1 Y4.897 F200
G2 X-1 Y12.697 I7.8
G1 X1
G2 X8.786 Y5.359 J-7.8
G1 Z-8.75
G2 X8.8 Y4.897 I-7.786 J-0.463
G1 Y-4.641
G1 Z-10 F30
G1 Y-17.303 F200
G1 X12
G2 X14.8 Y-20.104 J-2.8
G1 Y-23.516
G1 Z-8.75
G1 Y-32.944
G1 X15.372 Y-33.516
G1 Z-10 F30
G1 X28.98 Y-47.124 F200
G2 X29.345 Y-47.574 I-1.98 J-1.98
G2 X29.338 Y-47.855 I-0.207 J-0.135
G3 X29.305 Y-48.135 I0.23 J-0.169
G2 X29.5 Y-49.104 I-2.305 J-0.969
G1 Y-60.18
G1 Z-8.75
G1 Y-70.18
G1 Z-10 F30
G1 Y-81.104 F200
G2 X28.768 Y-82.871 I-2.5
G1 X15.191 Y-96.448
G1 Z-8.75
G1 X14.5 Y-97.139
G1 Y-106.448
G1 Z-10 F30
G1 Y-110.103 F200
G2 X12 Y-112.603 I-2.5
G1 X8.5
G1 Y-126.486
G1 Z-8.75
G1 Y-135.103
G2 X8.371 Y-136.486 I-7.5
G1 Z-10 F30
G2 X1 Y-142.603 I-7.371 J1.383 F200
G1 X-1
G2 X-8.5 Y-135.103 J7.5
G1 Y-129.058
G1 Z-8.75
G1 Y-119.058
G1 Z-10 F30
G1 Y-112.603 F200
G1 X-12
G2 X-14.5 Y-110.103 J2.5
G1 Y-71.302
G1 Z-8.75
G1 Y-61.303
G1 Z-10 F30
G1 Y-20.104 F200
G2 X-12 Y-17.604 I2.5
G1 X-8.5
G1 Y-9.689
G1 Z-8.75
G1 Y0.311
G1 Z-10 F30
G1 Y4.897 F200
G2 X-1 Y12.397 I7.5
G1 X1
G2 X8.486 Y5.359 J-7.5
G1 Z-8.75
G2 X8.5 Y4.897 I-7.486 J-0.463
G1 Y-4.641
G1 Z-10 F30
G1 Y-17.604 F200
G1 X12
G2 X14.5 Y-20.104 J-2.5
G1 Y-23.516
G1 Z-8.75
G1 Y-33.068
G1 X14.948 Y-33.516
G1 Z-10 F30
G1 X28.768 Y-47.336 F200
G2 X29.5 Y-49.104 I-1.768 J-1.768
G1 Y-60.18
G1 Z-8.75
G1 Y-70.18
G1 Z-10 F30
G1 Y-81.104 F200
G2 X28.768 Y-82.871 I-2.5
G1 X15.191 Y-96.448
G1 Z-8.75
G1 X14.5 Y-97.139
G1 Y-106.448
G1 Z-10 F30
G1 Y-110.103 F200
G2 X12 Y-112.603 I-2.5
G1 X8.5
G1 Y-126.486
G1 Z-8.75
G1 Y-135.103
G2 X8.371 Y-136.486 I-7.5
G1 Z-10 F30
G2 X1 Y-142.603 I-7.371 J1.383 F200
G1 X-1
G2 X-8.5 Y-135.103 J7.5
G1 Y-129.058
G1 Z-8.75
G1 Y-119.058
G1 Z-10 F30
G1 Y-112.603 F200
G1 X-12
G2 X-14.5 Y-110.103 J2.5
G1 Y-71.302
G1 Z-8.75
G1 Y-61.303
G1 Z-10 F30
G1 Y-20.104 F200
G2 X-12 Y-17.604 I2.5
G1 X-8.5
G1 Y-9.689
G1 Z-8.75
G1 Y0.311
G1 Z-10 F30
G1 Y4.897 F200
G2 X-1 Y12.397 I7.5
G1 X1
G2 X8.486 Y5.359 J-7.5
G1 Z-8.75
G2 X8.5 Y4.897 I-7.486 J-0.463
G1 Y-4.641
G1 Z-10 F30
G1 Y-17.604 F200
G1 X12
G2 X14.5 Y-20.104 J-2.5
G1 Y-23.516
G1 Z-8.75
G1 Y-33.068
G1 X14.948 Y-33.516
G1 Z-10 F30
G1 X28.768 Y-47.336 F200
G2 X29.305 Y-48.135 I-1.768 J-1.768
G3 X29.959 Y-48.402 I0.461 J0.194 F213
G1 X30.42 Y-48.208
G1 X30.476 Y-48.185 Z-9.996
G1 X30.531 Y-48.162 Z-9.985
G1 X30.584 Y-48.14 Z-9.968
G1 X30.635 Y-48.118 Z-9.943
G1 X30.682 Y-48.098 Z-9.911
G1 X30.726 Y-48.08 Z-9.874
G1 X30.765 Y-48.063 Z-9.832
G1 X30.8 Y-48.049 Z-9.784
G1 X30.829 Y-48.037 Z-9.732
G1 X30.851 Y-48.027 Z-9.677
G1 X30.868 Y-48.02 Z-9.62
G1 X30.878 Y-48.016 Z-9.56
G1 X30.881 Y-48.015 Z-9.5
G1 Z15 F300

M400
M117 Job end
G1 X0 Y0 F2500
G1 Z0 F300
